;FLAVOR:Marlin
;TIME:6666
;Filament used: 0m
;Layer height: 0.1

;Generated with Cura_SteamEngine master
M104 S215
M109 S215
G28 ;Home
G1 Z15.0 F6000 ;Move the platform down 15mm
;Prime the extruder
G92 E0
G1 F200 E3
G92 E0
;LAYER_COUNT:18
;LAYER:0
M107
G0 F3600 X4.922 Y-1.094 Z0.3
G0 X5.826 Y1.121
;TYPE:SKIRT
G1 F1800 X5.648 Y0.789 E0.00709
G1 X5.459 Y0.355 E0.01599
G1 X5.178 Y-.347 E0.03021
G1 X4.922 Y-1.094 E0.04507
G1 X4.711 Y-2.054 E0.06356
G1 X4.606 Y-2.733 E0.07648
G1 X4.525 Y-3.518 E0.09133
G1 X4.524 Y-3.742 E0.09554
G1 X4.397 Y-3.899 E0.09934
G1 X3.793 Y-4.87 E0.12085
G1 X3.219 Y-5.964 E0.14409
G1 X2.888 Y-6.681 E0.15894
G1 X2.631 Y-7.428 E0.1738
G1 X2.391 Y-8.585 E0.19603
G1 X2.272 Y-9.503 E0.21344
G1 X2.21 Y-10.291 E0.22831
G1 X2.228 Y-11.08 E0.24316
G1 X2.357 Y-12.028 E0.26115
G1 X2.438 Y-12.435 E0.26896
G1 X2.631 Y-13.201 E0.28382
G1 X2.901 Y-13.943 E0.29867
G1 X3.244 Y-14.655 E0.31354
G1 X3.753 Y-15.463 E0.3315
G1 X4.12 Y-15.974 E0.34333
G1 X4.612 Y-16.591 E0.35818
G1 X5.165 Y-17.156 E0.37305
G1 X5.771 Y-17.661 E0.38789
G1 X6.426 Y-18.103 E0.40275
G1 X6.806 Y-18.318 E0.41097
G1 X7.541 Y-18.707 E0.42661
G1 X8.257 Y-19.041 E0.44147
G1 X9.342 Y-19.391 E0.46291
G1 X9.826 Y-19.509 E0.47229
G1 X10.602 Y-19.657 E0.48715
G1 X11.706 Y-19.731 E0.50796
G1 X13.188 Y-19.725 E0.53584
G1 X13.353 Y-19.716 E0.53895
G1 X13.578 Y-19.745 E0.54321
G1 X14.705 Y-19.752 E0.56441
G1 X16.207 Y-19.652 E0.59273
G1 X16.991 Y-19.559 E0.60758
G1 X18.097 Y-19.288 E0.629
G1 X19.428 Y-18.856 E0.65532
G1 X20.166 Y-18.575 E0.67018
G1 X20.72 Y-18.303 E0.68179
G1 X21.109 Y-18.093 E0.6901
G1 X21.6 Y-18.369 E0.7007
G1 X23.021 Y-19.057 E0.73039
G1 X23.748 Y-19.365 E0.74525
G1 X24.503 Y-19.598 E0.76011
G1 X25.277 Y-19.753 E0.77496
G1 X25.866 Y-19.817 E0.7861
G1 X26.133 Y-19.836 E0.79114
G1 X26.923 Y-19.852 E0.806
G1 X27.71 Y-19.789 E0.82085
G1 X28.487 Y-19.646 E0.83571
G1 X29.245 Y-19.425 E0.85057
G1 X29.977 Y-19.128 E0.86542
G1 X30.023 Y-19.104 E0.8664
G1 X30.077 Y-19.116 E0.86744
G1 X30.861 Y-19.216 E0.88231
G1 X31.672 Y-19.235 E0.89757
G1 X35.853 Y-19.116 E0.97625
G1 X36.64 Y-19.053 E0.9911
G1 X37.417 Y-18.912 E1.00595
G1 X37.691 Y-18.833 E1.01132
G1 X38.209 Y-19.068 E1.02202
G1 X38.957 Y-19.32 E1.03686
G1 X39.99 Y-19.536 E1.05672
G1 X40.985 Y-19.675 E1.07561
G1 X41.945 Y-19.749 E1.09372
G1 X42.799 Y-19.762 E1.10979
G1 X43.319 Y-19.744 E1.11958
G1 X43.346 Y-19.747 E1.12009
G1 X44.427 Y-19.754 E1.14042
G1 X45.922 Y-19.66 E1.1686
G1 X46.707 Y-19.57 E1.18346
G1 X47.195 Y-19.473 E1.19282
G1 X47.842 Y-19.323 E1.20532
G1 X48.17 Y-19.229 E1.21173
G1 X48.29 Y-19.281 E1.2142
G1 X49.044 Y-19.518 E1.22906
G1 X49.817 Y-19.678 E1.24391
G1 X50.602 Y-19.758 E1.25875
G1 X51.007 Y-19.769 E1.26638
G1 X51.161 Y-19.769 E1.26927
G1 X51.95 Y-19.729 E1.28413
G1 X52.73 Y-19.61 E1.29897
G1 X53.495 Y-19.412 E1.31384
G1 X54.235 Y-19.138 E1.32868
G1 X54.944 Y-18.79 E1.34354
G1 X55.615 Y-18.372 E1.35841
G1 X56.239 Y-17.889 E1.37325
G1 X56.812 Y-17.346 E1.3881
G1 X57.327 Y-16.747 E1.40296
G1 X57.555 Y-16.42 E1.41046
G1 X57.772 Y-16.727 E1.41753
G1 X58.26 Y-17.348 E1.43239
G1 X58.809 Y-17.916 E1.44725
G1 X59.412 Y-18.425 E1.46209
G1 X60.064 Y-18.871 E1.47695
G1 X60.757 Y-19.249 E1.4918
G1 X61.486 Y-19.555 E1.50667
G1 X62.241 Y-19.785 E1.52152
G1 X63.016 Y-19.938 E1.53638
G1 X64.137 Y-20.019 E1.55752
G1 X64.343 Y-20.019 E1.56139
G1 X65.132 Y-19.979 E1.57625
G1 X65.912 Y-19.86 E1.5911
G1 X66.677 Y-19.662 E1.60596
G1 X67.417 Y-19.388 E1.6208
G1 X68.126 Y-19.04 E1.63566
G1 X68.797 Y-18.622 E1.65053
G1 X69.421 Y-18.139 E1.66537
G1 X69.994 Y-17.596 E1.68022
G1 X70.015 Y-17.571 E1.68084
G1 X70.596 Y-18.008 E1.69451
G1 X71.165 Y-18.358 E1.70708
G1 X71.87 Y-18.751 E1.72226
G1 X72.578 Y-19.1 E1.73711
G1 X73.318 Y-19.376 E1.75197
G1 X74.083 Y-19.575 E1.76684
G1 X75.096 Y-19.717 E1.78608
G1 X76.103 Y-19.791 E1.80507
G1 X76.893 Y-19.809 E1.81993
G1 X77.68 Y-19.747 E1.83478
G1 X78.457 Y-19.606 E1.84964
G1 X79.216 Y-19.387 E1.8645
G1 X79.948 Y-19.092 E1.87934
G1 X80.647 Y-18.725 E1.89419
G1 X81.306 Y-18.289 E1.90906
G1 X81.917 Y-17.788 E1.92392
G1 X82.474 Y-17.229 E1.93877
G1 X82.972 Y-16.616 E1.95362
G1 X83.405 Y-15.955 E1.96849
G1 X83.769 Y-15.255 E1.98333
G1 X84.061 Y-14.521 E1.99819
G1 X84.276 Y-13.761 E2.01304
G1 X84.294 Y-13.662 E2.01494
G1 X84.587 Y-13.476 E2.02146
G1 X85.208 Y-12.988 E2.03632
G1 X85.777 Y-12.44 E2.05118
G1 X86.287 Y-11.837 E2.06604
G1 X86.671 Y-11.288 E2.07864
G1 X86.833 Y-11.033 E2.08432
G1 X87.222 Y-10.345 E2.09919
G1 X87.54 Y-9.623 E2.11403
G1 X87.783 Y-8.871 E2.12889
G1 X87.948 Y-8.099 E2.14374
G1 X88.035 Y-7.314 E2.1586
G1 X88.042 Y-6.525 E2.17344
G1 X87.969 Y-5.738 E2.18831
G1 X87.894 Y-5.354 E2.19567
G1 X87.905 Y-5.221 E2.19818
G1 X87.942 Y-4.594 E2.21
G1 X87.949 Y-3.805 E2.22484
G1 X87.876 Y-3.019 E2.23969
G1 X87.741 Y-2.314 E2.25319
G1 X87.554 Y-1.535 E2.26826
G1 X87.331 Y-.778 E2.2831
G1 X87.032 Y-0.047 E2.29796
G1 X86.661 Y0.651 E2.31283
G1 X86.222 Y1.307 E2.32768
G1 X85.484 Y2.159 E2.34888
G1 X84.785 Y2.858 E2.36747
G1 X84.199 Y3.388 E2.38234
G1 X83.563 Y3.855 E2.39718
G1 X82.883 Y4.256 E2.41203
G1 X82.165 Y4.586 E2.42689
G1 X81.418 Y4.841 E2.44174
G1 X80.77 Y4.997 E2.45428
G1 X80.03 Y5.142 E2.46846
G1 X79.248 Y5.255 E2.48333
G1 X78.459 Y5.288 E2.49818
G1 X77.671 Y5.241 E2.51303
G1 X77.238 Y5.171 E2.52128
G1 X76.923 Y5.212 E2.52726
G1 X76.382 Y5.237 E2.53744
G1 X74.569 Y5.256 E2.57155
G1 X73.78 Y5.224 E2.5864
G1 X73.48 Y5.181 E2.5921
G1 X73.431 Y5.186 E2.59303
G1 X71.732 Y5.261 E2.62502
G1 X70.942 Y5.256 E2.63988
G1 X70.157 Y5.171 E2.65473
G1 X69.714 Y5.077 E2.66325
G1 X69.625 Y5.096 E2.66496
G1 X68.845 Y5.222 E2.67983
G1 X67.951 Y5.269 E2.69667
G1 X60.552 Y5.23 E2.83585
G1 X59.763 Y5.186 E2.85071
G1 X59.028 Y5.069 E2.86471
G1 X58.631 Y5.146 E2.87232
G1 X57.849 Y5.257 E2.88718
G1 X57.06 Y5.287 E2.90203
G1 X56.272 Y5.239 E2.91688
G1 X56.227 Y5.232 E2.91773
G1 X55.989 Y5.263 E2.92225
G1 X55.333 Y5.288 E2.9346
G1 X50.414 Y5.269 E3.02713
G1 X49.625 Y5.226 E3.04199
G1 X48.845 Y5.103 E3.05684
G1 X48.082 Y4.903 E3.07168
G1 X47.342 Y4.626 E3.08655
G1 X46.73 Y4.322 E3.0994
G1 X46.633 Y4.382 E3.10154
G1 X45.665 Y4.829 E3.1216
G1 X45.453 Y4.91 E3.12587
G1 X44.702 Y5.154 E3.14072
G1 X43.93 Y5.321 E3.15558
G1 X43.145 Y5.409 E3.17044
G1 X42.356 Y5.418 E3.18528
G1 X41.569 Y5.346 E3.20015
G1 X40.794 Y5.195 E3.215
G1 X40.038 Y4.967 E3.22985
G1 X39.309 Y4.663 E3.24471
G1 X38.615 Y4.288 E3.25955
G1 X37.962 Y3.843 E3.27441
G1 X37.079 Y3.064 E3.29656
G1 X36.934 Y2.915 E3.30047
G1 X36.603 Y2.538 E3.30991
G1 X36.407 Y2.728 E3.31505
G1 X35.812 Y3.247 E3.3299
G1 X35.168 Y3.704 E3.34475
G1 X34.646 Y4.007 E3.35611
G1 X34.115 Y4.289 E3.36742
G1 X33.4 Y4.623 E3.38226
G1 X32.655 Y4.884 E3.39711
G1 X31.887 Y5.068 E3.41196
G1 X31.104 Y5.173 E3.42683
G1 X30.315 Y5.199 E3.44167
G1 X29.527 Y5.144 E3.45653
G1 X28.749 Y5.011 E3.47138
G1 X28.376 Y4.903 E3.47868
G1 X28.369 Y4.906 E3.47883
G1 X27.602 Y5.091 E3.49367
G1 X26.819 Y5.197 E3.50853
G1 X26.216 Y5.225 E3.51989
G1 X22.684 Y5.249 E3.58633
G1 X23.475 Y6.037 E3.60733
G1 X24.97 Y7.253 E3.64358
G1 X26.872 Y8.532 E3.68669
G1 X28.202 Y9.279 E3.71539
G1 X30.023 Y10.106 E3.75301
G1 X31.951 Y10.769 E3.79136
G1 X33.243 Y11.097 E3.81643
G1 X35.998 Y11.531 E3.8689
G1 X38.598 Y11.659 E3.91786
G1 X40.937 Y11.536 E3.96192
G1 X42.797 Y11.319 E3.99715
G1 X43.304 Y11.128 E4.00734
G1 X44.068 Y10.926 E4.0222
G1 X44.848 Y10.802 E4.03706
G1 X46 Y10.764 E4.05874
G1 X48.886 Y10.882 E4.11307
G1 X50.917 Y10.812 E4.1513
G1 X52.762 Y10.569 E4.18631
G1 X60.648 Y8.662 E4.33892
G1 X60.966 Y8.593 E4.34504
G1 X64.097 Y7.973 E4.40508
G1 X64.458 Y7.91 E4.41198
G1 X66.21 Y7.648 E4.4453
G1 X66.996 Y7.571 E4.46015
G1 X67.476 Y7.563 E4.46918
G1 X73.161 Y7.645 E4.57613
G1 X73.889 Y7.689 E4.58985
G1 X77.12 Y8.039 E4.65099
G1 X77.799 Y8.143 E4.66391
G1 X79.945 Y8.569 E4.70506
G1 X80.577 Y8.722 E4.71729
G1 X83.296 Y9.502 E4.7705
G1 X84.279 Y9.857 E4.79016
G1 X86.727 Y10.931 E4.84045
G1 X87.601 Y11.383 E4.85896
G1 X89.419 Y12.472 E4.89882
G1 X90.264 Y13.057 E4.91815
G1 X91.916 Y14.37 E4.95785
G1 X92.667 Y15.05 E4.9769
G1 X94.009 Y16.436 E5.01319
G1 X94.624 Y17.153 E5.03096
G1 X96.47 Y19.591 E5.08849
G1 X96.914 Y20.244 E5.10334
G1 X97.29 Y20.939 E5.1182
G1 X97.593 Y21.668 E5.13305
G1 X97.822 Y22.424 E5.14791
G1 X97.973 Y23.199 E5.16276
G1 X98.045 Y23.985 E5.17761
G1 X98.037 Y24.775 E5.19247
G1 X97.949 Y25.56 E5.20733
G1 X97.782 Y26.331 E5.22217
G1 X97.538 Y27.083 E5.23704
G1 X97.219 Y27.805 E5.25189
G1 X96.829 Y28.492 E5.26675
G1 X96.371 Y29.135 E5.2816
G1 X95.851 Y29.729 E5.29645
G1 X95.274 Y30.268 E5.3113
G1 X94.644 Y30.745 E5.32617
G1 X93.97 Y31.156 E5.34102
G1 X93.258 Y31.497 E5.35587
G1 X92.515 Y31.764 E5.37072
G1 X91.748 Y31.955 E5.38559
G1 X90.967 Y32.067 E5.40043
G1 X90.178 Y32.1 E5.41528
G1 X89.536 Y32.067 E5.42737
G1 X86.117 Y31.752 E5.49196
G1 X83.107 Y31.674 E5.5486
G1 X81.349 Y31.773 E5.58172
G1 X79.7 Y32.027 E5.6131
G1 X78.863 Y32.239 E5.62935
G1 X77.867 Y32.563 E5.64905
G1 X76.618 Y33.132 E5.67487
G1 X75.189 Y34.016 E5.70647
G1 X74.207 Y34.812 E5.73025
G1 X72.377 Y36.658 E5.77915
G1 X70.355 Y39.218 E5.84051
G1 X68.678 Y41.72 E5.89717
G1 X66.674 Y44.921 E5.96821
G1 X66.221 Y45.568 E5.98307
G1 X65.932 Y45.903 E5.99139
G1 X63.999 Y50.858 E6.09144
G1 X61.867 Y56.943 E6.21272
G1 X61.081 Y59.418 E6.26157
G1 X59.869 Y63.675 E6.34483
G1 X59.01 Y67.32 E6.41527
G1 X57.953 Y72.656 E6.51759
G1 X57.43 Y75.695 E6.5756
G1 X56.479 Y82.166 E6.69863
G1 X55.184 Y92.651 E6.89736
G1 X53.566 Y107.371 E7.17591
G1 X53.553 Y107.481 E7.178
G1 X52.809 Y113.467 E7.29146
G1 X52.672 Y114.245 E7.30632
G1 X52.458 Y115.005 E7.32118
G1 X52.167 Y115.739 E7.33603
G1 X51.804 Y116.44 E7.35088
G1 X51.371 Y117.101 E7.36574
G1 X50.874 Y117.715 E7.3806
G1 X50.318 Y118.275 E7.39545
G1 X49.707 Y118.776 E7.41031
G1 X49.05 Y119.213 E7.42515
G1 X48.351 Y119.581 E7.44001
G1 X47.619 Y119.876 E7.45486
G1 X46.86 Y120.097 E7.46973
G1 X46.084 Y120.239 E7.48457
G1 X45.296 Y120.302 E7.49944
G1 X44.507 Y120.285 E7.51428
G1 X43.723 Y120.188 E7.52914
G1 X42.953 Y120.013 E7.54399
G1 X42.205 Y119.76 E7.55885
G1 X41.486 Y119.433 E7.5737
G1 X40.804 Y119.036 E7.58855
G1 X40.165 Y118.571 E7.60341
G1 X39.577 Y118.044 E7.61827
G1 X39.045 Y117.46 E7.63313
G1 X38.575 Y116.826 E7.64797
G1 X38.172 Y116.147 E7.66283
G1 X37.839 Y115.431 E7.67768
G1 X37.58 Y114.685 E7.69253
G1 X37.398 Y113.916 E7.7074
G1 X37.314 Y113.337 E7.7184
G1 X35.252 Y94.113 E8.08209
G1 X34.173 Y85.279 E8.2495
G1 X33.059 Y77.123 E8.40434
G1 X31.205 Y65.104 E8.6331
G1 X30.128 Y58.974 E8.75018
G1 X29.725 Y57.181 E8.78474
G1 X29.393 Y56.019 E8.80748
G1 X28.446 Y53.325 E8.86119
G1 X27.023 Y50.03 E8.92871
G1 X24.722 Y45.828 E9.01882
G1 X24.378 Y45.117 E9.03368
G1 X24.253 Y44.774 E9.04055
G1 X23.885 Y44.394 E9.0505
G1 X15.434 Y36.471 E9.2684
G1 X15.094 Y36.132 E9.27744
G1 X11.074 Y31.869 E9.38766
G1 X10.59 Y31.305 E9.40164
G1 X7.865 Y27.799 E9.48516
G1 X7.252 Y26.882 E9.50591
G1 X5.917 Y24.546 E9.55652
G1 X5.56 Y23.842 E9.57137
G1 X5.365 Y23.36 E9.58115
G1 X4.432 Y20.814 E9.63216
G1 X4.154 Y19.876 E9.65056
G1 X3.691 Y17.86 E9.68947
G1 X3.541 Y16.98 E9.70626
G1 X3.342 Y15.198 E9.73999
G1 X3.295 Y14.195 E9.75888
G1 X3.357 Y10.664 E9.82531
G1 X3.453 Y9.577 E9.84583
G1 X3.928 Y6.587 E9.90278
G1 X4.16 Y5.569 E9.92242
G1 X4.797 Y3.446 E9.96412
G1 X5.182 Y2.428 E9.98459
G1 X5.47 Y1.802 E9.99755
G1 X5.826 Y1.121 E10.01201
G0 F3600 X6.289 Y1.141
G1 F1800 X5.984 Y0.564 E10.02428
G1 X5.83 Y0.206 E10.03161
G1 X5.549 Y-.496 E10.04584
G1 X5.301 Y-1.224 E10.0603
G1 X5.106 Y-2.115 E10.07746
G1 X5.001 Y-2.794 E10.09039
G1 X4.923 Y-3.559 E10.10485
G1 X4.924 Y-3.884 E10.11096
G1 X4.685 Y-4.183 E10.11816
G1 X4.147 Y-5.056 E10.13745
G1 X3.573 Y-6.15 E10.16069
G1 X3.252 Y-6.849 E10.17516
G1 X3.005 Y-7.577 E10.18962
G1 X2.787 Y-8.637 E10.20998
G1 X2.668 Y-9.555 E10.22739
G1 X2.609 Y-10.322 E10.24186
G1 X2.63 Y-11.09 E10.25631
G1 X2.749 Y-11.95 E10.27265
G1 X2.83 Y-12.357 E10.28045
G1 X3.019 Y-13.103 E10.29493
G1 X3.285 Y-13.825 E10.3094
G1 X3.624 Y-14.515 E10.32386
G1 X4.078 Y-15.23 E10.33979
G1 X4.445 Y-15.741 E10.35163
G1 X4.925 Y-16.341 E10.36608
G1 X5.465 Y-16.889 E10.38055
G1 X6.06 Y-17.377 E10.39503
G1 X6.993 Y-17.964 E10.41576
G1 X7.728 Y-18.353 E10.43141
G1 X8.426 Y-18.677 E10.44588
G1 X9.437 Y-19.002 E10.46586
G1 X9.921 Y-19.12 E10.47523
G1 X10.677 Y-19.264 E10.48971
G1 X11.704 Y-19.331 E10.50906
G1 X13.186 Y-19.325 E10.53694
G1 X13.372 Y-19.315 E10.54045
G1 X13.869 Y-19.362 E10.54984
G1 X14.679 Y-19.353 E10.56507
G1 X16.181 Y-19.253 E10.59339
G1 X16.944 Y-19.162 E10.60784
G1 X17.973 Y-18.908 E10.62778
G1 X19.304 Y-18.476 E10.6541
G1 X20.023 Y-18.2 E10.66859
G1 X20.531 Y-17.951 E10.67923
G1 X21.11 Y-17.639 E10.6916
G1 X21.774 Y-18.009 E10.7059
G1 X23.195 Y-18.697 E10.7356
G1 X23.904 Y-18.996 E10.75008
G1 X24.64 Y-19.22 E10.76455
G1 X25.395 Y-19.366 E10.77901
G1 X25.895 Y-19.418 E10.78847
G1 X26.162 Y-19.437 E10.7935
G1 X26.931 Y-19.452 E10.80797
G1 X27.697 Y-19.387 E10.82243
G1 X28.453 Y-19.242 E10.83691
G1 X29.189 Y-19.02 E10.85137
G1 X29.898 Y-18.723 E10.86583
G1 X29.977 Y-18.68 E10.86752
G1 X30.365 Y-18.758 E10.87497
G1 X31.13 Y-18.831 E10.88942
G1 X31.661 Y-18.835 E10.89941
G1 X35.842 Y-18.716 E10.97809
G1 X36.608 Y-18.654 E10.99255
G1 X37.364 Y-18.513 E11.00701
G1 X37.72 Y-18.407 E11.014
G1 X38.374 Y-18.703 E11.0275
G1 X39.104 Y-18.945 E11.04197
G1 X40.045 Y-19.14 E11.06005
G1 X41.04 Y-19.279 E11.07895
G1 X41.951 Y-19.349 E11.09613
G1 X42.805 Y-19.362 E11.1122
G1 X43.403 Y-19.34 E11.12345
G1 X43.696 Y-19.365 E11.12899
G1 X44.402 Y-19.354 E11.14227
G1 X45.897 Y-19.26 E11.17045
G1 X46.661 Y-19.172 E11.18491
G1 X47.104 Y-19.084 E11.19341
G1 X47.751 Y-18.934 E11.2059
G1 X48.199 Y-18.805 E11.21467
G1 X48.618 Y-18.973 E11.22316
G1 X49.358 Y-19.183 E11.23763
G1 X50.116 Y-19.315 E11.2521
G1 X51.007 Y-19.369 E11.2689
G1 X51.161 Y-19.369 E11.27179
G1 X51.929 Y-19.329 E11.28626
G1 X52.689 Y-19.21 E11.30073
G1 X53.432 Y-19.012 E11.31519
G1 X54.151 Y-18.738 E11.32967
G1 X54.837 Y-18.391 E11.34413
G1 X55.484 Y-17.975 E11.3586
G1 X56.084 Y-17.494 E11.37306
G1 X56.631 Y-16.953 E11.38753
G1 X57.119 Y-16.358 E11.40201
G1 X57.536 Y-15.702 E11.41663
G1 X58.098 Y-16.496 E11.43493
G1 X58.575 Y-17.1 E11.44941
G1 X59.111 Y-17.651 E11.46387
G1 X59.702 Y-18.143 E11.47833
G1 X60.341 Y-18.571 E11.4928
G1 X61.021 Y-18.931 E11.50727
G1 X61.735 Y-19.218 E11.52175
G1 X62.474 Y-19.43 E11.53621
G1 X63.232 Y-19.563 E11.55068
G1 X64.137 Y-19.619 E11.56774
G1 X64.343 Y-19.619 E11.57162
G1 X65.111 Y-19.579 E11.58608
G1 X65.871 Y-19.46 E11.60055
G1 X66.614 Y-19.262 E11.61502
G1 X67.333 Y-18.988 E11.62949
G1 X68.019 Y-18.641 E11.64395
G1 X68.666 Y-18.225 E11.65842
G1 X69.266 Y-17.744 E11.67288
G1 X69.813 Y-17.203 E11.68736
G1 X69.968 Y-17.014 E11.69195
G1 X70.221 Y-17.226 E11.69816
G1 X70.837 Y-17.688 E11.71265
G1 X71.36 Y-18.009 E11.72419
G1 X72.065 Y-18.402 E11.73937
G1 X72.755 Y-18.741 E11.75383
G1 X73.477 Y-19.006 E11.7683
G1 X74.223 Y-19.195 E11.78278
G1 X75.126 Y-19.318 E11.79992
G1 X76.133 Y-19.392 E11.81891
G1 X76.902 Y-19.409 E11.83338
G1 X77.668 Y-19.345 E11.84784
G1 X78.424 Y-19.202 E11.86231
G1 X79.161 Y-18.982 E11.87678
G1 X79.871 Y-18.686 E11.89125
G1 X80.546 Y-18.318 E11.90571
G1 X81.18 Y-17.883 E11.92018
G1 X81.765 Y-17.383 E11.93465
G1 X82.295 Y-16.826 E11.94911
G1 X82.765 Y-16.216 E11.9636
G1 X83.168 Y-15.562 E11.97805
G1 X83.501 Y-14.869 E11.99251
G1 X83.761 Y-14.145 E12.00698
G1 X83.939 Y-13.418 E12.02106
G1 X84.486 Y-13.055 E12.03341
G1 X85.08 Y-12.567 E12.04787
G1 X85.62 Y-12.019 E12.06234
G1 X86.1 Y-11.418 E12.07681
G1 X86.333 Y-11.073 E12.08464
G1 X86.495 Y-10.818 E12.09033
G1 X86.873 Y-10.148 E12.1048
G1 X87.18 Y-9.443 E12.11926
G1 X87.412 Y-8.71 E12.13372
G1 X87.566 Y-7.956 E12.1482
G1 X87.641 Y-7.191 E12.16266
G1 X87.637 Y-6.421 E12.17714
G1 X87.552 Y-5.657 E12.1916
G1 X87.486 Y-5.351 E12.19749
G1 X87.506 Y-5.198 E12.20039
G1 X87.543 Y-4.571 E12.21221
G1 X87.548 Y-3.802 E12.22667
G1 X87.474 Y-3.036 E12.24115
G1 X87.352 Y-2.408 E12.25318
G1 X87.165 Y-1.629 E12.26825
G1 X86.946 Y-.891 E12.28273
G1 X86.653 Y-.18 E12.2972
G1 X86.287 Y0.496 E12.31166
