; generated by Slic3r 1.2.9 on 2018-04-11 at 10:13:27

; external perimeters extrusion width = 0.50mm
; perimeters extrusion width = 0.72mm
; infill extrusion width = 0.72mm
; solid infill extrusion width = 0.72mm
; top infill extrusion width = 0.72mm

M107
M104 S200 ; set temperature
G28 ; home all axes
G1 Z5 F5000 ; lift nozzle

M109 S200 ; wait for temperature to be reached
G21 ; set units to millimeters
G90 ; use absolute coordinates
M82 ; use absolute distances for extrusion
G92 E0
G1 Z0.350 F7800.000
G1 E-2.00000 F2400.00000
G92 E0
G1 X56.128 Y73.508 F7800.000
G1 E2.00000 F2400.00000
G1 X94.073 Y44.535 E3.47720 F1800.000
G1 X95.945 Y43.533 E3.54287
G1 X98.551 Y42.640 E3.62812
G1 X110.115 Y39.357 E4.00005
G1 X112.396 Y39.124 E4.07101
G1 X114.621 Y39.682 E4.14197
G1 X117.196 Y41.727 E4.24371 F1800.000
G1 X117.590 Y42.245 E4.26386
G1 X118.367 Y43.562 E4.31117
G1 X118.961 Y44.899 E4.35645
G1 X119.167 Y45.421 E4.37379
G1 X119.729 Y47.046 E4.42699
G1 X123.108 Y57.924 E4.77946
G1 X123.625 Y59.960 E4.84444
G1 X134.469 Y109.091 E6.40121
G1 X134.604 Y109.998 E6.42957
G1 X137.004 Y140.410 E7.37350
G1 X136.786 Y142.693 E7.44446
G1 X136.306 Y143.932 E7.48556
G1 X136.113 Y144.313 E7.49880
G1 X135.709 Y145.001 E7.52349
G1 X135.237 Y145.701 E7.54961
G1 X134.299 Y147.020 E7.59968
G1 X133.546 Y147.904 E7.63561
G1 X132.191 Y149.207 E7.69377
G1 X131.452 Y149.814 E7.72336
G1 X128.977 Y151.550 E7.81691
G1 X128.319 Y151.946 E7.84066
G1 X127.312 Y152.467 E7.87574
G1 X102.519 Y164.092 E8.72302
G1 X99.175 Y164.697 E8.82816
G1 X97.000 Y164.522 E8.89568
G1 X94.816 Y164.313 E8.96356
G1 X90.024 Y163.740 E9.11290
G1 X88.597 Y163.494 E9.15770
G1 X87.449 Y163.178 E9.19454
G1 X83.949 Y161.865 E9.31020
G1 X81.794 Y160.542 E9.38846
G1 X80.672 Y159.512 E9.43557
G1 X79.967 Y158.753 E9.46762
G1 X79.613 Y158.308 E9.48521
G1 X78.668 Y156.696 E9.54304
G1 X50.931 Y88.890 E11.80980
G1 X49.778 Y85.764 E11.91287
G1 X49.373 Y83.355 E11.98845
G1 X49.401 Y81.838 E12.03540
G1 X49.841 Y79.587 E12.10636
G1 X51.243 Y77.378 E12.18732
G1 X51.387 Y77.228 E12.19376
G1 X52.148 Y76.547 E12.22537
G1 X56.069 Y73.554 E12.37799
G1 E10.37799 F2400.00000
G92 E0
G1 X98.140 Y140.742 F7800.000
G1 E2.00000 F2400.00000
G1 X97.903 Y141.202 E2.01603 F1800.000
G1 X98.005 Y141.510 E2.02607
G1 X97.690 Y141.545 E2.03587
G1 X97.124 Y141.403 E2.05395
G1 X96.640 Y141.133 E2.07109
G1 X97.301 Y140.941 E2.09238
G1 X97.930 Y140.548 E2.11535
G1 X98.085 Y140.691 E2.12188
G1 X97.697 Y140.973 F7800.000
G1 E0.12188 F2400.00000
G92 E0
G1 X92.717 Y149.243 F7800.000
G1 E2.00000 F2400.00000
G1 X92.825 Y149.100 E2.00554 F1800.000
G1 X92.905 Y148.914 E2.01181
G1 X92.969 Y148.630 E2.02082
G1 X93.532 Y148.587 E2.03831
G1 X93.791 Y148.517 E2.04662
G1 X93.949 Y148.578 E2.05186
G1 X94.042 Y148.534 E2.05506
G1 X94.152 Y148.430 E2.05975
G1 X94.307 Y148.420 E2.06455
G1 X94.925 Y148.526 E2.08394
G1 X93.307 Y148.935 F7800.000
G1 X92.668 Y148.358 E2.11057 F1800.000
G1 X92.078 Y147.954 E2.13268
G1 E0.13268 F2400.00000
G92 E0
G1 X118.662 Y143.971 F7800.000
G1 E2.00000 F2400.00000
G1 X118.398 Y143.967 E2.00817 F1800.000
G1 X118.246 Y142.780 E2.04518
G1 X118.892 Y142.910 E2.06556
G1 X118.735 Y143.890 E2.09628
G1 X118.807 Y144.977 E2.12999
G1 X118.012 Y144.679 E2.15625
G1 X118.611 Y144.026 E2.18365
G1 X118.729 Y143.715 F7800.000
G1 X117.658 Y144.547 F7800.000
G1 X117.091 Y144.286 E2.20296 F1800.000
G1 X116.307 Y143.850 E2.23072
G1 X114.878 Y142.952 E2.28295
G1 X114.187 Y142.469 E2.30901
G1 E0.30901 F2400.00000
G92 E0
G1 X120.478 Y143.278 F7800.000
G1 E2.00000 F2400.00000
G1 X120.813 Y142.456 E2.02747 F1800.000
G1 X120.727 Y142.493 E2.03037
G1 X119.059 Y139.293 E2.14202
G1 X120.033 Y139.318 E2.17217
G1 X120.931 Y142.026 E2.26043
G1 X121.429 Y143.390 E2.30535
G1 X120.553 Y143.287 E2.33265
G1 X120.844 Y142.937 F7800.000
G1 E0.33265 F2400.00000
G92 E0
G1 X108.564 Y89.581 F7800.000
G1 E2.00000 F2400.00000
G1 X108.860 Y89.539 E2.00926 F1800.000
G1 X109.499 Y89.574 E2.02905
G1 X110.084 Y89.665 E2.04736
G1 X111.261 Y90.073 E2.08592
G1 X111.416 Y90.164 E2.09148
G1 E0.09148 F2400.00000
G92 E0
G1 X111.147 Y92.852 F7800.000
G1 E2.00000 F2400.00000
G1 X111.035 Y92.895 E2.00372 F1800.000
G1 X109.463 Y93.038 E2.05254
G1 X108.668 Y93.035 E2.07715
G1 X108.624 Y92.711 E2.08726
G1 X109.008 Y92.605 E2.09958
G1 X110.446 Y92.117 E2.14657
G1 X110.808 Y92.139 E2.15778
G1 X111.119 Y92.340 E2.16924
G1 X111.252 Y92.704 E2.18122
G1 X111.190 Y92.791 E2.18452
G1 X111.951 Y92.797 F7800.000
G1 X111.607 Y93.284 E2.20298 F1800.000
G1 X111.422 Y93.416 E2.20999
G1 X111.177 Y93.510 E2.21810
G1 X109.490 Y93.663 E2.27053
G1 X107.823 Y93.657 E2.32210
G1 X106.115 Y93.360 E2.37573
G1 X106.867 Y92.695 E2.40680
G1 X107.800 Y92.290 E2.43827
G1 X108.824 Y92.007 E2.47114
G1 X110.362 Y91.485 E2.52139
G1 X111.010 Y91.526 E2.54147
G1 X111.634 Y91.929 E2.56446
G1 X111.925 Y92.727 E2.59074
G1 X105.399 Y93.665 F7800.000
G1 X105.564 Y93.142 E2.60772 F1800.000
G1 X105.745 Y92.854 E2.61823
G1 X106.528 Y92.161 E2.65057
G1 X107.592 Y91.700 E2.68647
G1 X108.640 Y91.410 E2.72013
G1 X110.278 Y90.854 E2.77364
G1 X111.212 Y90.912 E2.80259
G1 X112.149 Y91.518 E2.83711
G1 X112.561 Y92.646 E2.87427
G1 X112.552 Y93.029 E2.88613
G1 X112.199 Y93.528 E2.90505
G1 X112.187 Y93.637 E2.90845
G1 X111.720 Y93.971 E2.92620
G1 X111.320 Y94.125 E2.93947
G1 X109.516 Y94.288 E2.99551
G1 X107.768 Y94.281 E3.04960
G1 X105.755 Y93.932 E3.11281
G1 X105.459 Y93.710 E3.12426
G1 X105.803 Y93.371 F7800.000
G1 E1.12426 F2400.00000
G92 E0
G1 X105.975 Y131.349 F7800.000
G1 E2.00000 F2400.00000
G1 X105.846 Y131.568 E2.00787 F1800.000
G1 X105.714 Y131.628 E2.01235
G1 X105.583 Y131.664 E2.01657
G1 X105.278 Y131.629 E2.02606
G1 X105.167 Y131.550 E2.03028
G1 X104.882 Y131.290 E2.04220
G1 X104.933 Y131.029 E2.05043
G1 X105.065 Y130.767 E2.05950
G1 E0.05950 F2400.00000
G92 E0
G1 X108.808 Y123.323 F7800.000
G1 E2.00000 F2400.00000
G1 X108.849 Y123.052 E2.00849 F1800.000
G1 X108.906 Y122.845 E2.01512
G1 X109.275 Y122.222 E2.03751
G1 X109.755 Y121.843 E2.05645
G1 X110.470 Y123.165 F7800.000
G1 X110.791 Y122.932 E2.06872 F1800.000
G1 X111.285 Y123.105 E2.08492
G1 X112.123 Y123.806 E2.11871
G1 X110.946 Y124.436 E2.15999
G1 X110.611 Y123.777 E2.18288
G1 X110.486 Y123.238 E2.20000
G1 X112.109 Y124.522 F7800.000
G1 X111.628 Y124.780 E2.21689 F1800.000
G1 X111.252 Y125.640 E2.24593
G1 X110.473 Y124.883 E2.27955
G1 X110.019 Y123.992 E2.31049
G1 X109.860 Y123.300 E2.33245
G1 X109.887 Y122.985 E2.34226
G1 X110.004 Y122.730 E2.35094
G1 X110.502 Y122.371 E2.36992
G1 X110.858 Y122.294 E2.38121
G1 X111.599 Y122.553 E2.40549
G1 X112.596 Y123.387 E2.44570
G1 X113.055 Y123.987 E2.46906
G1 X113.258 Y124.498 E2.48609
G1 X113.231 Y124.870 E2.49763
G1 X112.946 Y124.923 E2.50659
G1 X112.814 Y124.642 E2.51620
G1 X112.183 Y124.535 E2.53601
G1 X111.752 Y124.172 F7800.000
G1 X113.236 Y125.225 F7800.000
G1 X112.945 Y125.849 E2.55732 F1800.000
G1 X112.709 Y126.028 E2.56647
G1 X112.488 Y126.125 E2.57395
G1 X112.161 Y126.147 E2.58410
G1 X111.523 Y125.894 E2.60532
G1 X111.312 Y123.841 F7800.000
G1 X111.035 Y123.565 E2.61740 F1800.000
G1 Z0.650 F7800.000
G1 E0.61740 F2400.00000
G92 E0
G1 X93.370 Y148.562 F7800.000
G1 E2.00000 F2400.00000
G1 X92.898 Y148.944 E2.01123 F900.000
G1 X92.575 Y148.275 E2.02497
G1 X93.299 Y148.536 E2.03920
G1 X92.898 Y148.728 F7800.000
G1 X93.866 Y148.448 F7800.000
G1 X94.307 Y148.420 E2.05149 F1800.000
G1 X95.454 Y148.597 E2.08372
G1 E0.08372 F2400.00000
G92 E0
G1 X92.440 Y149.174 F7800.000
G1 E2.00000 F2400.00000
G1 X92.260 Y150.298 E2.03163 F1800.000
G1 X92.188 Y150.519 E2.03808
G1 E0.03808 F2400.00000
G92 E0
G1 X96.382 Y141.104 F7800.000
G1 E2.00000 F2400.00000
G1 X97.259 Y140.849 E2.01689 F900.000
G1 X98.044 Y140.359 E2.03400
G1 X98.530 Y140.499 E2.04335
G1 X98.530 Y140.745 E2.04789
G1 X98.202 Y140.840 E2.05419
G1 X98.011 Y141.210 E2.06190
G1 X98.087 Y141.438 E2.06635
G1 X97.931 Y141.619 E2.07075
G1 X97.650 Y141.650 E2.07598
G1 X97.087 Y141.497 E2.08678
G1 X96.448 Y141.140 E2.10030
G1 X96.882 Y141.094 F7800.000
G1 E0.10030 F2400.00000
G92 E0
G1 X105.948 Y130.844 F7800.000
G1 E2.00000 F2400.00000
G1 X106.040 Y131.095 E2.00743 F1800.000
G1 X106.033 Y131.198 E2.01031
G1 X106.001 Y131.304 E2.01337
G1 X105.846 Y131.568 E2.02187
G1 X105.714 Y131.628 E2.02590
G1 X105.583 Y131.664 E2.02969
G1 X105.278 Y131.629 E2.03820
G1 X105.167 Y131.550 E2.04200
G1 X104.882 Y131.290 E2.05269
G1 X104.933 Y131.029 E2.06009
G1 X105.097 Y130.704 E2.07019
G1 X105.160 Y130.625 E2.07298
G1 X105.474 Y130.364 E2.08434
G1 X105.617 Y130.407 E2.08849
G1 X105.819 Y130.638 E2.09702
G1 E0.09702 F2400.00000
G92 E0
G1 X108.773 Y123.560 F7800.000
G1 E2.00000 F2400.00000
G1 X108.849 Y123.052 E2.01427 F1800.000
G1 X108.906 Y122.845 E2.02023
G1 X109.275 Y122.222 E2.04033
G1 X109.941 Y121.697 E2.06390
G1 E0.06390 F2400.00000
G92 E0
G1 X111.101 Y124.873 F7800.000
G1 E2.00000 F2400.00000
G1 X110.836 Y124.615 E2.01028 F900.000
G1 X110.440 Y123.839 E2.03449
G1 X110.309 Y123.269 E2.05073
G1 X110.324 Y123.100 E2.05543
G1 X110.360 Y123.022 E2.05783
G1 X110.686 Y122.786 E2.06902
G1 X110.829 Y122.755 E2.07308
G1 X111.376 Y122.946 E2.08916
G1 X112.272 Y123.697 E2.12164
G1 X112.626 Y124.158 E2.13779
G1 X112.033 Y124.058 E2.15449
G1 X111.281 Y124.460 E2.17817
G1 X111.131 Y124.804 E2.18859
G1 X111.473 Y125.994 F7800.000
G1 X110.391 Y124.943 E2.21647 F900.000
G1 X109.924 Y124.026 E2.23550
G1 X109.759 Y123.307 E2.24914
G1 X109.789 Y122.959 E2.25561
G1 X109.925 Y122.664 E2.26161
G1 X110.460 Y122.277 E2.27382
G1 X110.865 Y122.190 E2.28148
G1 X111.649 Y122.465 E2.29684
G1 X112.668 Y123.318 E2.32141
G1 X113.143 Y123.937 E2.33583
G1 X113.359 Y124.483 E2.34668
G1 X113.297 Y125.333 E2.36244
G1 X113.049 Y125.379 E2.36711
G1 X112.746 Y124.732 E2.38033
G1 X112.126 Y124.627 E2.39195
G1 X111.705 Y124.852 E2.40077
G1 X111.475 Y125.381 E2.41144
G1 X111.696 Y125.832 E2.42073
G1 X111.534 Y125.950 E2.42443
G1 X111.365 Y125.506 F7800.000
G1 X111.734 Y126.326 F7800.000
G1 X112.207 Y126.149 E2.43846 F1800.000
G1 X112.488 Y126.125 E2.44630
G1 X112.824 Y125.961 E2.45667
G1 X113.376 Y125.801 E2.47264
G1 E0.47264 F2400.00000
G92 E0
G1 X111.266 Y123.925 F7800.000
G1 E2.00000 F2400.00000
G1 X111.593 Y123.598 E2.01283 F1200.000
G1 E0.01283 F2400.00000
G92 E0
G1 X118.947 Y143.199 F7800.000
G1 E2.00000 F2400.00000
G1 X118.836 Y143.895 E2.01303 F900.000
G1 X118.917 Y145.126 E2.03584
G1 X117.844 Y144.722 E2.05702
G1 X117.850 Y144.490 E2.06131
G1 X118.133 Y144.399 E2.06681
G1 X118.325 Y144.190 E2.07206
G1 X118.130 Y142.655 E2.10067
G1 X119.717 Y142.973 E2.13060
G1 X119.667 Y143.283 E2.13640
G1 X119.022 Y143.207 E2.14842
G1 X118.452 Y143.127 F7800.000
G1 X117.599 Y144.520 F7800.000
G1 X117.091 Y144.286 E2.16396 F1800.000
G1 X116.268 Y143.830 E2.19010
G1 X116.141 Y143.563 F7800.000
G1 X115.976 Y143.826 E2.19584 F900.000
G1 X114.758 Y143.144 E2.22164
G1 X114.382 Y142.883 E2.23011
G1 X114.453 Y142.377 E2.23956
G1 X116.080 Y143.519 E2.27631
G1 X115.864 Y143.703 F7800.000
G1 E0.27631 F2400.00000
G92 E0
G1 X120.306 Y143.358 F7800.000
G1 E2.00000 F2400.00000
G1 X120.336 Y143.040 E2.00590 F900.000
G1 X120.463 Y143.049 E2.00827
G1 X120.656 Y142.574 E2.01774
G1 X118.892 Y139.188 E2.08834
G1 X120.105 Y139.220 E2.11079
G1 X121.026 Y141.993 E2.16481
G1 X121.397 Y143.045 E2.18542
G1 X121.585 Y143.509 E2.19467
G1 X120.381 Y143.367 E2.21709
G1 X120.493 Y143.099 F7800.000
G1 X120.783 Y142.185 F7800.000
G1 X119.637 Y139.481 E2.29867 F1200.000
G1 E0.29867 F2400.00000
G92 E0
G1 X108.364 Y89.610 F7800.000
G1 E2.00000 F2400.00000
G1 X108.860 Y89.539 E2.01394 F1800.000
G1 X109.499 Y89.574 E2.03170
G1 X110.084 Y89.665 E2.04814
G1 X111.261 Y90.073 E2.08276
G1 X111.547 Y90.254 E2.09215
G1 E0.09215 F2400.00000
G92 E0
G1 X111.420 Y92.726 F7800.000
G1 E2.00000 F2400.00000
G1 X111.265 Y92.944 E2.00742 F900.000
G1 X111.195 Y92.994 E2.00981
G1 X111.069 Y93.043 E2.01358
G1 X109.470 Y93.188 E2.05819
G1 X107.723 Y93.182 E2.10671
G1 X107.659 Y92.869 E2.11557
G1 X107.959 Y92.739 E2.12466
G1 X108.964 Y92.461 E2.15362
G1 X110.426 Y91.965 E2.19651
G1 X110.856 Y91.992 E2.20849
G1 X111.243 Y92.241 E2.22127
G1 X111.394 Y92.656 E2.23352
G1 X105.865 Y93.499 F7800.000
G1 X106.088 Y93.145 E2.24515 F900.000
G1 X106.770 Y92.542 E2.27045
G1 X107.740 Y92.120 E2.29984
G1 X108.771 Y91.835 E2.32955
G1 X110.246 Y91.335 E2.37282
G1 X110.246 Y91.298 E2.37384
G1 X111.068 Y91.349 E2.39671
G1 X111.782 Y91.811 E2.42034
G1 X112.114 Y92.720 E2.44722
G1 X112.111 Y92.883 E2.45176
G1 X111.736 Y93.413 E2.46979
G1 X111.508 Y93.575 E2.47756
G1 X111.218 Y93.687 E2.48618
G1 X109.497 Y93.842 E2.53418
G1 X107.807 Y93.836 E2.58113
G1 X105.939 Y93.512 E2.63380
G1 X105.379 Y93.775 F7800.000
G1 X105.302 Y93.640 E2.63667 F900.000
G1 X105.472 Y93.099 E2.64715
G1 X105.668 Y92.789 E2.65393
G1 X106.473 Y92.076 E2.67382
G1 X107.558 Y91.605 E2.69569
G1 X108.611 Y91.314 E2.71588
G1 X110.265 Y90.753 E2.74817
G1 X111.244 Y90.814 E2.76631
G1 X112.231 Y91.452 E2.78804
G1 X112.661 Y92.629 E2.81121
G1 X112.652 Y93.062 E2.81921
G1 X112.296 Y93.565 E2.83061
G1 X112.282 Y93.693 E2.83299
G1 X111.768 Y94.059 E2.84466
G1 X111.343 Y94.223 E2.85308
G1 X109.521 Y94.388 E2.88691
G1 X107.759 Y94.381 E2.91947
G1 X105.714 Y94.027 E2.95784
G1 X105.439 Y93.820 E2.96421
G1 X105.439 Y93.632 F7800.000
G1 X110.386 Y94.562 F7800.000
G1 X110.075 Y95.037 E2.97996 F1800.000
G1 X109.477 Y95.273 E2.99783
G1 X109.460 Y95.295 E2.99860
G1 X109.472 Y95.436 E3.00255
G1 X109.223 Y95.822 E3.01529
G1 E1.01529 F2400.00000
G92 E0
G1 X108.892 Y92.840 F7800.000
G1 E2.00000 F2400.00000
G1 X109.451 Y92.754 E2.01573 F1200.000
G1 X110.501 Y92.531 E2.04555
G1 X110.998 Y92.524 E2.05934
G1 Z0.950 F7800.000
G1 E0.05934 F2400.00000
G92 E0
G1 X92.575 Y148.275 F7800.000
G1 E2.00000 F2400.00000
G1 X93.370 Y148.562 E2.01562 F900.000
G1 X92.898 Y148.944 E2.02684
G1 X92.608 Y148.342 E2.03920
G1 X92.986 Y148.559 F7800.000
G1 X93.866 Y148.448 F7800.000
G1 X94.307 Y148.420 E2.05149 F1800.000
G1 X95.454 Y148.597 E2.08372
G1 E0.08372 F2400.00000
G92 E0
G1 X92.440 Y149.174 F7800.000
G1 E2.00000 F2400.00000
G1 X92.260 Y150.298 E2.03163 F1800.000
G1 X92.188 Y150.519 E2.03808
G1 E0.03808 F2400.00000
G92 E0
G1 X118.947 Y143.199 F7800.000
G1 E2.00000 F2400.00000
G1 X118.836 Y143.895 E2.01303 F900.000
G1 X118.917 Y145.126 E2.03584
G1 X117.844 Y144.722 E2.05702
G1 X117.850 Y144.490 E2.06131
G1 X118.133 Y144.399 E2.06681
G1 X118.325 Y144.190 E2.07206
G1 X118.130 Y142.655 E2.10067
G1 X119.717 Y142.973 E2.13060
G1 X119.667 Y143.283 E2.13640
G1 X119.022 Y143.207 E2.14842
G1 X118.452 Y143.127 F7800.000
G1 X117.599 Y144.520 F7800.000
G1 X117.091 Y144.286 E2.16396 F1800.000
G1 X116.268 Y143.830 E2.19010
G1 X116.141 Y143.563 F7800.000
G1 X115.976 Y143.826 E2.19584 F900.000
G1 X114.758 Y143.144 E2.22164
G1 X114.382 Y142.883 E2.23011
G1 X114.453 Y142.377 E2.23956
G1 X116.080 Y143.519 E2.27631
G1 X115.864 Y143.703 F7800.000
G1 E0.27631 F2400.00000
G92 E0
G1 X120.306 Y143.358 F7800.000
G1 E2.00000 F2400.00000
G1 X120.336 Y143.040 E2.00590 F900.000
G1 X120.463 Y143.049 E2.00827
G1 X120.656 Y142.574 E2.01774
G1 X118.892 Y139.188 E2.08834
G1 X120.105 Y139.220 E2.11079
G1 X121.026 Y141.993 E2.16481
G1 X121.397 Y143.045 E2.18542
G1 X121.585 Y143.509 E2.19468
G1 X120.381 Y143.367 E2.21710
G1 X120.493 Y143.099 F7800.000
G1 X120.783 Y142.185 F7800.000
G1 X119.637 Y139.481 E2.29868 F1200.000
G1 E0.29868 F2400.00000
G92 E0
G1 X111.101 Y124.873 F7800.000
G1 E2.00000 F2400.00000
G1 X110.836 Y124.615 E2.01028 F900.000
G1 X110.440 Y123.839 E2.03449
G1 X110.309 Y123.269 E2.05073
G1 X110.324 Y123.100 E2.05543
G1 X110.360 Y123.022 E2.05783
G1 X110.686 Y122.786 E2.06902
G1 X110.830 Y122.755 E2.07308
G1 X111.376 Y122.946 E2.08916
G1 X112.272 Y123.697 E2.12164
G1 X112.626 Y124.158 E2.13779
G1 X112.033 Y124.058 E2.15448
G1 X111.281 Y124.460 E2.17817
G1 X111.131 Y124.804 E2.18859
G1 X111.473 Y125.994 F7800.000
G1 X110.391 Y124.943 E2.21647 F900.000
G1 X109.924 Y124.026 E2.23550
G1 X109.759 Y123.307 E2.24914
G1 X109.789 Y122.959 E2.25561
G1 X109.925 Y122.664 E2.26161
G1 X110.460 Y122.277 E2.27382
G1 X110.865 Y122.190 E2.28148
G1 X111.649 Y122.465 E2.29684
