; generated by Slic3r 1.2.9 on 2018-04-18 at 10:32:07

; external perimeters extrusion width = 0.50mm
; perimeters extrusion width = 0.72mm
; infill extrusion width = 0.72mm
; solid infill extrusion width = 0.72mm
; top infill extrusion width = 0.72mm

M107
M104 S200 ; set temperature
G28 ; home all axes
G1 Z5 F5000 ; lift nozzle

M109 S200 ; wait for temperature to be reached
G21 ; set units to millimeters
G90 ; use absolute coordinates
M82 ; use absolute distances for extrusion
G92 E0
G1 Z0.350 F7800.000
G1 E-2.00000 F2400.00000
G92 E0
G1 X89.806 Y87.025 F7800.000
G1 E2.00000 F2400.00000
G1 X91.445 Y85.421 E2.07096 F1800.000
G1 X93.533 Y84.472 E2.14192
G1 X95.214 Y84.262 E2.19434
G1 X104.954 Y84.299 E2.49570
G1 X107.211 Y84.705 E2.56666 F1800.000
G1 X109.195 Y85.856 E2.63762
G1 X110.322 Y87.077 E2.68903
G1 X111.650 Y88.940 E2.75982
G1 X118.195 Y98.271 E3.11248
G1 X119.281 Y99.924 E3.17368
G1 X120.016 Y101.163 E3.21824
G1 X120.581 Y102.407 E3.26054
G1 X121.211 Y104.290 E3.32196
G1 X121.552 Y106.242 E3.38329
G1 X121.612 Y108.970 E3.46770
G1 X121.261 Y111.236 E3.53866
G1 X120.158 Y113.247 E3.60962
G1 X118.436 Y114.762 E3.68058
G1 X116.301 Y115.598 E3.75155
G1 X114.991 Y115.729 E3.79228
G1 X85.022 Y115.738 E4.71954
G1 X82.763 Y115.342 E4.79051
G1 X80.775 Y114.199 E4.86147
G1 X79.295 Y112.447 E4.93243
G1 X78.601 Y110.750 E4.98915
G1 X78.387 Y108.961 E5.04491
G1 X78.435 Y106.262 E5.12842
G1 X78.787 Y104.249 E5.19167
G1 X79.414 Y102.404 E5.25196
G1 X80.028 Y101.089 E5.29687
G1 X81.284 Y99.028 E5.37154
G1 X82.022 Y97.928 E5.41252
G1 X89.762 Y87.086 E5.82471
G1 E3.82471 F2400.00000
G92 E0
G1 X88.247 Y107.451 F7800.000
G1 E2.00000 F2400.00000
G1 X86.012 Y107.933 E2.07075 F1800.000
G1 X86.021 Y107.280 E2.09096
G1 X88.197 Y107.103 E2.15850
G1 X88.237 Y107.377 E2.16708
G1 X85.405 Y106.703 F7800.000
G1 X95.003 Y105.921 E2.46507 F1800.000
G1 X95.276 Y106.595 E2.48758
G1 X93.333 Y107.030 E2.54920
G1 X87.252 Y108.297 E2.74139
G1 X85.376 Y108.715 E2.80086
G1 X85.404 Y106.778 E2.86079
G1 X85.850 Y106.932 F7800.000
G1 E0.86079 F2400.00000
G92 E0
G1 X91.163 Y99.787 F7800.000
G1 E2.00000 F2400.00000
G1 X91.637 Y99.472 E2.01763 F1800.000
G1 X91.997 Y99.715 E2.03108
G1 X91.856 Y100.007 E2.04112
G1 X91.235 Y99.810 E2.06129
G1 X94.728 Y101.575 F7800.000
G1 X89.733 Y99.989 E2.22344 F1800.000
G1 X91.640 Y98.719 E2.29434
G1 X94.599 Y100.720 E2.40486
G1 X95.182 Y101.075 E2.42598
G1 X95.558 Y100.761 E2.44114
G1 X95.823 Y100.505 E2.45254
G1 X96.083 Y100.762 E2.46386
G1 X95.942 Y100.913 E2.47026
G1 X95.519 Y101.508 E2.49285
G1 X95.294 Y101.942 E2.50798
G1 X94.974 Y102.780 E2.53573
G1 X94.638 Y102.676 E2.54659
G1 X94.826 Y101.889 E2.57164
G1 X94.750 Y101.646 E2.57950
G1 X94.779 Y101.078 F7800.000
G1 X96.335 Y100.011 F7800.000
G1 X96.523 Y99.829 E2.58757 F1800.000
G1 X96.843 Y99.097 E2.61230
G1 X97.093 Y99.440 E2.62544
G1 X97.390 Y99.337 E2.63518
G1 X97.531 Y99.648 E2.64576
G1 X96.947 Y99.981 E2.66657
G1 X96.570 Y100.279 E2.68144
G1 X96.384 Y100.067 E2.69016
G1 X96.589 Y99.952 F7800.000
G1 X96.597 Y99.307 F7800.000
G1 X95.436 Y98.407 E2.73559 F1800.000
G1 X94.421 Y97.507 E2.77756
G1 X95.708 Y97.065 E2.81964
G1 X95.976 Y97.610 E2.83844
G1 X96.735 Y98.949 E2.88606
G1 X96.830 Y99.080 E2.89107
G1 X96.650 Y99.254 E2.89883
G1 X96.429 Y98.835 F7800.000
G1 E0.89883 F2400.00000
G92 E0
G1 X90.331 Y103.226 F7800.000
G1 E2.00000 F2400.00000
G1 X90.287 Y103.545 E2.00998 F1800.000
G1 X87.405 Y103.587 E2.09916
G1 X87.762 Y103.002 E2.12037
G1 X88.061 Y102.560 E2.13688
G1 X90.259 Y103.205 E2.20773
G1 X86.301 Y104.199 F7800.000
G1 X87.236 Y102.664 E2.26336 F1800.000
G1 X87.691 Y101.993 E2.28844
G1 X87.813 Y101.859 E2.29403
G1 X88.074 Y101.913 E2.30226
G1 X92.987 Y103.353 E2.46067
G1 X93.977 Y103.573 E2.49207
G1 X94.818 Y103.573 E2.51809
G1 X94.785 Y104.195 E2.53736
G1 X93.924 Y104.118 E2.56411
G1 X87.095 Y104.217 E2.77543
G1 X86.376 Y104.201 E2.79768
G1 X86.691 Y103.886 F7800.000
G1 E0.79768 F2400.00000
G92 E0
G1 X88.531 Y107.232 F7800.000
G1 E2.00000 F2400.00000
G1 X92.870 Y106.606 E2.28756 F1800.000
G1 X92.870 Y106.606 F7800.000
G1 X94.825 Y106.312 E2.34872 F1800.000
G1 E0.34872 F2400.00000
G92 E0
G1 X93.443 Y103.793 F7800.000
G1 E2.00000 F2400.00000
G1 X92.255 Y103.651 E2.03702 F1800.000
G1 X92.255 Y103.651 F7800.000
G1 X90.619 Y103.428 E2.14537 F1800.000
G1 E0.14537 F2400.00000
G92 E0
G1 X92.208 Y99.997 F7800.000
G1 E2.00000 F2400.00000
G1 X93.771 Y100.755 E2.11396 F1800.000
G1 X93.771 Y100.755 F7800.000
G1 X94.871 Y101.273 E2.15157 F1800.000
G1 E0.15157 F2400.00000
G92 E0
G1 X97.411 Y96.906 F7800.000
G1 E2.00000 F2400.00000
G1 X97.342 Y96.509 E2.01248 F1800.000
G1 X97.649 Y96.407 E2.02249
G1 X97.763 Y96.634 E2.03035
G1 X97.861 Y96.959 E2.04085
G1 X97.486 Y96.915 E2.05256
G1 X97.586 Y96.543 F7800.000
G1 X97.353 Y96.136 F7800.000
G1 X97.092 Y95.002 E2.08857 F1800.000
G1 X96.965 Y94.686 E2.09912
G1 X97.055 Y94.536 E2.10453
G1 X97.176 Y94.144 E2.11723
G1 X96.673 Y93.303 E2.14754
G1 X95.942 Y94.555 F7800.000
G1 X96.669 Y94.674 E2.17032 F1800.000
G1 X97.467 Y94.685 E2.19502
G1 X95.575 Y94.729 F7800.000
G1 X94.684 Y94.723 E2.22259 F1800.000
G1 X94.168 Y94.645 E2.23875
G1 X93.794 Y94.497 E2.25117
G1 X93.704 Y94.421 E2.25483
G1 X93.689 Y94.285 E2.25905
G1 X93.717 Y94.050 E2.26638
G1 X95.606 Y94.386 E2.32577
G1 X95.582 Y94.654 E2.33411
G1 X95.151 Y94.464 F7800.000
G1 X93.895 Y93.726 F7800.000
G1 X94.343 Y92.719 E2.36822 F1800.000
G1 X94.904 Y91.591 E2.40719
G1 E0.40719 F2400.00000
G92 E0
G1 X99.540 Y98.356 F7800.000
G1 E2.00000 F2400.00000
G1 X99.895 Y98.019 E2.01512 F1800.000
G1 X100.074 Y97.753 E2.02505
G1 X100.380 Y98.168 E2.04101
G1 X100.613 Y98.359 E2.05032
G1 X100.072 Y99.245 E2.08244
G1 X99.579 Y98.420 E2.11220
G1 X98.694 Y98.158 F7800.000
G1 X99.132 Y97.881 E2.12823 F1800.000
G1 X99.415 Y97.614 E2.14028
G1 X99.758 Y97.102 E2.15936
G1 X99.958 Y96.529 E2.17811
G1 X100.244 Y96.550 E2.18699
G1 X100.298 Y96.824 E2.19562
G1 X100.494 Y97.270 E2.21072
G1 X100.837 Y97.734 E2.22856
G1 X101.420 Y98.214 E2.25192
G1 X100.301 Y100.071 E2.31901
G1 X100.058 Y100.438 E2.33262
G1 X98.732 Y98.222 E2.41252
G1 X99.193 Y98.142 F7800.000
G1 X99.925 Y96.078 F7800.000
G1 X99.824 Y95.726 E2.42383 F1800.000
G1 X99.591 Y95.385 E2.43663
G1 X99.409 Y95.262 E2.44340
G1 X99.585 Y94.529 E2.46674
G1 X99.930 Y93.268 E2.50720
G1 X100.218 Y93.269 E2.51610
G1 X100.740 Y95.258 E2.57973
G1 X100.568 Y95.370 E2.58607
G1 X100.359 Y95.646 E2.59677
G1 X100.196 Y96.088 E2.61135
G1 X100.000 Y96.080 E2.61743
G1 X100.050 Y95.734 F7800.000
G1 E0.61743 F2400.00000
G92 E0
G1 X102.198 Y96.948 F7800.000
G1 E2.00000 F2400.00000
G1 X102.424 Y96.472 E2.01631 F1800.000
G1 X102.735 Y96.571 E2.02642
G1 X102.679 Y96.898 E2.03668
G1 X102.272 Y96.940 E2.04935
G1 X102.551 Y96.594 F7800.000
G1 X102.689 Y96.189 F7800.000
G1 X102.896 Y95.491 E2.07187 F1800.000
G1 X103.032 Y94.936 E2.08956
G1 X103.335 Y94.224 E2.11350
G1 X104.379 Y94.577 F7800.000
G1 X103.719 Y94.626 E2.13399 F1800.000
G1 X103.132 Y94.700 E2.15228
G1 X103.022 Y94.525 E2.15867
G1 X102.908 Y94.137 E2.17120
G1 X103.571 Y93.128 E2.20854
G1 E0.20854 F2400.00000
G92 E0
G1 X105.176 Y91.587 F7800.000
G1 E2.00000 F2400.00000
G1 X106.035 Y93.325 E2.06000 F1800.000
G1 X104.741 Y94.726 F7800.000
G1 X104.716 Y94.377 E2.07081 F1800.000
G1 X104.930 Y94.346 E2.07750
G1 X105.905 Y94.104 E2.10858
G1 X106.001 Y93.678 E2.12211
G1 X106.283 Y93.662 E2.13086
G1 X106.339 Y93.822 E2.13610
G1 X106.387 Y94.098 E2.14476
G1 X106.375 Y94.390 E2.15382
G1 X106.331 Y94.490 E2.15721
G1 X106.109 Y94.602 E2.16490
G1 X105.632 Y94.703 E2.17998
G1 X105.428 Y94.723 E2.18633
G1 X104.816 Y94.725 E2.20524
G1 X104.901 Y94.415 F7800.000
G1 E0.20524 F2400.00000
G92 E0
G1 X111.645 Y107.077 F7800.000
G1 E2.00000 F2400.00000
G1 X113.973 Y107.266 E2.07227 F1800.000
G1 X113.987 Y107.920 E2.09252
G1 X111.595 Y107.427 E2.16811
G1 X111.634 Y107.152 E2.17670
G1 X114.585 Y106.689 F7800.000
G1 X114.630 Y108.691 E2.23866 F1800.000
G1 X108.358 Y107.397 E2.43678
G1 X104.662 Y106.612 E2.55371
G1 X104.849 Y106.265 E2.56590
G1 X104.973 Y105.910 E2.57755
G1 X114.510 Y106.683 E2.87362
G1 X114.330 Y107.119 F7800.000
G1 E0.87362 F2400.00000
G92 E0
G1 X112.578 Y103.562 F7800.000
G1 E2.00000 F2400.00000
G1 X109.682 Y103.550 E2.08960 F1800.000
G1 X109.641 Y103.232 E2.09952
G1 X111.923 Y102.566 E2.17309
G1 X112.536 Y103.500 E2.20765
G1 X113.706 Y104.190 F7800.000
G1 X109.869 Y104.181 E2.32638 F1800.000
G1 X107.114 Y104.104 E2.41165
G1 X105.825 Y104.118 E2.45153
G1 X105.214 Y104.311 E2.47134
G1 X105.215 Y104.054 E2.47928
G1 X105.146 Y103.527 E2.49572
G1 X105.898 Y103.586 E2.51904
G1 X106.206 Y103.523 E2.52878
G1 X108.359 Y102.955 E2.59768
G1 X112.160 Y101.846 E2.72017
G1 X112.374 Y102.114 E2.73080
G1 X113.446 Y103.746 E2.79121
G1 X113.668 Y104.125 E2.80479
G1 X113.236 Y104.019 F7800.000
G1 E0.80479 F2400.00000
G92 E0
G1 X108.848 Y99.796 F7800.000
G1 E2.00000 F2400.00000
G1 X108.126 Y100.016 E2.02337 F1800.000
G1 X107.987 Y99.724 E2.03337
G1 X108.365 Y99.470 E2.04747
G1 X108.786 Y99.754 E2.06319
G1 X105.110 Y101.664 F7800.000
G1 X105.350 Y102.670 E2.09520 F1800.000
G1 X104.990 Y102.760 E2.10667
G1 X104.918 Y102.484 E2.11551
G1 X104.615 Y101.787 E2.13901
G1 X104.293 Y101.239 E2.15869
G1 X103.843 Y100.663 E2.18130
G1 X104.098 Y100.429 E2.19201
G1 X104.362 Y100.673 E2.20313
G1 X104.758 Y101.086 E2.22083
G1 X105.672 Y100.530 E2.25396
G1 X108.365 Y98.716 E2.35442
G1 X110.259 Y99.993 E2.42510
G1 X108.963 Y100.414 E2.46727
G1 X105.749 Y101.395 E2.57123
G1 X105.179 Y101.635 E2.59038
G1 X104.631 Y101.806 F7800.000
G1 X103.396 Y99.297 F7800.000
G1 X103.166 Y99.071 E2.60036 F1800.000
G1 X103.299 Y98.888 E2.60736
G1 X104.275 Y97.093 E2.67057
G1 X105.566 Y97.518 E2.71263
G1 X104.048 Y98.808 E2.77427
G1 X103.456 Y99.252 E2.79719
G1 X103.325 Y98.982 F7800.000
G1 X103.106 Y99.153 F7800.000
G1 X103.623 Y100.054 E2.82933 F1800.000
G1 X103.404 Y100.257 E2.83856
G1 X102.922 Y99.929 E2.85662
G1 X102.488 Y99.671 E2.87223
G1 X102.635 Y99.362 E2.88281
G1 X102.887 Y99.455 E2.89111
G1 X103.062 Y99.213 E2.90034
G1 X103.175 Y99.648 F7800.000
G1 X104.881 Y101.400 F7800.000
G1 X105.612 Y101.026 E2.92575 F1800.000
G1 X106.263 Y100.724 E2.94796
G1 X106.263 Y100.724 F7800.000
G1 X107.774 Y100.004 E3.05778 F1800.000
G1 E1.05778 F2400.00000
G92 E0
G1 X107.738 Y103.629 F7800.000
G1 E2.00000 F2400.00000
G1 X106.531 Y103.780 E2.03762 F1800.000
G1 X107.738 Y103.629 F7800.000
G1 X109.351 Y103.431 E2.14426 F1800.000
G1 E0.14426 F2400.00000
G92 E0
G1 X106.976 Y106.583 F7800.000
G1 E2.00000 F2400.00000
G1 X111.311 Y107.208 E2.28731 F1800.000
G1 X106.976 Y106.583 F7800.000
G1 X105.162 Y106.318 E2.34403 F1800.000
G1 E0.34403 F2400.00000
G92 E0
G1 X103.218 Y102.481 F7800.000
G1 E2.00000 F2400.00000
G1 X102.965 Y102.959 E2.01674 F1800.000
G1 X101.932 Y104.744 E2.08055
G1 X101.087 Y103.198 E2.13508
G1 X100.732 Y102.481 E2.15982
G1 X103.143 Y102.481 E2.23442
G1 X102.843 Y102.812 F7800.000
G1 X102.468 Y103.159 F7800.000
G1 X102.169 Y102.859 E2.24963 F1800.000
G1 X101.762 Y103.478 E2.27619
G1 X102.078 Y103.793 E2.29219
G1 E0.29219 F2400.00000
G92 E0
G1 X101.247 Y105.962 F7800.000
G1 E2.00000 F2400.00000
G1 X100.057 Y107.989 E2.07274 F1800.000
G1 X98.885 Y105.966 E2.14510
G1 X101.172 Y105.962 E2.21587
G1 X100.863 Y106.282 F7800.000
G1 X100.466 Y106.642 F7800.000
G1 X100.166 Y106.342 E2.22899 F1800.000
G1 E0.22899 F2400.00000
G92 E0
G1 X98.158 Y104.701 F7800.000
G1 E2.00000 F2400.00000
G1 X97.111 Y102.922 E2.06385 F1800.000
G1 X96.871 Y102.474 E2.07959
G1 X99.339 Y102.483 E2.15596
G1 X99.008 Y103.133 E2.17854
G1 X98.194 Y104.635 E2.23139
G1 X98.064 Y104.210 F7800.000
G1 X98.272 Y103.754 F7800.000
G1 X97.950 Y103.433 E2.24639 F1800.000
G1 X98.318 Y102.858 E2.26889
G1 X98.618 Y103.158 E2.28289
G1 Z0.650 F7800.000
G1 E0.28289 F2400.00000
G92 E0
G1 X90.932 Y106.699 F7800.000
G1 E2.00000 F2400.00000
G1 X90.985 Y107.064 E2.01025 F900.000
G1 X87.158 Y107.862 E2.11883
G1 X85.829 Y108.158 E2.15666
G1 X85.844 Y107.114 E2.18566
G1 X90.857 Y106.705 E2.32538
G1 X95.069 Y105.815 F7800.000
G1 X95.339 Y106.483 E2.33870 F900.000
G1 X95.480 Y106.727 E2.34392
G1 X95.101 Y106.737 E2.35092
G1 X93.354 Y107.127 E2.38402
G1 X87.273 Y108.395 E2.49886
G1 X85.562 Y108.776 E2.53127
G1 X85.274 Y108.821 E2.53665
G1 X85.306 Y106.611 E2.57751
G1 X94.994 Y105.821 E2.75721
G1 X94.950 Y106.301 F7800.000
G1 E0.75721 F2400.00000
G92 E0
G1 X91.429 Y103.709 F7800.000
G1 E2.00000 F2400.00000
G1 X87.082 Y103.772 E2.12076 F900.000
G1 X87.611 Y102.904 E2.14897
G1 X87.986 Y102.351 E2.16755
G1 X91.475 Y103.374 E2.26855
G1 X91.439 Y103.634 E2.27585
G1 E0.27585 F2400.00000
G92 E0
G1 X92.936 Y100.539 F7800.000
G1 E2.00000 F2400.00000
G1 X90.751 Y99.845 E2.06368 F900.000
G1 X91.638 Y99.255 E2.09326
G1 X93.084 Y100.233 E2.14176
G1 X92.969 Y100.472 E2.14913
G1 X94.648 Y101.654 F7800.000
G1 X89.504 Y100.021 E2.24891 F1800.000
G1 X91.640 Y98.599 E2.29636
G1 X94.653 Y100.636 E2.36359
G1 X95.173 Y100.953 E2.37484
G1 X95.491 Y100.686 E2.38252
G1 X96.439 Y99.771 E2.40688
G1 X96.570 Y99.472 E2.41292
G1 X96.393 Y99.275 E2.41780
G1 X95.372 Y98.484 E2.44168
G1 X94.227 Y97.468 E2.46999
G1 X95.757 Y96.942 E2.49989
G1 X96.064 Y97.563 E2.51271
G1 X96.819 Y98.894 E2.54100
G1 X97.130 Y99.321 E2.55076
G1 X97.544 Y99.177 E2.55887
G1 X97.800 Y99.610 E2.56816
G1 X97.003 Y100.064 E2.58513
G1 X96.509 Y100.455 E2.59678
G1 X96.019 Y100.976 E2.60999
G1 X95.605 Y101.561 E2.62324
G1 X95.385 Y101.983 E2.63205
G1 X95.097 Y102.738 E2.64698
G1 X94.918 Y103.586 E2.66301
G1 X94.871 Y104.464 E2.67926
G1 X94.897 Y104.740 E2.68440
G1 X94.612 Y104.801 E2.68978
G1 X94.430 Y104.263 E2.70028
G1 X93.920 Y104.218 E2.70974
G1 X87.094 Y104.317 E2.83595
G1 X86.125 Y104.295 E2.85387
G1 X87.152 Y102.610 E2.89036
G1 X87.612 Y101.931 E2.90552
G1 X87.778 Y101.750 E2.91004
G1 X88.098 Y101.816 E2.91609
G1 X93.012 Y103.256 E3.01076
G1 X93.988 Y103.473 E3.02926
G1 X94.410 Y103.473 E3.03705
G1 X94.546 Y102.631 E3.05281
G1 X94.722 Y101.892 E3.06686
G1 X94.670 Y101.726 E3.07008
G1 X94.700 Y101.157 F7800.000
G1 X94.632 Y101.164 F7800.000
G1 X94.912 Y101.292 E3.07862 F1200.000
G1 X95.030 Y101.386 E3.08282
G1 X95.101 Y101.477 E3.08602
G1 X95.269 Y101.373 E3.09152
G1 X95.769 Y100.823 E3.11215
G1 X95.122 Y101.241 F7800.000
G1 X95.062 Y101.896 E3.13044 F1200.000
G1 X94.885 Y102.473 E3.14719
G1 X94.632 Y101.164 F7800.000
G1 X93.256 Y100.505 E3.23615 F1200.000
G1 E1.23615 F2400.00000
G92 E0
G1 X93.167 Y103.765 F7800.000
G1 E2.00000 F2400.00000
G1 X91.722 Y103.578 E2.08491 F1200.000
G1 X93.167 Y103.765 F7800.000
G1 X93.959 Y103.846 E2.10702 F1200.000
G1 X94.629 Y103.876 E2.12567
G1 X94.853 Y106.307 F7800.000
G1 X91.228 Y106.843 E2.33923 F1200.000
G1 E0.33923 F2400.00000
G92 E0
G1 X90.267 Y103.380 F7800.000
G1 E2.00000 F2400.00000
G1 X87.902 Y103.058 E2.06630 F1200.000
G1 E0.06630 F2400.00000
G92 E0
G1 X95.216 Y97.416 F7800.000
G1 E2.00000 F2400.00000
G1 X95.721 Y98.064 E2.04786 F1200.000
G1 X96.053 Y98.447 E2.07742
G1 X96.053 Y98.447 F7800.000
G1 X96.572 Y99.048 E2.09948 F1200.000
G1 E0.09948 F2400.00000
G92 E0
G1 X97.318 Y96.954 F7800.000
G1 E2.00000 F2400.00000
G1 X97.104 Y95.720 E2.02316 F900.000
G1 X97.372 Y95.632 E2.02837
G1 X97.857 Y96.597 E2.04835
G1 X97.986 Y97.027 E2.05664
G1 X97.628 Y97.033 E2.06325
G1 X97.506 Y97.018 E2.06553
G1 X97.389 Y96.978 E2.06782
G1 X97.566 Y96.520 F7800.000
G1 X97.006 Y94.396 F7800.000
G1 X96.970 Y93.699 E2.08073 F900.000
G1 X97.383 Y94.089 E2.09125
G1 X97.278 Y94.430 E2.09784
G1 X97.081 Y94.405 E2.10152
G1 X97.259 Y93.964 F7800.000
G1 X94.158 Y94.027 F7800.000
G1 X97.219 Y94.571 E2.15899 F900.000
G1 X97.212 Y94.956 E2.16611
G1 X96.398 Y94.834 E2.18134
G1 X94.676 Y94.823 E2.21317
G1 X94.141 Y94.742 E2.22317
G1 X93.742 Y94.584 E2.23110
G1 X93.642 Y94.499 E2.23353
G1 X93.603 Y94.415 E2.23525
G1 X93.588 Y94.285 E2.23767
G1 X93.625 Y93.976 E2.24342
G1 X93.737 Y93.538 E2.25179
G1 X93.888 Y93.191 E2.25877
G1 X94.193 Y92.711 E2.26930
G1 X94.451 Y92.826 E2.27452
G1 X94.258 Y93.514 E2.28773
G1 X94.173 Y93.953 E2.29600
G1 X94.068 Y94.519 F7800.000
G1 X94.432 Y92.544 F7800.000
G1 X95.008 Y91.389 E2.33184 F1800.000
G1 E0.33184 F2400.00000
G92 E0
