; generated by Slic3r 1.2.9 on 2018-04-11 at 10:29:16

; external perimeters extrusion width = 0.50mm
; perimeters extrusion width = 0.72mm
; infill extrusion width = 0.72mm
; solid infill extrusion width = 0.72mm
; top infill extrusion width = 0.72mm

M107
M104 S200 ; set temperature
G28 ; home all axes
G1 Z5 F5000 ; lift nozzle

M109 S200 ; wait for temperature to be reached
G21 ; set units to millimeters
G90 ; use absolute coordinates
M82 ; use absolute distances for extrusion
G92 E0
G1 Z0.350 F7800.000
G1 E-2.00000 F2400.00000
G92 E0
G1 X54.582 Y35.074 F7800.000
G1 E2.00000 F2400.00000
G1 X54.951 Y34.562 E2.01954 F1800.000
G1 X57.227 Y32.577 E2.11297
G1 X57.958 Y32.190 E2.13858
G1 X59.492 Y31.607 E2.18934
G1 X59.979 Y31.488 E2.20486
G1 X61.448 Y31.301 E2.25067
G1 X64.013 Y31.263 E2.33005
G1 X76.531 Y31.175 E2.71737
G1 X114.326 Y31.014 E3.88683
G1 X126.658 Y31.220 E4.26843 F1800.000
G1 X128.910 Y31.655 E4.33939
G1 X130.878 Y32.831 E4.41036
G1 X131.986 Y34.061 E4.46156
G1 X135.553 Y39.201 E4.65515
G1 X135.716 Y39.457 E4.66455
G1 X136.430 Y40.981 E4.71662
G1 X146.430 Y72.131 E5.72889
G1 X146.742 Y74.403 E5.79985
G1 X146.018 Y77.177 E5.88853
G1 X100.837 Y165.383 E8.95495
G1 X99.454 Y167.212 E9.02591
G1 X97.530 Y168.460 E9.09687
G1 X95.296 Y168.978 E9.16784
G1 X93.019 Y168.702 E9.23880
G1 X90.972 Y167.667 E9.30976
G1 X89.401 Y165.996 E9.38072
G1 X88.694 Y164.568 E9.43006
G1 X55.381 Y70.193 E12.52671
G1 X55.171 Y69.467 E12.55009
G1 X54.708 Y67.448 E12.61417
G1 X54.582 Y66.708 E12.63741
G1 X54.347 Y64.477 E12.70681
G1 X53.260 Y39.640 E13.47605
G1 X53.382 Y38.053 E13.52528
G1 X53.463 Y37.647 E13.53810
G1 X54.552 Y35.143 E13.62260
G1 E11.62260 F2400.00000
G92 E0
G1 X95.020 Y74.793 F7800.000
G1 E2.00000 F2400.00000
G1 X106.832 Y92.897 E2.66888 F1800.000
G1 X105.053 Y97.457 E2.82032
G1 X102.823 Y103.818 E3.02889
G1 X101.946 Y106.583 E3.11862
G1 X100.643 Y111.155 E3.26573
G1 X99.969 Y113.939 E3.35437
G1 X99.693 Y115.191 E3.39402
G1 X98.586 Y120.778 E3.57025
G1 X98.017 Y124.085 E3.67410
G1 X97.037 Y130.750 E3.88254
G1 X96.259 Y136.811 E4.07161
G1 X95.720 Y141.413 E4.21497
G1 X95.182 Y146.303 E4.36717
G1 X94.847 Y146.303 E4.37755
G1 X94.461 Y142.888 E4.48389
G1 X93.365 Y133.916 E4.76354
G1 X92.825 Y129.850 E4.89045
G1 X91.666 Y121.724 E5.14443
G1 X90.356 Y113.455 E5.40348
G1 X89.216 Y106.966 E5.60733
G1 X88.704 Y104.698 E5.67927
G1 X88.228 Y103.028 E5.73302
G1 X87.081 Y99.767 E5.83998
G1 X85.351 Y95.761 E5.97500
G1 X83.333 Y91.990 E6.10733
G1 X94.978 Y74.855 E6.74835
G1 X95.030 Y73.665 F7800.000
G1 X107.531 Y92.825 E7.45621 F1800.000
G1 X105.639 Y97.674 E7.61726
G1 X103.416 Y104.016 E7.82520
G1 X102.544 Y106.763 E7.91436
G1 X101.248 Y111.314 E8.06079
G1 X100.578 Y114.080 E8.14885
G1 X100.305 Y115.319 E8.18809
G1 X99.201 Y120.891 E8.36386
G1 X98.634 Y124.184 E8.46724
G1 X97.656 Y130.836 E8.67527
G1 X96.879 Y136.887 E8.86405
G1 X96.341 Y141.484 E9.00724
G1 X95.179 Y152.051 E9.33617
G1 X94.842 Y152.050 E9.34661
G1 X94.403 Y147.943 E9.47439
G1 X93.840 Y142.961 E9.62953
G1 X92.745 Y133.995 E9.90900
G1 X92.206 Y129.936 E10.03571
G1 X91.048 Y121.817 E10.28945
G1 X89.740 Y113.558 E10.54819
G1 X88.603 Y107.089 E10.75140
G1 X88.098 Y104.853 E10.82235
G1 X87.633 Y103.217 E10.87497
G1 X86.499 Y99.994 E10.98067
G1 X84.788 Y96.032 E11.11421
G1 X82.711 Y92.151 E11.25040
G1 X82.595 Y91.964 E11.25723
G1 X94.988 Y73.727 E11.93944
G1 X95.041 Y72.538 F7800.000
G1 X108.230 Y92.753 E12.68629 F1800.000
G1 X106.225 Y97.891 E12.85695
G1 X104.008 Y104.214 E13.06426
G1 X103.143 Y106.943 E13.15284
G1 X101.852 Y111.473 E13.29859
G1 X101.187 Y114.221 E13.38607
G1 X100.917 Y115.447 E13.42491
G1 X99.815 Y121.005 E13.60023
G1 X99.251 Y124.282 E13.70312
G1 X98.275 Y130.921 E13.91074
G1 X97.500 Y136.964 E14.09924
G1 X96.962 Y141.554 E14.24225
G1 X95.337 Y156.334 E14.70232
G1 X95.145 Y157.880 E14.75050
G1 X94.810 Y157.876 E14.76086
G1 X93.782 Y148.012 E15.06773
G1 X93.219 Y143.034 E15.22272
G1 X92.125 Y134.074 E15.50201
G1 X91.587 Y130.021 E15.62853
G1 X90.431 Y121.910 E15.88202
G1 X89.123 Y113.661 E16.14045
G1 X87.990 Y107.212 E16.34303
G1 X87.492 Y105.007 E16.41298
G1 X87.037 Y103.406 E16.46448
G1 X85.917 Y100.222 E16.56892
G1 X84.225 Y96.304 E16.70097
G1 X82.169 Y92.463 E16.83577
G1 X81.851 Y91.947 E16.85453
G1 X94.999 Y72.600 E17.57829
G1 X95.134 Y73.029 F7800.000
G1 X94.974 Y158.228 F7800.000
G1 X94.943 Y161.085 E17.66672 F1800.000
G1 X94.993 Y156.414 F7800.000
G1 X95.000 Y154.819 E17.71607 F1800.000
G1 X95.000 Y154.819 F7800.000
G1 X95.009 Y152.363 E17.87723 F1800.000
G1 X95.013 Y150.528 F7800.000
G1 X95.016 Y148.965 E17.92559 F1800.000
G1 X95.016 Y148.965 F7800.000
G1 X95.015 Y146.615 E18.07971 F1800.000
G1 X95.012 Y144.819 F7800.000
G1 X95.010 Y143.303 E18.12663 F1800.000
G1 X95.010 Y143.303 F7800.000
G1 X94.999 Y141.090 E18.27181 F1800.000
G1 X94.864 Y140.713 F7800.000
G1 X94.556 Y140.405 E18.28541 F1800.000
G1 X94.432 Y139.389 E18.31737
G1 X95.470 Y140.427 E18.36321
G1 X95.563 Y139.628 E18.38831
G1 X94.308 Y138.373 E18.44375
G1 X94.184 Y137.357 E18.47571
G1 X95.657 Y138.830 E18.54075
G1 X95.750 Y138.031 E18.56586
G1 X94.060 Y136.341 E18.64050
G1 X93.936 Y135.325 E18.67246
G1 X95.843 Y137.233 E18.75670
G1 X95.941 Y136.439 E18.78169
G1 X93.812 Y134.309 E18.87573
G1 X93.682 Y133.288 E18.90788
G1 X96.043 Y135.648 E19.01211
G1 X96.144 Y134.858 E19.03700
G1 X93.546 Y132.259 E19.15174
G1 X93.409 Y131.231 E19.18414
G1 X96.246 Y134.067 E19.30939
G1 X96.347 Y133.277 E19.33428
G1 X93.273 Y130.203 E19.47004
G1 X93.131 Y129.169 E19.50263
G1 X96.448 Y132.486 E19.64914
G1 X96.550 Y131.696 E19.67403
G1 X92.983 Y128.128 E19.83157
G1 X92.834 Y127.088 E19.86439
G1 X96.651 Y130.905 E20.03297
G1 X96.764 Y130.126 E20.05755
G1 X92.686 Y126.048 E20.23766
G1 X92.537 Y125.008 E20.27048
G1 X96.879 Y129.349 E20.46219
G1 X96.993 Y128.571 E20.48674
G1 X92.389 Y123.967 E20.69005
G1 X92.241 Y122.927 E20.72287
G1 X97.107 Y127.794 E20.93779
G1 X97.222 Y127.016 E20.96233
G1 X92.092 Y121.887 E21.18885
G1 X91.931 Y120.834 E21.22211
G1 X97.336 Y126.239 E21.46079
G1 X97.450 Y125.461 E21.48534
G1 X91.763 Y119.774 E21.73648
G1 X91.595 Y118.714 E21.76999
G1 X97.565 Y124.683 E22.03360
G1 X97.684 Y123.911 E22.05801
G1 X91.427 Y117.654 E22.33431
G1 X91.260 Y116.595 E22.36782
G1 X97.815 Y123.150 E22.65731
G1 X97.946 Y122.389 E22.68142
G1 X91.092 Y115.535 E22.98411
G1 X90.924 Y114.475 E23.01762
G1 X98.077 Y121.628 E23.33351
G1 X98.207 Y120.867 E23.35762
G1 X90.756 Y113.415 E23.68671
G1 X90.569 Y112.337 E23.72088
G1 X98.354 Y120.121 E24.06467
G1 X98.501 Y119.377 E24.08836
G1 X90.379 Y111.255 E24.44706
G1 X90.189 Y110.173 E24.48137
G1 X98.649 Y118.633 E24.85498
G1 X98.797 Y117.888 E24.87868
G1 X89.999 Y109.091 E25.26720
G1 X89.809 Y108.009 E25.30151
G1 X98.944 Y117.144 E25.70495
G1 X99.092 Y116.400 E25.72864
G1 X89.619 Y106.927 E26.14699
G1 X89.371 Y105.787 E26.18341
G1 X99.239 Y115.655 E26.61920
G1 X99.392 Y114.916 E26.64276
G1 X89.111 Y104.635 E27.09681
G1 X88.772 Y103.405 E27.13666
G1 X99.553 Y114.186 E27.61278
G1 X99.723 Y113.464 E27.63594
G1 X88.357 Y102.098 E28.13789
G1 X87.873 Y100.722 F7800.000
G1 X99.897 Y112.745 E28.66889 F1800.000
G1 X100.071 Y112.027 E28.69197
G1 X87.375 Y99.331 E29.25265
G1 X86.697 Y97.762 F7800.000
G1 X100.245 Y111.309 E29.85095 F1800.000
G1 X100.437 Y110.610 E29.87360
G1 X86.019 Y96.192 E30.51034
G1 X85.167 Y94.448 F7800.000
G1 X100.635 Y109.916 E31.19344 F1800.000
G1 X100.833 Y109.222 E31.21598
G1 X84.140 Y92.529 E31.95317
G1 X84.038 Y91.535 E31.98438
G1 X101.031 Y108.528 E32.73483
G1 X101.228 Y107.834 E32.75737
G1 X84.399 Y91.004 E33.50062
G1 X84.759 Y90.473 E33.52067
G1 X101.426 Y107.139 E34.25671
G1 X101.627 Y106.448 E34.27918
G1 X85.120 Y89.942 E35.00815
G1 X85.481 Y89.411 E35.02820
G1 X101.842 Y105.771 E35.75073
G1 X102.057 Y105.094 E35.77291
G1 X85.842 Y88.880 E36.48898
G1 X86.203 Y88.349 E36.50903
G1 X102.271 Y104.417 E37.21865
G1 X102.487 Y103.741 E37.24081
G1 X86.564 Y87.818 E37.94403
G1 X86.925 Y87.286 E37.96408
G1 X102.719 Y103.081 E38.66159
G1 X102.950 Y102.420 E38.68344
G1 X87.286 Y86.755 E39.37523
G1 X87.646 Y86.224 E39.39528
G1 X103.182 Y101.760 E40.08136
G1 X103.413 Y101.099 E40.10322
G1 X88.007 Y85.693 E40.78358
G1 X88.368 Y85.162 E40.80363
G1 X103.645 Y100.439 E41.47828
G1 X103.876 Y99.779 E41.50014
G1 X88.729 Y84.631 E42.16907
G1 X89.090 Y84.100 E42.18912
G1 X104.108 Y99.118 E42.85235
G1 X104.339 Y98.458 E42.87420
G1 X89.451 Y83.569 E43.53171
G1 X89.812 Y83.038 E43.55176
G1 X104.571 Y97.797 E44.20355
G1 X104.810 Y97.145 E44.22526
G1 X90.172 Y82.507 E44.87169
G1 X90.533 Y81.976 E44.89174
G1 X105.060 Y96.503 E45.53329
G1 X105.311 Y95.862 E45.55479
G1 X90.894 Y81.445 E46.19146
G1 X91.255 Y80.914 E46.21151
G1 X105.561 Y95.220 E46.84331
G1 X105.812 Y94.579 E46.86481
G1 X91.616 Y80.383 E47.49173
G1 X91.977 Y79.852 E47.51178
G1 X106.062 Y93.937 E48.13381
G1 X106.312 Y93.296 E48.15532
G1 X92.338 Y79.321 E48.77247
G1 X92.699 Y78.790 E48.79252
G1 X105.258 Y91.349 E49.34718
G1 X103.584 Y88.783 F7800.000
G1 X93.059 Y78.259 E49.81196 F1800.000
G1 X93.420 Y77.728 E49.83201
G1 X101.909 Y86.217 E50.20691
G1 X100.235 Y83.651 F7800.000
G1 X93.781 Y77.197 E50.49192 F1800.000
G1 X94.142 Y76.666 E50.51197
G1 X98.561 Y81.084 E50.70711
G1 X96.886 Y78.518 F7800.000
G1 X94.503 Y76.135 E50.81237 F1800.000
G1 X94.878 Y75.618 E50.83231
G1 X95.212 Y75.952 E50.84705
G1 E48.84705 F2400.00000
G92 E0
G1 X98.559 Y70.151 F7800.000
G1 E2.00000 F2400.00000
G1 X101.573 Y70.046 E2.09332 F1800.000
G1 X104.377 Y69.676 E2.18083
G1 X108.172 Y68.793 E2.30138
G1 X112.702 Y67.662 E2.44585
G1 X115.758 Y67.058 E2.54224
G1 X117.342 Y66.820 E2.59180
G1 X122.824 Y66.899 E2.76143
G1 X125.911 Y67.233 E2.85750
G1 X127.920 Y67.631 E2.92087
G1 X130.471 Y68.364 E3.00300
G1 X132.731 Y69.356 E3.07936
G1 X134.372 Y70.337 E3.13852
G1 X135.857 Y71.519 E3.19725
G1 X136.537 Y72.221 E3.22748
G1 X132.829 Y72.124 E3.34224
G1 X130.242 Y72.270 E3.42240
G1 X127.697 Y72.662 E3.50210
G1 X126.115 Y73.062 E3.55259
G1 X124.328 Y73.644 E3.61073
G1 X122.054 Y74.680 E3.68804
G1 X119.605 Y76.194 E3.77712
G1 X117.753 Y77.700 E3.85101
G1 X115.204 Y80.269 E3.96297
G1 X112.621 Y83.539 E4.09189
G1 X110.649 Y86.482 E4.20153
G1 X109.905 Y87.703 E4.24575
G1 X107.391 Y84.069 E4.38247
G1 X102.598 Y76.600 E4.65706
G1 X98.599 Y70.214 E4.89019
G1 X97.392 Y69.464 F7800.000
G1 X98.731 Y69.519 E4.93166 F1800.000
G1 X101.521 Y69.423 E5.01805
G1 X104.265 Y69.060 E5.10368
G1 X108.025 Y68.185 E5.22313
G1 X112.566 Y67.052 E5.36793
G1 X115.651 Y66.442 E5.46525
G1 X117.300 Y66.195 E5.51684
G1 X122.862 Y66.274 E5.68895
G1 X126.005 Y66.615 E5.78678
G1 X128.067 Y67.023 E5.85181
G1 X130.684 Y67.775 E5.93604
G1 X133.018 Y68.799 E6.01491
G1 X134.728 Y69.822 E6.07657
G1 X136.278 Y71.055 E6.13784
G1 X137.541 Y72.359 E6.19401
G1 X138.027 Y72.985 E6.21852
G1 X136.510 Y72.845 E6.26564
G1 X132.838 Y72.749 E6.37930
G1 X130.308 Y72.892 E6.45773
G1 X127.821 Y73.275 E6.53557
G1 X126.288 Y73.663 E6.58450
G1 X124.555 Y74.228 E6.64090
G1 X122.349 Y75.232 E6.71589
G1 X119.968 Y76.704 E6.80251
G1 X118.173 Y78.164 E6.87411
G1 X115.672 Y80.684 E6.98395
G1 X113.127 Y83.907 E7.11102
G1 X111.175 Y86.819 E7.21948
G1 X109.938 Y88.849 E7.29304
G1 X106.871 Y84.415 E7.45986
G1 X102.070 Y76.934 E7.73489
G1 X97.432 Y69.528 E8.00529
G1 X96.233 Y68.791 F7800.000
G1 X98.733 Y68.894 E8.08272 F1800.000
G1 X101.470 Y68.799 E8.16744
G1 X104.153 Y68.445 E8.25120
G1 X107.879 Y67.578 E8.36955
G1 X112.429 Y66.442 E8.51467
G1 X115.544 Y65.826 E8.61291
G1 X117.258 Y65.569 E8.66653
G1 X122.900 Y65.650 E8.84113
G1 X126.100 Y65.996 E8.94071
G1 X128.214 Y66.416 E9.00741
G1 X130.896 Y67.186 E9.09375
G1 X133.305 Y68.243 E9.17513
G1 X135.085 Y69.307 E9.23929
G1 X136.699 Y70.591 E9.30310
G1 X138.013 Y71.949 E9.36158
G1 X139.404 Y73.739 E9.43172
G1 X136.474 Y73.469 E9.52278
G1 X132.848 Y73.375 E9.63501
G1 X130.373 Y73.514 E9.71171
G1 X127.946 Y73.888 E9.78770
G1 X126.462 Y74.264 E9.83505
G1 X124.782 Y74.811 E9.88972
G1 X122.644 Y75.784 E9.96241
G1 X120.331 Y77.214 E10.04655
G1 X118.593 Y78.628 E10.11587
G1 X116.141 Y81.099 E10.22358
G1 X113.632 Y84.275 E10.34881
G1 X111.702 Y87.155 E10.45609
G1 X109.972 Y89.995 E10.55899
G1 X106.351 Y84.762 E10.75590
G1 X101.542 Y77.269 E11.03138
G1 X96.273 Y68.854 E11.33857
G1 X96.700 Y68.969 F7800.000
G1 X99.834 Y71.303 F7800.000
G1 X112.164 Y83.633 E11.88630 F1800.000
G1 X112.543 Y83.114 E11.90646
G1 X99.907 Y70.478 E12.46778
G1 X100.774 Y70.448 E12.49503
G1 X112.939 Y82.613 E13.03541
G1 X113.334 Y82.112 E13.05547
G1 X101.627 Y70.405 E13.57552
G1 X102.420 Y70.300 E13.60063
G1 X113.730 Y81.610 E14.10306
G1 X114.126 Y81.109 E14.12312
G1 X103.212 Y70.195 E14.60793
G1 X104.005 Y70.091 E14.63304
G1 X114.522 Y80.608 E15.10023
G1 X114.918 Y80.106 E15.12029
G1 X104.760 Y69.948 E15.57154
G1 X105.487 Y69.779 E15.59501
G1 X115.360 Y79.652 E16.03357
G1 X115.807 Y79.201 E16.05350
G1 X106.215 Y69.610 E16.47958
G1 X106.943 Y69.440 E16.50305
G1 X116.254 Y78.751 E16.91666
G1 X116.701 Y78.301 E16.93658
G1 X107.671 Y69.271 E17.33770
G1 X108.395 Y69.098 E17.36110
G1 X117.148 Y77.850 E17.74989
G1 X117.600 Y77.406 E17.76981
G1 X109.113 Y68.919 E18.14681
G1 X109.831 Y68.740 E18.17005
G1 X118.095 Y77.003 E18.53714
G1 X118.590 Y76.601 E18.55717
G1 X110.549 Y68.561 E18.91434
G1 X111.267 Y68.381 E18.93758
G1 X119.084 Y76.199 E19.28484
G1 X119.596 Y75.813 E19.30496
G1 X111.985 Y68.202 E19.64305
G1 X112.704 Y68.024 E19.66632
G1 X120.150 Y75.470 E19.99710
G1 X120.705 Y75.128 E20.01758
G1 X113.453 Y67.876 E20.33971
G1 X114.202 Y67.728 E20.36370
G1 X121.259 Y74.785 E20.67719
G1 X121.813 Y74.442 E20.69766
G1 X114.951 Y67.580 E21.00251
G1 X115.700 Y67.432 E21.02649
G1 X122.415 Y74.147 E21.32479
G1 X123.032 Y73.866 E21.34606
G1 X116.480 Y67.314 E21.63711
G1 X117.262 Y67.200 E21.66196
G1 X123.648 Y73.585 E21.94563
G1 X124.265 Y73.305 E21.96690
G1 X118.173 Y67.213 E22.23752
G1 X119.083 Y67.226 E22.26611
G1 X124.940 Y73.083 E22.52632
G1 X125.617 Y72.863 E22.54867
G1 X119.993 Y67.239 E22.79850
G1 X120.903 Y67.252 E22.82709
G1 X126.305 Y72.653 E23.06704
G1 X127.020 Y72.472 E23.09023
G1 X121.813 Y67.265 E23.32154
G1 X122.730 Y67.284 E23.35035
G1 X127.737 Y72.291 E23.57277
G1 X128.514 Y72.172 E23.59747
G1 X123.736 Y67.393 E23.80973
G1 X124.742 Y67.502 E23.84152
G1 X129.292 Y72.052 E24.04362
G1 X130.069 Y71.932 E24.06833
G1 X125.754 Y67.617 E24.26003
G1 X126.873 Y67.838 E24.29586
G1 X130.895 Y71.861 E24.47455
G1 X131.745 Y71.813 E24.50127
G1 X128.032 Y68.101 E24.66618
G1 X129.291 Y68.463 E24.70732
G1 X132.594 Y71.765 E24.85404
G1 X133.485 Y71.759 E24.88202
G1 X130.654 Y68.928 E25.00775
G1 X132.253 Y69.630 F7800.000
G1 X134.406 Y71.783 E25.10340 F1800.000
G1 X134.916 Y71.396 E25.12351
G1 X135.306 Y71.786 E25.14084
G1 E23.14084 F2400.00000
G92 E0
G1 X109.665 Y86.517 F7800.000
G1 E2.00000 F2400.00000
G1 X110.024 Y86.875 E2.01593 F1800.000
G1 X110.364 Y86.318 E2.03643
G1 X107.657 Y83.611 E2.15670
G1 X106.050 Y81.107 F7800.000
G1 X110.724 Y85.781 E2.36433 F1800.000
G1 X111.084 Y85.244 E2.38464
G1 X104.444 Y78.604 E2.67964
G1 X102.841 Y76.104 F7800.000
G1 X111.444 Y84.707 E3.06182 F1800.000
G1 X111.804 Y84.170 E3.08213
G1 X101.338 Y73.703 E3.54708
G1 E1.54708 F2400.00000
G92 E0
G1 X108.230 Y45.661 F7800.000
G1 E2.00000 F2400.00000
G1 X107.217 Y44.528 E2.04701 F1800.000
G1 X107.169 Y44.449 E2.04987
G1 X107.211 Y44.014 E2.06342
G1 X107.590 Y43.476 E2.08376
G1 X107.761 Y44.197 E2.10667
G1 X108.223 Y45.030 E2.13615
G1 X108.229 Y45.586 E2.15336
G1 X107.994 Y45.220 F7800.000
G1 X108.164 Y46.113 F7800.000
G1 X107.197 Y47.310 E2.20097 F1800.000
G1 E0.20097 F2400.00000
G92 E0
G1 X112.227 Y45.895 F7800.000
G1 E2.00000 F2400.00000
G1 X113.919 Y45.992 E2.05243 F1800.000
G1 X114.958 Y46.138 E2.08490
G1 X116.709 Y46.545 E2.14054
G1 X117.080 Y46.651 E2.15248
G1 X117.035 Y46.974 E2.16257
G1 X110.764 Y46.969 E2.35659
G1 X111.472 Y43.954 E2.45242
G1 X111.891 Y42.556 E2.49756
G1 X112.568 Y40.765 E2.55682
G1 X113.009 Y39.872 E2.58762
G1 X113.325 Y39.987 E2.59802
G1 X113.186 Y40.554 E2.61608
G1 X112.181 Y45.412 E2.76957
G1 X112.220 Y45.820 E2.78226
G1 X112.223 Y46.395 F7800.000
G1 X113.287 Y39.601 F7800.000
