; generated by Slic3r 1.2.9 on 2018-04-11 at 10:16:57

; external perimeters extrusion width = 0.50mm
; perimeters extrusion width = 0.72mm
; infill extrusion width = 0.72mm
; solid infill extrusion width = 0.72mm
; top infill extrusion width = 0.72mm

M107
M104 S200 ; set temperature
G28 ; home all axes
G1 Z5 F5000 ; lift nozzle

M109 S200 ; wait for temperature to be reached
G21 ; set units to millimeters
G90 ; use absolute coordinates
M82 ; use absolute distances for extrusion
G92 E0
G1 Z0.350 F7800.000
G1 X32.415 Y37.566 F7800.000
G1 X34.168 Y36.086 E0.07096 F1800.000
G1 X36.320 Y35.294 E0.14192
G1 X37.500 Y35.188 E0.17858
G1 X162.500 Y35.188 E4.04624
G1 X164.759 Y35.585 E4.11720
G1 X166.747 Y36.728 E4.18816 F1800.000
G1 X168.226 Y38.481 E4.25913
G1 X169.019 Y40.633 E4.33009
G1 X169.125 Y41.812 E4.36674
G1 X169.125 Y158.188 E7.96754
G1 X168.728 Y160.446 E8.03850
G1 X167.585 Y162.434 E8.10946
G1 X165.832 Y163.914 E8.18042
G1 X163.680 Y164.706 E8.25139
G1 X162.500 Y164.812 E8.28804
G1 X37.500 Y164.812 E12.15570
G1 X35.241 Y164.415 E12.22666
G1 X33.253 Y163.272 E12.29763
G1 X31.774 Y161.519 E12.36859
G1 X30.981 Y159.367 E12.43955
G1 X30.875 Y158.188 E12.47620
G1 X30.875 Y41.812 E16.07700
G1 X31.272 Y39.554 E16.14796
G1 X32.378 Y37.631 E16.21660
G1 E14.21660 F2400.00000
G92 E0
G1 X96.583 Y157.109 F7800.000
G1 E2.00000 F2400.00000
G1 X97.268 Y157.837 E2.03093 F1800.000
G1 X96.021 Y157.837 E2.06954
G1 X95.936 Y157.578 E2.07797
G1 X96.523 Y157.153 E2.10038
G1 X96.677 Y157.600 F7800.000
G1 X95.630 Y157.767 F7800.000
G1 X95.029 Y157.866 E2.11923 F1800.000
G1 X94.882 Y157.873 E2.12378
G1 X93.721 Y157.793 E2.15978
G1 E0.15978 F2400.00000
G92 E0
G1 X106.646 Y124.630 F7800.000
G1 E2.00000 F2400.00000
G1 X106.470 Y123.621 E2.03170 F1800.000
G1 X106.025 Y123.051 E2.05407
G1 E0.05407 F2400.00000
G92 E0
G1 X108.133 Y111.037 F7800.000
G1 E2.00000 F2400.00000
G1 X109.715 Y111.066 E2.04895 F1800.000
G1 E0.04895 F2400.00000
G92 E0
G1 X123.778 Y112.992 F7800.000
G1 E2.00000 F2400.00000
G1 X125.556 Y112.832 E2.05524 F1800.000
G1 E0.05524 F2400.00000
G92 E0
G1 X90.511 Y105.447 F7800.000
G1 E2.00000 F2400.00000
G1 X90.259 Y105.556 E2.00851 F1800.000
G1 X89.508 Y105.942 E2.03462
G1 X88.883 Y106.297 E2.05688
G1 X88.570 Y106.550 E2.06932
G1 X88.189 Y106.929 E2.08595
G1 E0.08595 F2400.00000
G92 E0
G1 X63.237 Y83.476 F7800.000
G1 E2.00000 F2400.00000
G1 X61.795 Y84.590 E2.05639 F1800.000
G1 X60.244 Y85.449 E2.11125
G1 E0.11125 F2400.00000
G92 E0
G1 X106.493 Y145.937 F7800.000
G1 E2.00000 F2400.00000
G1 X105.933 Y143.331 E2.08247 F1800.000
G1 X107.276 Y142.726 E2.12805
G1 X109.722 Y141.705 E2.21007
G1 X109.500 Y141.022 E2.23232
G1 X111.003 Y141.923 E2.28654
G1 X111.246 Y142.024 E2.29470
G1 X111.914 Y140.628 E2.34258
G1 X115.176 Y138.435 E2.46420
G1 X117.532 Y136.431 E2.55989
G1 X116.520 Y136.080 E2.59304
G1 X115.084 Y137.385 E2.65308
G1 X113.853 Y136.034 E2.70963
G1 X111.870 Y136.825 E2.77569
G1 X109.036 Y137.670 E2.86719
G1 X108.187 Y137.142 E2.89812
G1 X107.306 Y137.662 E2.92977
G1 X105.782 Y137.662 E2.97691
G1 X103.748 Y136.785 E3.04544
G1 X102.026 Y134.857 E3.12545
G1 X100.993 Y135.205 E3.15919
G1 X100.383 Y135.457 E3.17958
G1 X98.338 Y135.534 E3.24290
G1 X97.628 Y135.314 E3.26592
G1 X95.983 Y134.543 E3.32212
G1 X94.287 Y132.973 E3.39362
G1 X93.842 Y132.225 E3.42056
G1 X93.113 Y130.548 E3.47713
G1 X92.902 Y128.325 E3.54623
G1 X93.046 Y127.862 E3.56122
G1 X91.774 Y125.764 E3.63714
G1 X91.323 Y124.233 E3.68652
G1 X91.053 Y121.529 E3.77062
G1 X91.469 Y118.246 E3.87300
G1 X91.592 Y116.146 E3.93809
G1 X91.732 Y114.674 E3.98385
G1 X88.375 Y113.752 E4.09158
G1 X88.352 Y113.198 E4.10874
G1 X88.024 Y112.955 E4.12136
G1 X87.862 Y113.012 E4.12668
G1 X86.506 Y113.012 E4.16865
G1 X84.883 Y112.518 E4.22114
G1 X83.540 Y111.574 E4.27192
G1 X82.549 Y110.170 E4.32510
G1 X82.093 Y108.579 E4.37633
G1 X82.180 Y108.323 E4.38466
G1 X81.614 Y107.711 E4.41046
G1 X81.873 Y106.836 E4.43867
G1 X81.144 Y106.198 E4.46865
G1 X80.007 Y104.425 E4.53383
G1 X79.580 Y103.535 E4.56437
G1 X79.065 Y102.384 E4.60338
G1 X78.986 Y101.883 E4.61906
G1 X78.033 Y101.561 E4.65020
G1 X76.450 Y100.669 E4.70642
G1 X74.320 Y98.620 E4.79787
G1 X73.748 Y97.573 E4.83478
G1 X72.354 Y94.849 E4.92947
G1 X71.503 Y92.708 E5.00075
G1 X71.286 Y90.350 E5.07401
G1 X70.824 Y90.896 E5.09613
G1 X67.940 Y92.269 E5.19498
G1 X67.340 Y92.353 E5.21371
G1 X66.693 Y92.523 E5.23441
G1 X65.474 Y92.569 E5.27215
G1 X63.622 Y92.541 E5.32946
G1 X62.072 Y92.153 E5.37892
G1 X59.576 Y90.998 E5.46401
G1 X58.685 Y90.295 E5.49910
G1 X57.063 Y88.737 E5.56872
G1 X56.554 Y87.928 E5.59827
G1 X55.759 Y86.501 E5.64883
G1 X56.123 Y86.005 E5.66785
G1 X55.416 Y85.614 E5.69284
G1 X55.183 Y81.982 E5.80545
G1 X57.549 Y82.770 E5.88261
G1 X57.711 Y82.806 E5.88776
G1 X58.166 Y82.710 E5.90215
G1 X59.608 Y82.041 E5.95134
G1 X60.567 Y81.339 E5.98810
G1 X61.792 Y80.108 E6.04185
G1 X63.906 Y77.466 E6.14655
G1 X66.265 Y75.436 E6.24283
G1 X69.408 Y76.057 E6.34196
G1 X68.518 Y78.344 E6.41791
G1 X67.069 Y80.468 E6.49746
G1 X68.188 Y81.287 E6.54036
G1 X68.860 Y82.071 E6.57231
G1 X69.375 Y82.738 E6.59836
G1 X69.859 Y83.776 E6.63382
G1 X70.218 Y84.404 E6.65621
G1 X71.262 Y86.424 E6.72653
G1 X72.155 Y89.321 E6.82034
G1 X71.342 Y90.284 E6.85935
G1 X71.491 Y90.517 E6.86791
G1 X73.950 Y89.833 E6.94687
G1 X76.199 Y94.388 E7.10407
G1 X77.050 Y95.801 E7.15509
G1 X77.291 Y96.080 E7.16651
G1 X77.386 Y96.144 E7.17005
G1 X77.576 Y96.212 E7.17630
G1 X78.056 Y96.434 E7.19266
G1 X78.763 Y96.876 E7.21847
G1 X80.002 Y97.707 E7.26462
G1 X80.781 Y98.669 E7.30292
G1 X82.048 Y99.079 E7.34413
G1 X81.834 Y100.232 E7.38042
G1 X82.456 Y101.069 E7.41268
G1 X82.854 Y101.840 E7.43953
G1 X83.114 Y102.213 E7.45358
G1 X83.171 Y102.213 E7.45537
G1 X85.912 Y105.080 E7.57810
G1 X87.354 Y103.532 E7.64354
G1 X87.829 Y103.461 E7.65842
G1 X87.367 Y102.421 E7.69362
G1 X89.161 Y100.625 E7.77216
G1 X89.387 Y100.764 E7.78035
G1 X90.444 Y98.709 E7.85185
G1 X91.405 Y99.626 E7.89295
G1 X92.746 Y99.471 E7.93472
G1 X94.200 Y99.632 E7.97999
G1 X95.832 Y100.378 E8.03550
G1 X97.015 Y101.700 E8.09040
G1 X97.348 Y103.060 E8.13374
G1 X97.024 Y104.545 E8.18075
G1 X95.645 Y106.002 E8.24283
G1 X94.484 Y106.589 E8.28310
G1 X93.773 Y106.609 E8.30511
G1 X93.244 Y106.680 E8.32163
G1 X92.741 Y106.715 E8.33720
G1 X92.182 Y107.235 E8.36083
G1 X92.076 Y107.305 E8.36477
G1 X90.544 Y110.450 E8.47300
G1 X91.912 Y111.866 E8.53390
G1 X91.912 Y112.063 E8.54001
G1 X92.174 Y112.146 E8.54849
G1 X92.490 Y111.699 E8.56545
G1 X93.317 Y110.438 E8.61210
G1 X94.912 Y109.025 E8.67805
G1 X96.294 Y108.233 E8.72732
G1 X100.138 Y106.882 E8.85338
G1 X99.921 Y106.564 E8.86528
G1 X99.541 Y105.244 E8.90778
G1 X99.585 Y104.135 E8.94214
G1 X99.099 Y103.144 E8.97629
G1 X99.138 Y102.080 E9.00923
G1 X98.156 Y101.142 E9.05124
G1 X97.615 Y99.703 E9.09881
G1 X97.713 Y97.970 E9.15253
G1 X98.649 Y95.891 E9.22306
G1 X100.041 Y94.084 E9.29365
G1 X101.123 Y93.317 E9.33467
G1 X102.222 Y91.614 E9.39738
G1 X103.726 Y89.967 E9.46639
G1 X105.158 Y89.149 E9.51741
G1 X105.593 Y88.148 E9.55120
G1 X106.275 Y87.150 E9.58859
G1 X107.275 Y86.409 E9.62710
G1 X108.641 Y85.844 E9.67283
G1 X110.752 Y85.800 E9.73816
G1 X111.722 Y85.800 E9.76818
G1 X113.500 Y86.408 E9.82631
G1 X115.326 Y87.376 E9.89026
G1 X117.131 Y88.772 E9.96085
G1 X118.558 Y90.392 E10.02767
G1 X119.823 Y92.736 E10.11009
G1 X120.535 Y94.988 E10.18318
G1 X120.725 Y97.258 E10.25363
G1 X120.403 Y98.900 E10.30543
G1 X119.639 Y100.438 E10.35855
G1 X118.721 Y101.316 E10.39786
G1 X118.281 Y101.568 E10.41355
G1 X118.066 Y102.954 E10.45694
G1 X117.660 Y103.738 E10.48427
G1 X117.461 Y104.502 E10.50869
G1 X119.209 Y103.878 E10.56611
G1 X120.446 Y103.694 E10.60478
G1 X121.928 Y103.615 E10.65072
G1 X122.218 Y103.778 E10.66100
G1 X122.742 Y103.773 E10.67723
G1 X123.709 Y104.034 E10.70821
G1 X125.911 Y104.964 E10.78215
G1 X126.735 Y105.629 E10.81493
G1 X127.839 Y106.740 E10.86340
G1 X128.629 Y107.584 E10.89917
G1 X129.076 Y108.436 E10.92894
G1 X129.594 Y110.278 E10.98814
G1 X129.643 Y112.213 E11.04804
G1 X129.341 Y113.318 E11.08346
G1 X128.640 Y114.566 E11.12777
G1 X127.546 Y115.576 E11.17382
G1 X125.773 Y116.450 E11.23500
G1 X124.107 Y116.618 E11.28682
G1 X122.393 Y116.229 E11.34119
G1 X121.216 Y115.412 E11.38550
G1 X119.925 Y113.607 E11.45417
G1 X119.820 Y114.007 E11.46695
G1 X119.365 Y113.515 E11.48769
G1 X117.950 Y113.561 E11.53148
G1 X118.600 Y115.120 E11.58374
G1 X118.246 Y116.128 E11.61683
G1 X118.254 Y116.986 E11.64336
G1 X118.400 Y117.398 E11.65690
G1 X118.518 Y117.535 E11.66250
G1 X118.698 Y117.622 E11.66866
G1 X120.121 Y117.962 E11.71394
G1 X121.367 Y118.638 E11.75781
G1 X122.374 Y119.595 E11.80078
G1 X123.292 Y119.900 E11.83071
G1 X123.213 Y121.280 E11.87347
G1 X123.219 Y121.594 E11.88318
G1 X123.262 Y121.712 E11.88707
G1 X123.987 Y123.017 E11.93327
G1 X122.782 Y126.405 E12.04452
G1 X120.380 Y131.280 E12.21268
G1 X118.094 Y130.438 E12.28803
G1 X117.598 Y130.882 E12.30864
G1 X119.664 Y131.830 E12.37896
G1 X119.345 Y132.414 E12.39956
G1 X119.757 Y132.567 E12.41316
G1 X117.725 Y134.779 E12.50610
G1 X117.725 Y136.267 E12.55214
G1 X118.203 Y135.861 E12.57157
G1 X119.838 Y135.986 E12.62230
G1 X121.632 Y136.710 E12.68215
G1 X123.319 Y138.004 E12.74795
G1 X124.271 Y139.075 E12.79229
G1 X125.071 Y140.752 E12.84977
G1 X125.224 Y142.642 E12.90843
G1 X124.839 Y144.024 E12.95282
G1 X124.218 Y145.206 E12.99411
G1 X123.044 Y146.523 E13.04872
G1 X121.766 Y147.268 E13.09448
G1 X119.902 Y147.845 E13.15486
G1 X118.345 Y147.877 E13.20306
G1 X116.880 Y147.641 E13.24898
G1 X115.459 Y147.180 E13.29519
G1 X113.889 Y146.358 E13.35001
G1 X113.674 Y146.934 E13.36903
G1 X111.155 Y146.112 E13.45100
G1 X110.759 Y144.895 E13.49061
G1 X108.973 Y145.694 E13.55114
G1 X108.779 Y145.712 E13.55718
G1 X108.356 Y145.937 E13.57202
G1 X106.568 Y145.937 E13.62734
G1 X106.998 Y145.312 F7800.000
G1 X106.650 Y143.694 E13.67857 F1800.000
G1 X107.524 Y143.299 E13.70825
G1 X110.098 Y142.226 E13.79455
G1 X110.618 Y142.441 E13.81196
G1 X110.611 Y142.417 E13.81273
G1 X110.721 Y142.483 E13.81670
G1 X112.414 Y143.184 E13.87341
G1 X111.978 Y141.943 E13.91409
G1 X112.404 Y141.052 E13.94466
G1 X115.554 Y138.934 E14.06211
G1 X118.412 Y136.503 E14.17819
G1 X119.694 Y136.602 E14.21797
G1 X121.319 Y137.258 E14.27220
G1 X122.892 Y138.464 E14.33353
G1 X123.745 Y139.424 E14.37328
G1 X124.457 Y140.917 E14.42446
G1 X124.592 Y142.582 E14.47612
G1 X124.255 Y143.793 E14.51501
G1 X123.701 Y144.847 E14.55186
G1 X122.643 Y146.033 E14.60103
G1 X121.513 Y146.692 E14.64151
G1 X119.801 Y147.222 E14.69697
G1 X118.388 Y147.251 E14.74069
G1 X117.027 Y147.032 E14.78337
G1 X115.702 Y146.602 E14.82646
G1 X114.455 Y145.949 E14.87001
G1 X113.650 Y145.215 E14.90373
G1 X113.298 Y146.154 E14.93476
G1 X111.651 Y145.617 E14.98837
G1 X111.139 Y144.041 E15.03965
G1 X108.813 Y145.081 E15.11848
G1 X108.596 Y145.101 E15.12521
G1 X108.200 Y145.312 E15.13912
G1 X107.073 Y145.312 E15.17398
G1 X112.653 Y141.979 F7800.000
G1 X112.894 Y141.475 E15.19128 F1800.000
G1 X115.932 Y139.433 E15.30454
G1 X118.621 Y137.146 E15.41375
G1 X119.550 Y137.218 E15.44258
G1 X121.006 Y137.806 E15.49119
G1 X122.464 Y138.924 E15.54804
G1 X123.219 Y139.773 E15.58321
G1 X123.844 Y141.082 E15.62808
G1 X123.960 Y142.521 E15.67274
G1 X123.671 Y143.561 E15.70614
G1 X123.184 Y144.488 E15.73855
G1 X122.243 Y145.543 E15.78228
G1 X121.260 Y146.116 E15.81748
G1 X119.700 Y146.599 E15.86801
G1 X118.432 Y146.625 E15.90726
G1 X117.174 Y146.422 E15.94669
G1 X115.945 Y146.024 E15.98666
G1 X114.816 Y145.433 E16.02608
G1 X113.758 Y144.467 E16.07042
G1 X113.272 Y143.739 E16.09751
G1 X112.678 Y142.050 E16.15289
G1 X112.273 Y141.654 F7800.000
G1 X111.721 Y143.812 F7800.000
G1 X113.180 Y144.687 E16.20551 F1800.000
G1 X112.923 Y145.374 E16.22821
G1 X112.147 Y145.121 E16.25345
G1 X111.745 Y143.884 E16.29372
G1 X111.848 Y143.328 F7800.000
G1 X111.166 Y143.344 F7800.000
G1 X108.652 Y144.468 E16.37894 F1800.000
G1 X108.330 Y144.498 E16.38894
G1 X108.273 Y144.565 E16.39167
G1 X108.044 Y144.687 E16.39973
G1 X107.503 Y144.687 E16.41646
G1 X107.367 Y144.056 E16.43646
G1 X110.099 Y142.902 E16.52823
G1 X111.097 Y143.315 E16.56164
G1 X111.478 Y143.735 F7800.000
G1 X115.125 Y136.503 F7800.000
G1 X113.984 Y135.251 E16.61406 F1800.000
G1 X113.650 Y135.443 E16.62598
G1 X111.664 Y136.234 E16.69212
G1 X109.127 Y136.991 E16.77405
G1 X108.333 Y136.498 E16.80295
G1 X108.157 Y136.219 E16.81315
G1 X107.961 Y136.550 E16.82504
G1 X107.135 Y137.037 E16.85472
G1 X105.911 Y137.037 E16.89258
G1 X104.122 Y136.266 E16.95285
G1 X102.195 Y134.108 E17.04238
G1 X101.835 Y134.262 E17.05449
G1 X100.773 Y134.620 E17.08915
G1 X100.248 Y134.836 E17.10673
G1 X98.421 Y134.905 E17.16331
G1 X97.854 Y134.730 E17.18168
G1 X96.336 Y134.018 E17.23354
G1 X94.778 Y132.576 E17.29924
G1 X94.399 Y131.939 E17.32216
G1 X93.725 Y130.390 E17.37442
G1 X93.536 Y128.391 E17.43657
G1 X93.726 Y127.779 E17.45638
G1 X92.351 Y125.509 E17.53850
G1 X91.939 Y124.113 E17.58356
G1 X91.682 Y121.537 E17.66365
G1 X92.091 Y118.304 E17.76450
G1 X92.215 Y116.194 E17.82989
G1 X92.548 Y112.699 E17.93852
G1 X93.007 Y112.051 E17.96309
G1 X93.794 Y110.850 E18.00750
G1 X95.279 Y109.535 E18.06888
G1 X96.555 Y108.804 E18.11440
G1 X99.928 Y107.618 E18.22501
G1 X99.469 Y108.764 E18.26321
G1 X100.262 Y108.821 E18.28781
G1 X102.517 Y109.365 E18.35959
G1 X102.658 Y109.125 E18.36818
G1 X101.747 Y108.132 E18.40989
G1 X100.494 Y106.295 E18.47870
G1 X100.170 Y105.168 E18.51497
G1 X100.216 Y104.002 E18.55110
G1 X99.729 Y103.009 E18.58530
G1 X99.768 Y101.938 E18.61846
G1 X99.842 Y101.716 E18.62572
G1 X99.571 Y101.629 E18.63451
G1 X98.691 Y100.789 E18.67217
G1 X98.246 Y99.607 E18.71125
G1 X98.331 Y98.121 E18.75730
G1 X99.189 Y96.214 E18.82199
G1 X100.479 Y94.539 E18.88741
G1 X101.583 Y93.757 E18.92925
G1 X102.719 Y91.997 E18.99408
G1 X104.121 Y90.461 E19.05843
G1 X105.648 Y89.589 E19.11283
G1 X106.143 Y88.452 E19.15122
G1 X106.731 Y87.589 E19.18351
G1 X107.585 Y86.958 E19.21638
G1 X108.771 Y86.467 E19.25610
G1 X110.759 Y86.425 E19.31760
G1 X111.618 Y86.425 E19.34420
G1 X113.251 Y86.984 E19.39758
G1 X114.986 Y87.903 E19.45836
G1 X116.701 Y89.230 E19.52544
G1 X118.042 Y90.751 E19.58820
G1 X119.245 Y92.981 E19.66658
G1 X119.919 Y95.110 E19.73568
G1 X120.095 Y97.223 E19.80128
G1 X119.806 Y98.698 E19.84778
G1 X119.128 Y100.062 E19.89491
G1 X118.344 Y100.812 E19.92849
G1 X117.710 Y101.175 E19.95111
G1 X117.464 Y102.757 E20.00064
G1 X117.072 Y103.513 E20.02699
G1 X116.494 Y105.742 E20.09824
G1 X117.968 Y104.985 E20.14953
G1 X119.362 Y104.487 E20.19532
G1 X120.508 Y104.316 E20.23118
G1 X121.780 Y104.249 E20.27060
G1 X122.057 Y104.404 E20.28041
G1 X122.662 Y104.399 E20.29914
G1 X123.505 Y104.626 E20.32615
G1 X125.587 Y105.505 E20.39606
G1 X126.316 Y106.093 E20.42506
G1 X127.389 Y107.173 E20.47217
G1 X128.115 Y107.949 E20.50503
G1 X128.492 Y108.669 E20.53017
G1 X128.972 Y110.372 E20.58492
G1 X129.016 Y112.137 E20.63956
G1 X128.759 Y113.079 E20.66975
G1 X128.143 Y114.174 E20.70863
G1 X127.189 Y115.056 E20.74883
G1 X125.598 Y115.840 E20.80371
G1 X124.145 Y115.986 E20.84887
G1 X122.650 Y115.646 E20.89634
G1 X121.662 Y114.961 E20.93354
G1 X120.594 Y113.468 E20.99032
G1 X121.070 Y112.106 E21.03498
G1 X122.427 Y112.296 E21.07737
G1 X122.643 Y111.653 E21.09834
G1 X122.226 Y111.580 E21.11144
G1 X120.688 Y110.364 E21.17210
G1 X120.380 Y110.247 E21.18229
G1 X120.086 Y110.531 E21.19493
G1 X119.505 Y112.747 E21.26582
G1 X118.994 Y112.195 E21.28908
G1 X118.742 Y112.321 E21.29778
G1 X118.849 Y112.907 E21.31619
G1 X117.568 Y112.948 E21.35583
G1 X117.421 Y113.030 E21.36105
G1 X117.324 Y113.344 E21.37120
G1 X117.337 Y113.714 E21.38265
G1 X117.931 Y115.139 E21.43043
G1 X117.620 Y116.025 E21.45948
G1 X117.630 Y117.096 E21.49265
G1 X117.851 Y117.719 E21.51308
G1 X118.130 Y118.041 E21.52629
G1 X118.486 Y118.214 E21.53853
G1 X119.895 Y118.550 E21.58336
G1 X120.997 Y119.148 E21.62213
G1 X122.045 Y120.143 E21.66686
G1 X122.641 Y120.342 E21.68629
G1 X122.588 Y121.268 E21.71499
G1 X122.596 Y121.709 E21.72862
G1 X122.691 Y121.971 E21.73725
G1 X123.304 Y123.074 E21.77629
G1 X122.206 Y126.161 E21.87768
G1 X120.068 Y130.499 E22.02731
