;FLAVOR:UltiGCode
;TIME:6666
;MATERIAL:6666
;MATERIAL2:0
;NOZZLE_DIAMETER:0.4

;Generated with Cura_SteamEngine master
G28 ;Home
G1 Z15.0 F6000 ;Move the platform down 15mm
;Prime the extruder
G92 E0
G1 F200 E3
G92 E0
;LAYER_COUNT:18
;LAYER:0
M107
G0 F3600 X4.922 Y-1.094 Z0.3
G0 X5.826 Y1.121
;TYPE:SKIRT
G1 F1800 X5.648 Y0.789 E0.0452
G1 X5.459 Y0.355 E0.10201
G1 X5.178 Y-.347 E0.19275
G1 X4.922 Y-1.094 E0.2875
G1 X4.711 Y-2.054 E0.40545
G1 X4.606 Y-2.733 E0.4879
G1 X4.525 Y-3.518 E0.5826
G1 X4.524 Y-3.742 E0.60948
G1 X4.397 Y-3.899 E0.63372
G1 X3.793 Y-4.87 E0.77094
G1 X3.219 Y-5.964 E0.91919
G1 X2.888 Y-6.681 E1.01396
G1 X2.631 Y-7.428 E1.10875
G1 X2.391 Y-8.585 E1.25055
G1 X2.272 Y-9.503 E1.36163
G1 X2.21 Y-10.291 E1.45648
G1 X2.228 Y-11.08 E1.55119
G1 X2.357 Y-12.028 E1.666
G1 X2.438 Y-12.435 E1.7158
G1 X2.631 Y-13.201 E1.81059
G1 X2.901 Y-13.943 E1.90534
G1 X3.244 Y-14.655 E2.00018
G1 X3.753 Y-15.463 E2.11477
G1 X4.12 Y-15.974 E2.19027
G1 X4.612 Y-16.591 E2.28497
G1 X5.165 Y-17.156 E2.37984
G1 X5.771 Y-17.661 E2.4745
G1 X6.426 Y-18.103 E2.56932
G1 X6.806 Y-18.318 E2.62171
G1 X7.541 Y-18.707 E2.7215
G1 X8.257 Y-19.041 E2.81631
G1 X9.342 Y-19.391 E2.95312
G1 X9.826 Y-19.509 E3.0129
G1 X10.602 Y-19.657 E3.1077
G1 X11.706 Y-19.731 E3.24047
G1 X13.188 Y-19.725 E3.41832
G1 X13.353 Y-19.716 E3.43815
G1 X13.578 Y-19.745 E3.46537
G1 X14.705 Y-19.752 E3.60061
G1 X16.207 Y-19.652 E3.78125
G1 X16.991 Y-19.559 E3.87599
G1 X18.097 Y-19.288 E4.01264
G1 X19.428 Y-18.856 E4.18056
G1 X20.166 Y-18.575 E4.27532
G1 X20.72 Y-18.303 E4.34938
G1 X21.109 Y-18.093 E4.40243
G1 X21.6 Y-18.369 E4.47002
G1 X23.021 Y-19.057 E4.65947
G1 X23.748 Y-19.365 E4.75422
G1 X24.503 Y-19.598 E4.84904
G1 X25.277 Y-19.753 E4.94376
G1 X25.866 Y-19.817 E5.01486
G1 X26.133 Y-19.836 E5.04698
G1 X26.923 Y-19.852 E5.1418
G1 X27.71 Y-19.789 E5.23654
G1 X28.487 Y-19.646 E5.33135
G1 X29.245 Y-19.425 E5.42609
G1 X29.977 Y-19.128 E5.52089
G1 X30.023 Y-19.104 E5.52711
G1 X30.077 Y-19.116 E5.53375
G1 X30.861 Y-19.216 E5.62859
G1 X31.672 Y-19.235 E5.72594
G1 X35.853 Y-19.116 E6.22786
G1 X36.64 Y-19.053 E6.32261
G1 X37.417 Y-18.912 E6.41737
G1 X37.691 Y-18.833 E6.45159
G1 X38.209 Y-19.068 E6.51985
G1 X38.957 Y-19.32 E6.61456
G1 X39.99 Y-19.536 E6.7412
G1 X40.985 Y-19.675 E6.86176
G1 X41.945 Y-19.749 E6.97731
G1 X42.799 Y-19.762 E7.0798
G1 X43.319 Y-19.744 E7.14223
G1 X43.346 Y-19.747 E7.14549
G1 X44.427 Y-19.754 E7.27522
G1 X45.922 Y-19.66 E7.45497
G1 X46.707 Y-19.57 E7.54979
G1 X47.195 Y-19.473 E7.60949
G1 X47.842 Y-19.323 E7.68919
G1 X48.17 Y-19.229 E7.73014
G1 X48.29 Y-19.281 E7.74583
G1 X49.044 Y-19.518 E7.84068
G1 X49.817 Y-19.678 E7.9354
G1 X50.602 Y-19.758 E8.03009
G1 X51.007 Y-19.769 E8.07871
G1 X51.161 Y-19.769 E8.09719
G1 X51.95 Y-19.729 E8.19199
G1 X52.73 Y-19.61 E8.28667
G1 X53.495 Y-19.412 E8.3815
G1 X54.235 Y-19.138 E8.47619
G1 X54.944 Y-18.79 E8.57097
G1 X55.615 Y-18.372 E8.66583
G1 X56.239 Y-17.889 E8.76052
G1 X56.812 Y-17.346 E8.85525
G1 X57.327 Y-16.747 E8.95005
G1 X57.555 Y-16.42 E8.99788
G1 X57.772 Y-16.727 E9.043
G1 X58.26 Y-17.348 E9.13777
G1 X58.809 Y-17.916 E9.23257
G1 X59.412 Y-18.425 E9.32726
G1 X60.064 Y-18.871 E9.42205
G1 X60.757 Y-19.249 E9.51678
G1 X61.486 Y-19.555 E9.61166
G1 X62.241 Y-19.785 E9.70637
G1 X63.016 Y-19.938 E9.80116
G1 X64.137 Y-20.019 E9.93603
G1 X64.343 Y-20.019 E9.96075
G1 X65.132 Y-19.979 E10.05555
G1 X65.912 Y-19.86 E10.15024
G1 X66.677 Y-19.662 E10.24506
G1 X67.417 Y-19.388 E10.33975
G1 X68.126 Y-19.04 E10.43453
G1 X68.797 Y-18.622 E10.52939
G1 X69.421 Y-18.139 E10.62409
G1 X69.994 Y-17.596 E10.71882
G1 X70.015 Y-17.571 E10.72273
G1 X70.596 Y-18.008 E10.80997
G1 X71.165 Y-18.358 E10.89014
G1 X71.87 Y-18.751 E10.98699
G1 X72.578 Y-19.1 E11.08172
G1 X73.318 Y-19.376 E11.17649
G1 X74.083 Y-19.575 E11.27135
G1 X75.096 Y-19.717 E11.39409
G1 X76.103 Y-19.791 E11.51526
G1 X76.893 Y-19.809 E11.61008
G1 X77.68 Y-19.747 E11.70482
G1 X78.457 Y-19.606 E11.79958
G1 X79.216 Y-19.387 E11.89438
G1 X79.948 Y-19.092 E11.98908
G1 X80.647 Y-18.725 E12.08382
G1 X81.306 Y-18.289 E12.17864
G1 X81.917 Y-17.788 E12.27346
G1 X82.474 Y-17.229 E12.36815
G1 X82.972 Y-16.616 E12.46293
G1 X83.405 Y-15.955 E12.55775
G1 X83.769 Y-15.255 E12.65243
G1 X84.061 Y-14.521 E12.74722
G1 X84.276 Y-13.761 E12.842
G1 X84.294 Y-13.662 E12.85408
G1 X84.587 Y-13.476 E12.89572
G1 X85.208 Y-12.988 E12.9905
G1 X85.777 Y-12.44 E13.0853
G1 X86.287 Y-11.837 E13.18007
G1 X86.671 Y-11.288 E13.26046
G1 X86.833 Y-11.033 E13.29672
G1 X87.222 Y-10.345 E13.39156
G1 X87.54 Y-9.623 E13.48623
G1 X87.783 Y-8.871 E13.58107
G1 X87.948 Y-8.099 E13.6758
G1 X88.035 Y-7.314 E13.77057
G1 X88.042 Y-6.525 E13.86526
G1 X87.969 Y-5.738 E13.9601
G1 X87.894 Y-5.354 E14.00705
G1 X87.905 Y-5.221 E14.02307
G1 X87.942 Y-4.594 E14.09844
G1 X87.949 Y-3.805 E14.19312
G1 X87.876 Y-3.019 E14.28785
G1 X87.741 Y-2.314 E14.37399
G1 X87.554 Y-1.535 E14.47012
G1 X87.331 Y-.778 E14.56482
G1 X87.032 Y-0.047 E14.6596
G1 X86.661 Y0.651 E14.75445
G1 X86.222 Y1.307 E14.84917
G1 X85.484 Y2.159 E14.98444
G1 X84.785 Y2.858 E15.10306
G1 X84.199 Y3.388 E15.19787
G1 X83.563 Y3.855 E15.29256
G1 X82.883 Y4.256 E15.38729
G1 X82.165 Y4.586 E15.48212
G1 X81.418 Y4.841 E15.57683
G1 X80.77 Y4.997 E15.65682
G1 X80.03 Y5.142 E15.7473
G1 X79.248 Y5.255 E15.84212
G1 X78.459 Y5.288 E15.93688
G1 X77.671 Y5.241 E16.03161
G1 X77.238 Y5.171 E16.08424
G1 X76.923 Y5.212 E16.12236
G1 X76.382 Y5.237 E16.18735
G1 X74.569 Y5.256 E16.40493
G1 X73.78 Y5.224 E16.49968
G1 X73.48 Y5.181 E16.53605
G1 X73.431 Y5.186 E16.54196
G1 X71.732 Y5.261 E16.74604
G1 X70.942 Y5.256 E16.84084
G1 X70.157 Y5.171 E16.93559
G1 X69.714 Y5.077 E16.98994
G1 X69.625 Y5.096 E17.00086
G1 X68.845 Y5.222 E17.09567
G1 X67.951 Y5.269 E17.2031
G1 X60.552 Y5.23 E18.09099
G1 X59.763 Y5.186 E18.18582
G1 X59.028 Y5.069 E18.27513
G1 X58.631 Y5.146 E18.32366
G1 X57.849 Y5.257 E18.41844
G1 X57.06 Y5.287 E18.51318
G1 X56.272 Y5.239 E18.60792
G1 X56.227 Y5.232 E18.61339
G1 X55.989 Y5.263 E18.64219
G1 X55.333 Y5.288 E18.72096
G1 X50.414 Y5.269 E19.31125
G1 X49.625 Y5.226 E19.40607
G1 X48.845 Y5.103 E19.50083
G1 X48.082 Y4.903 E19.59548
G1 X47.342 Y4.626 E19.6903
G1 X46.73 Y4.322 E19.7723
G1 X46.633 Y4.382 E19.78598
G1 X45.665 Y4.829 E19.91393
G1 X45.453 Y4.91 E19.94116
G1 X44.702 Y5.154 E20.03592
G1 X43.93 Y5.321 E20.1307
G1 X43.145 Y5.409 E20.22549
G1 X42.356 Y5.418 E20.32018
G1 X41.569 Y5.346 E20.41501
G1 X40.794 Y5.195 E20.50976
G1 X40.038 Y4.967 E20.60452
G1 X39.309 Y4.663 E20.6993
G1 X38.615 Y4.288 E20.79396
G1 X37.962 Y3.843 E20.88879
G1 X37.079 Y3.064 E21.03009
G1 X36.934 Y2.915 E21.05504
G1 X36.603 Y2.538 E21.11524
G1 X36.407 Y2.728 E21.148
G1 X35.812 Y3.247 E21.24274
G1 X35.168 Y3.704 E21.3375
G1 X34.646 Y4.007 E21.40993
G1 X34.115 Y4.289 E21.48208
G1 X33.4 Y4.623 E21.57678
G1 X32.655 Y4.884 E21.67151
G1 X31.887 Y5.068 E21.76628
G1 X31.104 Y5.173 E21.86108
G1 X30.315 Y5.199 E21.95581
G1 X29.527 Y5.144 E22.0506
G1 X28.749 Y5.011 E22.14531
G1 X28.376 Y4.903 E22.19191
G1 X28.369 Y4.906 E22.19282
G1 X27.602 Y5.091 E22.2875
G1 X26.819 Y5.197 E22.38232
G1 X26.216 Y5.225 E22.45476
G1 X22.684 Y5.249 E22.87861
G1 X23.475 Y6.037 E23.01259
G1 X24.97 Y7.253 E23.24384
G1 X26.872 Y8.532 E23.51889
G1 X28.202 Y9.279 E23.70194
G1 X30.023 Y10.106 E23.94194
G1 X31.951 Y10.769 E24.18659
G1 X33.243 Y11.097 E24.34655
G1 X35.998 Y11.531 E24.68123
G1 X38.598 Y11.659 E24.99361
G1 X40.937 Y11.536 E25.27467
G1 X42.797 Y11.319 E25.49939
G1 X43.304 Y11.128 E25.5644
G1 X44.068 Y10.926 E25.65923
G1 X44.848 Y10.802 E25.75401
G1 X46 Y10.764 E25.89232
G1 X48.886 Y10.882 E26.23893
G1 X50.917 Y10.812 E26.4828
G1 X52.762 Y10.569 E26.70611
G1 X60.648 Y8.662 E27.67971
G1 X60.966 Y8.593 E27.71875
G1 X64.097 Y7.973 E28.10177
G1 X64.458 Y7.91 E28.14574
G1 X66.21 Y7.648 E28.35832
G1 X66.996 Y7.571 E28.45309
G1 X67.476 Y7.563 E28.5107
G1 X73.161 Y7.645 E29.19297
G1 X73.889 Y7.689 E29.28049
G1 X77.12 Y8.039 E29.67048
G1 X77.799 Y8.143 E29.75291
G1 X79.945 Y8.569 E30.01546
G1 X80.577 Y8.722 E30.09349
G1 X83.296 Y9.502 E30.43293
G1 X84.279 Y9.857 E30.55834
G1 X86.727 Y10.931 E30.87913
G1 X87.601 Y11.383 E30.99721
G1 X89.419 Y12.472 E31.25151
G1 X90.264 Y13.057 E31.37484
G1 X91.916 Y14.37 E31.62807
G1 X92.667 Y15.05 E31.74964
G1 X94.009 Y16.436 E31.98115
G1 X94.624 Y17.153 E32.0945
G1 X96.47 Y19.591 E32.46147
G1 X96.914 Y20.244 E32.55623
G1 X97.29 Y20.939 E32.65105
G1 X97.593 Y21.668 E32.74578
G1 X97.822 Y22.424 E32.84058
G1 X97.973 Y23.199 E32.93532
G1 X98.045 Y23.985 E33.03004
G1 X98.037 Y24.775 E33.12484
G1 X97.949 Y25.56 E33.21963
G1 X97.782 Y26.331 E33.3143
G1 X97.538 Y27.083 E33.40917
G1 X97.219 Y27.805 E33.50389
G1 X96.829 Y28.492 E33.59869
G1 X96.371 Y29.135 E33.69342
G1 X95.851 Y29.729 E33.78816
G1 X95.274 Y30.268 E33.88291
G1 X94.644 Y30.745 E33.97773
G1 X93.97 Y31.156 E34.07246
G1 X93.258 Y31.497 E34.1672
G1 X92.515 Y31.764 E34.26194
G1 X91.748 Y31.955 E34.35679
G1 X90.967 Y32.067 E34.45147
G1 X90.178 Y32.1 E34.54623
G1 X89.536 Y32.067 E34.62337
G1 X86.117 Y31.752 E35.03539
G1 X83.107 Y31.674 E35.39671
G1 X81.349 Y31.773 E35.60801
G1 X79.7 Y32.027 E35.80822
G1 X78.863 Y32.239 E35.91183
G1 X77.867 Y32.563 E36.03752
G1 X76.618 Y33.132 E36.20222
G1 X75.189 Y34.016 E36.40385
G1 X74.207 Y34.812 E36.55555
G1 X72.377 Y36.658 E36.86747
G1 X70.355 Y39.218 E37.25893
G1 X68.678 Y41.72 E37.62038
G1 X66.674 Y44.921 E38.07357
G1 X66.221 Y45.568 E38.16834
G1 X65.932 Y45.903 E38.22144
G1 X63.999 Y50.858 E38.85968
G1 X61.867 Y56.943 E39.6334
G1 X61.081 Y59.418 E39.94502
G1 X59.869 Y63.675 E40.47616
G1 X59.01 Y67.32 E40.92554
G1 X57.953 Y72.656 E41.5783
G1 X57.43 Y75.695 E41.94834
G1 X56.479 Y82.166 E42.73321
G1 X55.184 Y92.651 E44.00097
G1 X53.566 Y107.371 E45.778
G1 X53.553 Y107.481 E45.7913
G1 X52.809 Y113.467 E46.51514
G1 X52.672 Y114.245 E46.60994
G1 X52.458 Y115.005 E46.70469
G1 X52.167 Y115.739 E46.79944
G1 X51.804 Y116.44 E46.89417
G1 X51.371 Y117.101 E46.98899
G1 X50.874 Y117.715 E47.08378
G1 X50.318 Y118.275 E47.17848
G1 X49.707 Y118.776 E47.2733
G1 X49.05 Y119.213 E47.36798
G1 X48.351 Y119.581 E47.46278
G1 X47.619 Y119.876 E47.55748
G1 X46.86 Y120.097 E47.65234
G1 X46.084 Y120.239 E47.74701
G1 X45.296 Y120.302 E47.84187
G1 X44.507 Y120.285 E47.93657
G1 X43.723 Y120.188 E48.03137
G1 X42.953 Y120.013 E48.12613
G1 X42.205 Y119.76 E48.22088
G1 X41.486 Y119.433 E48.31567
G1 X40.804 Y119.036 E48.41036
G1 X40.165 Y118.571 E48.5052
G1 X39.577 Y118.044 E48.59995
G1 X39.045 Y117.46 E48.69475
G1 X38.575 Y116.826 E48.78945
G1 X38.172 Y116.147 E48.8842
G1 X37.839 Y115.431 E48.97896
G1 X37.58 Y114.685 E49.07372
G1 X37.398 Y113.916 E49.16855
G1 X37.314 Y113.337 E49.23876
G1 X35.252 Y94.113 E51.55887
G1 X34.173 Y85.279 E52.62683
G1 X33.059 Y77.123 E53.61464
G1 X31.205 Y65.104 E55.07398
G1 X30.128 Y58.974 E55.82084
G1 X29.725 Y57.181 E56.04137
G1 X29.393 Y56.019 E56.18639
G1 X28.446 Y53.325 E56.52906
G1 X27.023 Y50.03 E56.95976
G1 X24.722 Y45.828 E57.53465
G1 X24.378 Y45.117 E57.62943
G1 X24.253 Y44.774 E57.67324
G1 X23.885 Y44.394 E57.73672
G1 X15.434 Y36.471 E59.12682
G1 X15.094 Y36.132 E59.18444
G1 X11.074 Y31.869 E59.88758
G1 X10.59 Y31.305 E59.97676
G1 X7.865 Y27.799 E60.50961
G1 X7.252 Y26.882 E60.64198
G1 X5.917 Y24.546 E60.96484
G1 X5.56 Y23.842 E61.05957
G1 X5.365 Y23.36 E61.12196
G1 X4.432 Y20.814 E61.44735
G1 X4.154 Y19.876 E61.56475
G1 X3.691 Y17.86 E61.81297
G1 X3.541 Y16.98 E61.92009
G1 X3.342 Y15.198 E62.13526
G1 X3.295 Y14.195 E62.25575
G1 X3.357 Y10.664 E62.67954
G1 X3.453 Y9.577 E62.81048
G1 X3.928 Y6.587 E63.17378
G1 X4.16 Y5.569 E63.29908
G1 X4.797 Y3.446 E63.56506
G1 X5.182 Y2.428 E63.69566
G1 X5.47 Y1.802 E63.77835
G1 X5.826 Y1.121 E63.87056
G0 F3600 X6.289 Y1.141
G1 F1800 X5.984 Y0.564 E63.94888
G1 X5.83 Y0.206 E63.99565
G1 X5.549 Y-.496 E64.08638
G1 X5.301 Y-1.224 E64.17867
G1 X5.106 Y-2.115 E64.28812
G1 X5.001 Y-2.794 E64.37057
G1 X4.923 Y-3.559 E64.46285
G1 X4.924 Y-3.884 E64.50185
G1 X4.685 Y-4.183 E64.54778
G1 X4.147 Y-5.056 E64.67084
G1 X3.573 Y-6.15 E64.81909
G1 X3.252 Y-6.849 E64.91139
G1 X3.005 Y-7.577 E65.00364
G1 X2.787 Y-8.637 E65.13351
G1 X2.668 Y-9.555 E65.24459
G1 X2.609 Y-10.322 E65.3369
G1 X2.63 Y-11.09 E65.42909
G1 X2.749 Y-11.95 E65.53328
G1 X2.83 Y-12.357 E65.58308
G1 X3.019 Y-13.103 E65.67542
G1 X3.285 Y-13.825 E65.76776
G1 X3.624 Y-14.515 E65.86001
G1 X4.078 Y-15.23 E65.96165
G1 X4.445 Y-15.741 E66.03714
G1 X4.925 Y-16.341 E66.12935
G1 X5.465 Y-16.889 E66.22167
G1 X6.06 Y-17.377 E66.31401
G1 X6.993 Y-17.964 E66.44629
G1 X7.728 Y-18.353 E66.54608
G1 X8.426 Y-18.677 E66.63842
G1 X9.437 Y-19.002 E66.76586
G1 X9.921 Y-19.12 E66.82564
G1 X10.677 Y-19.264 E66.91799
G1 X11.704 Y-19.331 E67.04149
G1 X13.186 Y-19.325 E67.21933
G1 X13.372 Y-19.315 E67.24169
G1 X13.869 Y-19.362 E67.30159
G1 X14.679 Y-19.353 E67.3988
G1 X16.181 Y-19.253 E67.57944
G1 X16.944 Y-19.162 E67.67165
G1 X17.973 Y-18.908 E67.79883
G1 X19.304 Y-18.476 E67.96675
G1 X20.023 Y-18.2 E68.05917
G1 X20.531 Y-17.951 E68.12706
G1 X21.11 Y-17.639 E68.20599
G1 X21.774 Y-18.009 E68.2972
G1 X23.195 Y-18.697 E68.48666
G1 X23.904 Y-18.996 E68.57899
G1 X24.64 Y-19.22 E68.67131
G1 X25.395 Y-19.366 E68.76359
G1 X25.895 Y-19.418 E68.82392
G1 X26.162 Y-19.437 E68.85604
G1 X26.931 Y-19.452 E68.94833
G1 X27.697 Y-19.387 E69.04058
G1 X28.453 Y-19.242 E69.13296
G1 X29.189 Y-19.02 E69.22521
G1 X29.898 Y-18.723 E69.31745
G1 X29.977 Y-18.68 E69.32824
G1 X30.365 Y-18.758 E69.37574
G1 X31.13 Y-18.831 E69.46795
G1 X31.661 Y-18.835 E69.53167
G1 X35.842 Y-18.716 E70.0336
G1 X36.608 Y-18.654 E70.12582
G1 X37.364 Y-18.513 E70.2181
G1 X37.72 Y-18.407 E70.26268
G1 X38.374 Y-18.703 E70.34882
G1 X39.104 Y-18.945 E70.44111
G1 X40.045 Y-19.14 E70.55643
G1 X41.04 Y-19.279 E70.67699
G1 X41.951 Y-19.349 E70.78663
G1 X42.805 Y-19.362 E70.88912
G1 X43.403 Y-19.34 E70.96093
G1 X43.696 Y-19.365 E70.99622
G1 X44.402 Y-19.354 E71.08095
G1 X45.897 Y-19.26 E71.2607
G1 X46.661 Y-19.172 E71.35299
G1 X47.104 Y-19.084 E71.40719
G1 X47.751 Y-18.934 E71.48689
G1 X48.199 Y-18.805 E71.54283
G1 X48.618 Y-18.973 E71.597
G1 X49.358 Y-19.183 E71.68931
G1 X50.116 Y-19.315 E71.78164
G1 X51.007 Y-19.369 E71.88875
G1 X51.161 Y-19.369 E71.90723
G1 X51.929 Y-19.329 E71.99952
G1 X52.689 Y-19.21 E72.09183
G1 X53.432 Y-19.012 E72.1841
G1 X54.151 Y-18.738 E72.27643
G1 X54.837 Y-18.391 E72.36869
G1 X55.484 Y-17.975 E72.46099
G1 X56.084 Y-17.494 E72.55327
G1 X56.631 Y-16.953 E72.64559
G1 X57.119 Y-16.358 E72.73793
G1 X57.536 Y-15.702 E72.83121
G1 X58.098 Y-16.496 E72.94794
G1 X58.575 Y-17.1 E73.0403
G1 X59.111 Y-17.651 E73.13254
G1 X59.702 Y-18.143 E73.22482
G1 X60.341 Y-18.571 E73.31711
G1 X61.021 Y-18.931 E73.40944
G1 X61.735 Y-19.218 E73.50179
G1 X62.474 Y-19.43 E73.59404
G1 X63.232 Y-19.563 E73.68639
G1 X64.137 Y-19.619 E73.7952
G1 X64.343 Y-19.619 E73.81992
G1 X65.111 Y-19.579 E73.91221
G1 X65.871 Y-19.46 E74.00452
G1 X66.614 Y-19.262 E74.09679
G1 X67.333 Y-18.988 E74.18912
G1 X68.019 Y-18.641 E74.28137
G1 X68.666 Y-18.225 E74.37368
G1 X69.266 Y-17.744 E74.46596
G1 X69.813 Y-17.203 E74.55828
G1 X69.968 Y-17.014 E74.58761
G1 X70.221 Y-17.226 E74.62722
G1 X70.837 Y-17.688 E74.71962
G1 X71.36 Y-18.009 E74.79326
G1 X72.065 Y-18.402 E74.89012
G1 X72.755 Y-18.741 E74.98237
G1 X73.477 Y-19.006 E75.07466
G1 X74.223 Y-19.195 E75.16701
G1 X75.126 Y-19.318 E75.27637
G1 X76.133 Y-19.392 E75.39754
G1 X76.902 Y-19.409 E75.48984
G1 X77.668 Y-19.345 E75.58208
G1 X78.424 Y-19.202 E75.67441
G1 X79.161 Y-18.982 E75.7667
G1 X79.871 Y-18.686 E75.85901
G1 X80.546 Y-18.318 E75.95127
G1 X81.18 Y-17.883 E76.04353
G1 X81.765 Y-17.383 E76.13588
G1 X82.295 Y-16.826 E76.22814
G1 X82.765 Y-16.216 E76.32055
G1 X83.168 Y-15.562 E76.41273
G1 X83.501 Y-14.869 E76.505
G1 X83.761 Y-14.145 E76.59731
G1 X83.939 Y-13.418 E76.68713
G1 X84.486 Y-13.055 E76.76591
G1 X85.08 Y-12.567 E76.85816
G1 X85.62 Y-12.019 E76.95048
G1 X86.1 Y-11.418 E77.04278
G1 X86.333 Y-11.073 E77.09273
G1 X86.495 Y-10.818 E77.12899
G1 X86.873 Y-10.148 E77.2213
G1 X87.18 Y-9.443 E77.31357
G1 X87.412 Y-8.71 E77.40583
G1 X87.566 Y-7.956 E77.49818
G1 X87.641 Y-7.191 E77.59042
G1 X87.637 Y-6.421 E77.68282
G1 X87.552 Y-5.657 E77.77507
