;FLAVOR:UltiGCode
;TIME:6666
;MATERIAL:6666
;MATERIAL2:0
;NOZZLE_DIAMETER:0.4

;Generated with Cura_SteamEngine master
G28 ;Home
G1 Z15.0 F6000 ;Move the platform down 15mm
;Prime the extruder
G92 E0
G1 F200 E3
G92 E0
;LAYER_COUNT:28
;LAYER:0
M107
G0 F3600 X-1.979 Y-4.908 Z0.3
G0 X-1.012 Y-5.455
;TYPE:SKIRT
G1 F1800 X0.369 Y-6.377 E0.19926
G1 X1.235 Y-6.878 E0.31932
G1 X2.09 Y-7.302 E0.43384
G1 X3.317 Y-8.038 E0.60554
G1 X3.839 Y-8.325 E0.67702
G1 X7.479 Y-10.146 E1.16543
G1 X7.491 Y-10.154 E1.16716
G1 X8.166 Y-10.564 E1.26193
G1 X8.879 Y-10.903 E1.35667
G1 X9.622 Y-11.169 E1.45137
G1 X9.825 Y-11.219 E1.47646
G1 X10.495 Y-11.461 E1.56195
G1 X10.818 Y-11.542 E1.60191
G1 X11.23 Y-11.702 E1.65494
G1 X11.991 Y-11.913 E1.74971
G1 X12.769 Y-12.046 E1.84442
G1 X13.689 Y-12.1 E1.95501
G1 X14.52 Y-12.1 E2.05473
G1 X15.309 Y-12.06 E2.14953
G1 X16.089 Y-11.941 E2.24422
G1 X16.854 Y-11.743 E2.33904
G1 X17.594 Y-11.469 E2.43373
G1 X18.303 Y-11.121 E2.52851
G1 X18.974 Y-10.703 E2.62338
G1 X19.598 Y-10.22 E2.71807
G1 X20.171 Y-9.677 E2.8128
G1 X20.516 Y-9.276 E2.87628
G1 X20.939 Y-9.068 E2.93284
G1 X22.017 Y-8.469 E3.08083
G1 X22.687 Y-8.051 E3.17559
G1 X23.556 Y-7.347 E3.3098
G1 X25.878 Y-5.175 E3.69134
G1 X26.427 Y-4.607 E3.78613
G1 X26.915 Y-3.987 E3.88082
G1 X27.339 Y-3.32 E3.97566
G1 X27.692 Y-2.614 E4.07038
G1 X27.911 Y-2.038 E4.14433
G1 X28.245 Y-1.371 E4.23384
G1 X28.596 Y-2.025 E4.32291
G1 X28.637 Y-2.091 E4.33223
G1 X28.707 Y-2.363 E4.36594
G1 X28.981 Y-3.103 E4.46063
G1 X29.329 Y-3.812 E4.5554
G1 X29.696 Y-4.409 E4.6395
G1 X29.781 Y-4.535 E4.65774
G1 X29.789 Y-4.549 E4.65967
G1 X29.907 Y-5.004 E4.71608
G1 X30.181 Y-5.744 E4.81077
G1 X30.529 Y-6.453 E4.90555
G1 X30.947 Y-7.124 E5.00041
G1 X31.205 Y-7.474 E5.05259
G1 X31.287 Y-7.578 E5.06848
G1 X31.512 Y-8.033 E5.12939
G1 X31.898 Y-8.722 E5.22416
G1 X32.141 Y-9.086 E5.27668
G1 X33.544 Y-11.062 E5.56749
G1 X36.65 Y-15.865 E6.25387
G1 X36.813 Y-16.107 E6.28888
G1 X40.291 Y-21.069 E7.01603
G1 X40.402 Y-21.523 E7.07211
G1 X40.44 Y-22.268 E7.16163
G1 X40.527 Y-22.836 E7.23058
G1 X40.476 Y-22.969 E7.24767
G1 X40.354 Y-23.427 E7.30455
G1 X40.117 Y-24.155 E7.39642
G1 X39.951 Y-24.927 E7.49118
G1 X39.904 Y-25.355 E7.54285
G1 X39.889 Y-25.395 E7.54798
G1 X39.697 Y-26.161 E7.64274
G1 X39.584 Y-26.943 E7.73755
G1 X39.55 Y-27.67 E7.82489
G1 X39.55 Y-32.43 E8.39609
G1 X39.59 Y-33.219 E8.49089
G1 X39.709 Y-33.999 E8.58557
G1 X39.907 Y-34.764 E8.6804
G1 X39.983 Y-34.97 E8.70675
G1 X40.009 Y-35.139 E8.72727
G1 X40.207 Y-35.904 E8.82209
G1 X40.33 Y-36.237 E8.86469
G1 X40.376 Y-36.446 E8.89037
G1 X40.623 Y-37.196 E8.98513
G1 X41.082 Y-38.177 E9.11509
G1 X41.682 Y-39.257 E9.26335
G1 X41.998 Y-39.778 E9.33647
G1 X43.199 Y-41.59 E9.59734
G1 X43.755 Y-42.33 E9.70841
G1 X44.543 Y-43.258 E9.8545
G1 X45.084 Y-43.833 E9.94924
G1 X45.641 Y-44.319 E10.03795
G1 X47.771 Y-46.009 E10.36423
G1 X48.414 Y-46.468 E10.45903
G1 X48.991 Y-46.789 E10.53826
G1 X49.085 Y-46.863 E10.55262
G1 X49.728 Y-47.322 E10.64742
G1 X50.414 Y-47.713 E10.74218
G1 X51.136 Y-48.033 E10.83694
G1 X51.887 Y-48.278 E10.93174
G1 X51.919 Y-48.285 E10.93567
G1 X52.545 Y-48.511 E11.01553
G1 X52.772 Y-48.568 E11.04362
G1 X53.445 Y-48.811 E11.12948
G1 X54.211 Y-49.003 E11.22425
G1 X54.375 Y-49.027 E11.24414
G1 X54.44 Y-49.052 E11.25249
G1 X55.201 Y-49.263 E11.34726
G1 X55.979 Y-49.396 E11.44197
G1 X56.899 Y-49.45 E11.55256
G1 X60.13 Y-49.45 E11.94028
G1 X60.919 Y-49.41 E12.03508
G1 X61.699 Y-49.291 E12.12977
G1 X62.427 Y-49.102 E12.22002
G1 X63.158 Y-48.991 E12.30875
G1 X63.923 Y-48.793 E12.40357
G1 X64.579 Y-48.55 E12.48752
G1 X65.129 Y-48.55 E12.55352
G1 X65.918 Y-48.51 E12.64832
G1 X66.698 Y-48.391 E12.74301
G1 X67.463 Y-48.193 E12.83783
G1 X68.203 Y-47.919 E12.93252
G1 X68.912 Y-47.571 E13.0273
G1 X69.338 Y-47.308 E13.08738
G1 X70.039 Y-46.952 E13.18172
G1 X70.702 Y-46.524 E13.27642
G1 X71.297 Y-46.051 E13.36763
G1 X72.447 Y-45.041 E13.5513
G1 X73.013 Y-44.49 E13.64609
G1 X73.521 Y-43.885 E13.74089
G1 X73.965 Y-43.232 E13.83564
G1 X73.982 Y-43.201 E13.83989
G1 X74.217 Y-42.943 E13.88177
G1 X74.688 Y-42.309 E13.97654
G1 X75.093 Y-41.631 E14.07131
G1 X75.25 Y-41.294 E14.11593
G1 X75.349 Y-41.157 E14.13621
G1 X75.775 Y-40.411 E14.2393
G1 X76.694 Y-38.574 E14.48578
G1 X76.704 Y-38.559 E14.48795
G1 X77.114 Y-37.884 E14.58272
G1 X77.453 Y-37.171 E14.67746
G1 X77.719 Y-36.428 E14.77216
G1 X77.769 Y-36.225 E14.79725
G1 X78.011 Y-35.555 E14.88273
G1 X78.068 Y-35.328 E14.91082
G1 X78.311 Y-34.655 E14.99668
G1 X78.362 Y-34.45 E15.02203
G1 X78.439 Y-34.276 E15.04486
G1 X78.683 Y-33.525 E15.13962
G1 X78.849 Y-32.753 E15.23438
G1 X78.893 Y-32.354 E15.28255
G1 X78.911 Y-32.305 E15.28881
G1 X79.103 Y-31.539 E15.38357
G1 X79.216 Y-30.757 E15.47839
G1 X79.229 Y-30.484 E15.51119
G1 X79.403 Y-29.789 E15.59716
G1 X79.516 Y-29.007 E15.69197
G1 X79.55 Y-28.28 E15.77931
G1 X79.55 Y-25.9 E16.06491
G1 X79.866 Y-25.553 E16.12123
G1 X80.367 Y-24.943 E16.21595
G1 X80.805 Y-24.286 E16.31071
G1 X81.173 Y-23.587 E16.4055
G1 X81.47 Y-22.855 E16.5003
G1 X81.661 Y-22.197 E16.58252
G1 X82.061 Y-21.48 E16.68104
G1 X82.411 Y-20.771 E16.77592
G1 X82.687 Y-20.032 E16.87058
G1 X82.713 Y-19.932 E16.88298
G1 X82.729 Y-19.906 E16.88665
G1 X83.066 Y-19.191 E16.9815
G1 X83.328 Y-18.447 E17.07615
G1 X83.371 Y-18.27 E17.09801
G1 X83.611 Y-17.605 E17.18285
G1 X83.668 Y-17.378 E17.21093
G1 X83.911 Y-16.705 E17.2968
G1 X84.103 Y-15.939 E17.39156
G1 X84.123 Y-15.797 E17.40877
G1 X84.211 Y-15.555 E17.43967
G1 X84.403 Y-14.789 E17.53443
G1 X84.436 Y-14.564 E17.56172
G1 X84.511 Y-14.355 E17.58837
G1 X84.703 Y-13.589 E17.68313
G1 X84.816 Y-12.807 E17.77795
G1 X84.841 Y-12.23 E17.84725
G1 X84.862 Y-12.162 E17.85579
G1 X85.017 Y-11.388 E17.95052
G1 X85.1 Y-10.25 E18.08744
G1 X85.1 Y-7.68 E18.39584
G1 X85.06 Y-6.891 E18.49064
G1 X84.941 Y-6.111 E18.58532
G1 X84.822 Y-5.65 E18.64246
G1 X84.817 Y-5.538 E18.65591
G1 X84.704 Y-4.756 E18.75072
G1 X84.513 Y-3.99 E18.84546
G1 X84.245 Y-3.247 E18.94024
G1 X83.904 Y-2.535 E19.03498
G1 X83.701 Y-2.184 E19.08363
G1 X83.402 Y-1.696 E19.15231
G1 X82.956 Y-1.044 E19.2471
G1 X82.63 Y-.645 E19.30893
G1 X81.609 Y0.526 E19.49537
G1 X81.061 Y1.094 E19.59008
G1 X80.458 Y1.604 E19.68485
G1 X79.845 Y2.024 E19.77402
G1 X78.696 Y3.415 E19.99052
G1 X78.163 Y3.997 E20.08522
G1 X77.735 Y4.39 E20.15495
G1 X76.804 Y5.182 E20.30162
G1 X76.177 Y5.663 E20.39645
G1 X75.505 Y6.077 E20.49117
G1 X75.135 Y6.268 E20.54114
G1 X74.424 Y6.61 E20.63581
G1 X73.766 Y7.001 E20.72766
G1 X73.049 Y7.333 E20.82248
G1 X72.303 Y7.591 E20.9172
G1 X71.534 Y7.773 E21.01203
G1 X71.434 Y7.786 E21.02413
G1 X71.345 Y7.82 E21.03556
G1 X70.582 Y8.025 E21.13037
G1 X69.803 Y8.152 E21.22508
G1 X68.94 Y8.2 E21.32881
G1 X68.813 Y8.2 E21.34405
G1 X68.468 Y8.784 E21.42544
G1 X68.221 Y9.176 E21.48104
G1 X66.151 Y12.251 E21.92586
G1 X64.974 Y14.605 E22.24168
G1 X64.857 Y14.955 E22.28596
G1 X65.058 Y15.388 E22.34325
G1 X65.777 Y16.409 E22.4931
G1 X66.199 Y17.077 E22.58792
G1 X66.55 Y17.784 E22.68264
G1 X66.829 Y18.523 E22.77743
G1 X66.886 Y18.739 E22.80423
G1 X66.893 Y18.753 E22.80611
G1 X67.161 Y19.495 E22.90078
G1 X67.206 Y19.676 E22.92316
G1 X67.234 Y19.737 E22.93122
G1 X67.484 Y20.486 E23.02597
G1 X67.52 Y20.646 E23.04565
G1 X67.709 Y20.555 E23.07082
G1 X68.452 Y20.287 E23.16561
G1 X68.708 Y20.223 E23.19727
G1 X68.746 Y20.202 E23.20248
G1 X69.471 Y19.889 E23.29724
G1 X69.86 Y19.767 E23.34617
G1 X69.864 Y19.764 E23.34677
G1 X70.574 Y19.419 E23.44149
G1 X71.316 Y19.148 E23.53628
G1 X72.081 Y18.953 E23.63102
G1 X72.333 Y18.916 E23.66158
G1 X72.545 Y18.839 E23.68865
G1 X73.311 Y18.647 E23.78341
G1 X73.536 Y18.614 E23.8107
G1 X73.745 Y18.539 E23.83735
G1 X74.511 Y18.347 E23.93211
G1 X75.293 Y18.234 E24.02693
G1 X76.02 Y18.2 E24.11426
G1 X80.13 Y18.2 E24.60746
G1 X80.919 Y18.24 E24.70226
G1 X81.699 Y18.359 E24.79695
G1 X82.464 Y18.557 E24.89177
G1 X83.066 Y18.78 E24.96881
G1 X83.364 Y18.857 E25.00574
G1 X84.104 Y19.131 E25.10044
G1 X84.116 Y19.137 E25.10205
G1 X84.194 Y19.157 E25.11171
G1 X84.934 Y19.431 E25.2064
G1 X85.84 Y19.892 E25.32838
G1 X88.08 Y21.221 E25.64093
G1 X88.738 Y21.658 E25.73572
G1 X89.348 Y22.159 E25.83045
G1 X89.905 Y22.719 E25.92523
G1 X90.402 Y23.333 E26.02002
G1 X90.834 Y23.993 E26.11468
G1 X90.981 Y24.277 E26.15305
G1 X91.33 Y24.722 E26.22092
G1 X91.771 Y25.425 E26.3205
G1 X92.37 Y26.504 E26.46859
G1 X92.717 Y27.213 E26.56332
G1 X92.992 Y27.954 E26.65816
G1 X93.005 Y28.004 E26.66436
G1 X93.029 Y28.044 E26.66996
G1 X93.366 Y28.759 E26.76481
G1 X93.628 Y29.503 E26.85947
G1 X93.814 Y30.271 E26.95429
G1 X93.837 Y30.441 E26.97488
G1 X93.911 Y30.645 E27.00092
G1 X94.103 Y31.411 E27.09568
G1 X94.216 Y32.193 E27.1905
G1 X94.25 Y32.92 E27.27783
G1 X94.25 Y37.33 E27.80703
G1 X94.21 Y38.119 E27.90183
G1 X94.091 Y38.899 E27.99652
G1 X93.893 Y39.664 E28.09134
G1 X93.822 Y39.856 E28.11591
G1 X93.791 Y40.059 E28.14055
G1 X93.593 Y40.824 E28.23537
G1 X93.345 Y41.493 E28.32099
G1 X93.293 Y41.695 E28.34602
G1 X93.07 Y42.297 E28.42306
G1 X92.993 Y42.595 E28.45999
G1 X92.787 Y43.153 E28.53137
G1 X92.693 Y43.514 E28.57614
G1 X92.419 Y44.254 E28.67083
G1 X92.003 Y45.083 E28.78213
G1 X91.653 Y45.688 E28.866
G1 X91.543 Y46.114 E28.9188
G1 X91.269 Y46.854 E29.01349
G1 X90.816 Y47.747 E29.13365
G1 X89.316 Y50.286 E29.48753
G1 X89.08 Y50.661 E29.5407
G1 X88.915 Y50.907 E29.57625
G1 X89.585 Y51.156 E29.66202
G1 X89.784 Y51.207 E29.68667
G1 X90.524 Y51.481 E29.78136
G1 X91.094 Y51.761 E29.85757
G1 X91.273 Y51.807 E29.87975
G1 X92.013 Y52.081 E29.97444
G1 X92.861 Y52.508 E30.08837
G1 X93.894 Y53.109 E30.23178
G1 X94.78 Y53.709 E30.36019
G1 X96.898 Y55.367 E30.68296
G1 X97.609 Y55.997 E30.79696
G1 X97.733 Y56.121 E30.818
G1 X98.064 Y56.207 E30.85904
G1 X98.804 Y56.481 E30.95373
G1 X99.513 Y56.829 E31.04851
G1 X100.157 Y57.241 E31.14025
G1 X100.845 Y57.588 E31.23272
G1 X101.654 Y58.059 E31.34505
G1 X102.556 Y58.66 E31.47512
G1 X103.28 Y59.205 E31.58386
G1 X104.208 Y59.993 E31.72995
G1 X104.783 Y60.534 E31.82469
G1 X105.13 Y60.921 E31.88707
G1 X105.92 Y61.861 E32.03441
G1 X106.439 Y62.552 E32.13812
G1 X107.039 Y63.452 E32.26792
G1 X107.306 Y63.882 E32.32865
G1 X107.907 Y64.924 E32.473
G1 X108.266 Y65.627 E32.56773
G1 X108.553 Y66.363 E32.66252
G1 X108.655 Y66.734 E32.70869
G1 X108.852 Y67.24 E32.77385
G1 X108.976 Y67.687 E32.82952
G1 X109.152 Y68.14 E32.88784
G1 X109.363 Y68.901 E32.9826
G1 X109.423 Y69.251 E33.02522
G1 X109.511 Y69.495 E33.05634
G1 X109.703 Y70.261 E33.15111
G1 X109.816 Y71.043 E33.24592
G1 X109.85 Y71.77 E33.33326
G1 X109.85 Y72.132 E33.3767
G1 X110.003 Y72.852 E33.46503
G1 X110.087 Y73.637 E33.55976
G1 X110.1 Y74.08 E33.61295
G1 X110.1 Y77.07 E33.97175
G1 X110.06 Y77.859 E34.06655
G1 X109.941 Y78.639 E34.16123
G1 X109.85 Y78.991 E34.20486
G1 X109.85 Y79.051 E34.21206
G1 X109.81 Y79.84 E34.30686
G1 X109.691 Y80.62 E34.40154
G1 X109.511 Y81.315 E34.4877
G1 X109.51 Y81.339 E34.49058
G1 X109.391 Y82.119 E34.58526
G1 X109.193 Y82.884 E34.68009
G1 X109.127 Y83.062 E34.70287
G1 X109.091 Y83.299 E34.73163
G1 X108.962 Y83.798 E34.79348
G1 X109.103 Y84.361 E34.86313
G1 X109.196 Y85.003 E34.94097
G1 X109.211 Y85.045 E34.94632
G1 X109.403 Y85.811 E35.04109
G1 X109.516 Y86.593 E35.1359
G1 X109.532 Y86.927 E35.17603
G1 X109.703 Y87.611 E35.26063
G1 X109.816 Y88.393 E35.35545
G1 X109.85 Y89.165 E35.44818
G1 X109.85 Y89.18 E35.44998
G1 X110.002 Y89.896 E35.53781
G1 X110.087 Y90.681 E35.63256
G1 X110.1 Y91.13 E35.68647
G1 X110.1 Y91.983 E35.78883
G1 X110.213 Y92.391 E35.83963
G1 X110.346 Y93.169 E35.93434
G1 X110.4 Y94.089 E36.04493
G1 X110.4 Y101.161 E36.89357
G1 X110.36 Y101.95 E36.98838
G1 X110.241 Y102.73 E37.08306
G1 X110.1 Y103.275 E37.15061
G1 X110.1 Y104.12 E37.25201
G1 X110.06 Y104.909 E37.34681
G1 X109.941 Y105.689 E37.4415
G1 X109.822 Y106.15 E37.49863
G1 X109.817 Y106.261 E37.51196
G1 X109.704 Y107.043 E37.60678
G1 X109.513 Y107.809 E37.70151
G1 X109.51 Y107.817 E37.70254
G1 X109.51 Y107.819 E37.70278
G1 X109.391 Y108.599 E37.79746
G1 X109.193 Y109.364 E37.89229
G1 X109.132 Y109.528 E37.91328
G1 X109.091 Y109.799 E37.94617
G1 X108.893 Y110.564 E38.041
G1 X108.619 Y111.304 E38.13569
G1 X108.614 Y111.315 E38.13714
G1 X108.593 Y111.395 E38.14707
G1 X108.37 Y111.997 E38.2241
G1 X108.293 Y112.295 E38.26104
G1 X108.07 Y112.897 E38.33807
G1 X107.993 Y113.195 E38.37501
G1 X107.786 Y113.755 E38.44665
G1 X107.693 Y114.113 E38.49104
G1 X107.419 Y114.853 E38.58573
G1 X107.169 Y115.379 E38.65562
G1 X105.119 Y119.319 E39.18859
G1 X104.719 Y120.003 E39.28367
G1 X103.569 Y121.753 E39.53496
G1 X103.313 Y122.118 E39.58845
G1 X102.414 Y123.329 E39.76944
G1 X101.987 Y123.856 E39.85083
G1 X100.897 Y125.085 E40.04796
G1 X100.075 Y125.884 E40.18552
G1 X97.346 Y128.174 E40.61302
G1 X96.716 Y128.65 E40.70778
G1 X96.041 Y129.061 E40.80261
G1 X95.682 Y129.243 E40.85091
G1 X95.58 Y129.291 E40.86444
G1 X94.27 Y130.157 E41.05288
G1 X93.725 Y130.486 E41.12927
G1 X92.084 Y131.387 E41.35392
G1 X91.373 Y131.732 E41.44876
G1 X90.632 Y132.003 E41.54344
G1 X90.399 Y132.062 E41.57228
G1 X89.91 Y132.252 E41.63523
G1 X89.149 Y132.463 E41.73
G1 X88.733 Y132.534 E41.78064
G1 X88.571 Y132.594 E41.80137
G1 X88.173 Y132.697 E41.8507
G1 X87.445 Y132.933 E41.94254
G1 X86.673 Y133.099 E42.0373
G1 X86.318 Y133.138 E42.08015
G1 X86.255 Y133.161 E42.0882
G1 X85.489 Y133.353 E42.18297
G1 X84.707 Y133.466 E42.27778
G1 X83.98 Y133.5 E42.36512
G1 X78.32 Y133.5 E43.04432
G1 X77.531 Y133.46 E43.13912
G1 X76.751 Y133.341 E43.2338
G1 X75.986 Y133.143 E43.32863
G1 X75.78 Y133.067 E43.35497
G1 X75.611 Y133.041 E43.37549
G1 X74.918 Y132.862 E43.46138
G1 X74.537 Y132.808 E43.50756
G1 X73.77 Y132.618 E43.60238
G1 X73.048 Y132.361 E43.69435
G1 X72.786 Y132.293 E43.72683
G1 X72.089 Y132.035 E43.81601
G1 X71.927 Y131.993 E43.8361
G1 X71.187 Y131.719 E43.93079
G1 X70.478 Y131.371 E44.02556
G1 X69.881 Y131.004 E44.10966
G1 X69.871 Y130.997 E44.11112
G1 X67.93 Y130.03 E44.37135
G1 X67.424 Y129.754 E44.44051
G1 X65.994 Y128.904 E44.64014
G1 X65.516 Y128.595 E44.70844
G1 X65.055 Y128.761 E44.76724
G1 X64.289 Y128.953 E44.862
G1 X63.507 Y129.066 E44.95682
G1 X63.486 Y129.067 E44.95934
G1 X62.959 Y129.213 E45.02496
G1 X62.629 Y129.269 E45.06513
G1 X62.591 Y129.519 E45.09547
G1 X62.393 Y130.284 E45.1903
G1 X62.253 Y130.663 E45.23878
G1 X62.222 Y130.802 E45.25587
G1 X61.975 Y131.552 E45.35063
G1 X61.927 Y131.659 E45.3647
G1 X61.9 Y131.765 E45.37782
G1 X61.9 Y132.93 E45.51762
G1 X61.86 Y133.719 E45.61243
G1 X61.741 Y134.499 E45.70711
G1 X61.577 Y135.132 E45.78558
G1 X61.56 Y135.469 E45.82607
G1 X61.441 Y136.249 E45.92075
G1 X61.243 Y137.014 E46.01558
G1 X61.182 Y137.178 E46.03657
G1 X61.141 Y137.449 E46.06946
G1 X60.943 Y138.214 E46.16429
G1 X60.695 Y138.883 E46.24991
G1 X60.643 Y139.085 E46.27494
G1 X60.401 Y139.738 E46.35851
G1 X60.343 Y139.963 E46.38639
G1 X60.069 Y140.703 E46.48108
G1 X59.785 Y141.281 E46.55836
G1 X59.743 Y141.444 E46.57856
G1 X59.469 Y142.184 E46.67325
G1 X59.208 Y142.732 E46.74609
G1 X58.358 Y144.353 E46.96573
G1 X57.956 Y145.033 E47.06052
G1 X57.252 Y145.944 E47.19868
G1 X55.932 Y147.413 E47.43567
G1 X55.375 Y147.973 E47.53045
G1 X54.764 Y148.474 E47.62527
G1 X54.106 Y148.91 E47.71999
G1 X53.407 Y149.278 E47.81479
G1 X52.597 Y149.6 E47.91938
G1 X52.203 Y149.731 E47.96921
G1 X51.525 Y150.043 E48.05877
G1 X50.778 Y150.298 E48.15349
G1 X50.009 Y150.477 E48.24824
G1 X49.225 Y150.577 E48.34308
G1 X48.63 Y150.6 E48.41453
G1 X47.5 Y150.6 E48.55013
G1 X46.711 Y150.56 E48.64493
G1 X45.931 Y150.441 E48.73962
G1 X45.166 Y150.243 E48.83444
G1 X44.516 Y150.002 E48.91763
G1 X44.287 Y149.943 E48.94601
G1 X43.899 Y149.799 E48.99567
G1 X43.849 Y149.813 E49.0019
G1 X43.071 Y149.946 E49.09662
G1 X42.151 Y150 E49.20721
G1 X41.02 Y150 E49.34293
G1 X40.231 Y149.96 E49.43773
G1 X39.451 Y149.841 E49.53241
G1 X38.686 Y149.643 E49.62724
G1 X38.522 Y149.582 E49.64823
G1 X38.251 Y149.541 E49.68112
G1 X37.486 Y149.343 E49.77595
G1 X36.746 Y149.069 E49.87064
G1 X36.183 Y148.793 E49.94588
G1 X36.03 Y148.8 E49.96426
G1 X34.52 Y148.8 E50.14546
G1 X33.731 Y148.76 E50.24026
G1 X32.951 Y148.641 E50.33495
G1 X32.186 Y148.443 E50.42977
G1 X32.015 Y148.38 E50.45164
