; generated by Slic3r 1.2.9 on 2018-04-18 at 10:36:56

; external perimeters extrusion width = 0.50mm
; perimeters extrusion width = 0.72mm
; infill extrusion width = 0.72mm
; solid infill extrusion width = 0.72mm
; top infill extrusion width = 0.72mm

M107
M104 S200 ; set temperature
G28 ; home all axes
G1 Z5 F5000 ; lift nozzle

M109 S200 ; wait for temperature to be reached
G21 ; set units to millimeters
G90 ; use absolute coordinates
M82 ; use absolute distances for extrusion
G92 E0
G1 Z0.350 F7800.000
G1 E-2.00000 F2400.00000
G92 E0
G1 X61.622 Y70.607 F7800.000
G1 E2.00000 F2400.00000
G1 X102.347 Y38.795 E3.59897 F1800.000
G1 X103.562 Y37.896 E3.64575
G1 X104.381 Y37.365 E3.67595
G1 X105.871 Y36.644 E3.72716
G1 X107.011 Y36.262 E3.76437
G1 X108.212 Y35.939 E3.80284
G1 X109.844 Y35.735 E3.85372
G1 X111.862 Y35.735 E3.91618
G1 X113.036 Y35.839 E3.95264
G1 X116.161 Y36.402 E4.05088 F1800.000
G1 X118.176 Y37.115 E4.11700
G1 X118.813 Y37.465 E4.13951
G1 X119.997 Y38.294 E4.18422
G1 X120.715 Y38.925 E4.21382
G1 X121.643 Y39.928 E4.25610
G1 X122.206 Y40.678 E4.28511
G1 X122.671 Y41.389 E4.31141
G1 X123.137 Y42.217 E4.34079
G1 X124.043 Y43.930 E4.40074
G1 X124.468 Y44.919 E4.43407
G1 X125.077 Y46.739 E4.49343
G1 X128.412 Y57.483 E4.84151
G1 X144.225 Y110.626 E6.55709
G1 X144.480 Y111.602 E6.58829
G1 X144.649 Y112.534 E6.61759
G1 X144.805 Y113.977 E6.66252
G1 X144.843 Y114.591 E6.68155
G1 X145.030 Y127.097 E7.06855
G1 X145.031 Y131.615 E7.20835
G1 X144.997 Y132.283 E7.22904
G1 X144.810 Y134.133 E7.28658
G1 X144.587 Y135.502 E7.32948
G1 X144.302 Y136.891 E7.37336
G1 X144.114 Y137.641 E7.39728
G1 X143.964 Y138.155 E7.41386
G1 X143.214 Y140.374 E7.48633
G1 X142.814 Y141.311 E7.51783
G1 X141.533 Y143.773 E7.60372
G1 X141.193 Y144.354 E7.62454
G1 X140.474 Y145.447 E7.66503
G1 X139.673 Y146.543 E7.70702
G1 X139.334 Y146.959 E7.72363
G1 X138.652 Y147.727 E7.75541
G1 X138.068 Y148.310 E7.78095
G1 X137.074 Y149.175 E7.82172
G1 X136.143 Y149.925 E7.85871
G1 X135.455 Y150.410 E7.88474
G1 X133.700 Y151.479 E7.94835
G1 X132.266 Y152.248 E7.99868
G1 X108.391 Y163.279 E8.81244
G1 X107.136 Y163.791 E8.85437
G1 X104.675 Y164.265 E8.93193
G1 X103.969 Y164.265 E8.95378
G1 X103.358 Y164.237 E8.97271
G1 X99.308 Y163.862 E9.09856
G1 X98.716 Y163.780 E9.11704
G1 X94.654 Y163.030 E9.24486
G1 X93.493 Y162.752 E9.28178
G1 X92.788 Y162.532 E9.30465
G1 X89.869 Y161.438 E9.40110
G1 X88.907 Y160.986 E9.43399
G1 X88.251 Y160.611 E9.45737
G1 X87.250 Y159.910 E9.49517
G1 X86.713 Y159.454 E9.51699
G1 X85.340 Y157.845 E9.58241
G1 X84.777 Y156.920 E9.61591
G1 X84.307 Y155.990 E9.64815
G1 X55.462 Y85.599 E12.00191
G1 X54.969 Y83.091 E12.08102
G1 X54.969 Y82.153 E12.11003
G1 X55.287 Y80.125 E12.17357
G1 X55.631 Y79.056 E12.20831
G1 X56.016 Y78.114 E12.23978
G1 X56.953 Y76.245 E12.30447
G1 X57.516 Y75.321 E12.33795
G1 X58.830 Y73.526 E12.40678
G1 X59.336 Y72.921 E12.43119
G1 X60.880 Y71.284 E12.50082
G1 X61.566 Y70.658 E12.52956
G1 E10.52956 F2400.00000
G92 E0
G1 X121.684 Y106.843 F7800.000
G1 E2.00000 F2400.00000
G1 X123.740 Y107.327 E2.06532 F1800.000
G1 X124.470 Y106.834 E2.09258
G1 X125.041 Y106.834 E2.11023
G1 X125.222 Y106.646 E2.11831
G1 X125.603 Y106.646 E2.13010
G1 X125.784 Y106.459 E2.13817
G1 X127.715 Y106.459 E2.19791
G1 X127.896 Y106.646 E2.20597
G1 X128.470 Y106.646 E2.22373
G1 X129.058 Y107.021 E2.24530
G1 X129.392 Y107.021 E2.25562
G1 X129.669 Y107.162 E2.26524
G1 X130.242 Y107.586 E2.28731
G1 X130.744 Y108.005 E2.30753
G1 X130.744 Y108.203 E2.31366
G1 X132.144 Y109.584 E2.37449
G1 X132.684 Y109.584 E2.39121
G1 X132.865 Y109.772 E2.39927
G1 X133.616 Y109.772 E2.42252
G1 X134.306 Y110.119 E2.44641
G1 X134.710 Y110.389 E2.46145
G1 X135.118 Y110.735 E2.47801
G1 X135.468 Y111.152 E2.49484
G1 X135.739 Y111.558 E2.50994
G1 X135.900 Y111.881 E2.52111
G1 X135.900 Y112.346 E2.53550
G1 X136.088 Y112.558 E2.54427
G1 X136.088 Y112.908 E2.55508
G1 X136.275 Y113.120 E2.56385
G1 X136.275 Y113.744 E2.58316
G1 X136.463 Y113.925 E2.59122
G1 X136.463 Y115.173 E2.62982
G1 X136.619 Y115.335 E2.63680
G1 X136.619 Y115.914 E2.65472
G1 X136.463 Y116.077 E2.66169
G1 X136.463 Y117.192 E2.69620
G1 X136.275 Y117.405 E2.70497
G1 X136.275 Y118.087 E2.72609
G1 X136.088 Y118.281 E2.73443
G1 X136.088 Y118.793 E2.75028
G1 X135.900 Y118.975 E2.75835
G1 X135.900 Y119.543 E2.77594
G1 X135.713 Y119.724 E2.78401
G1 X135.713 Y121.533 E2.83996
G1 X135.900 Y121.745 E2.84873
G1 X135.900 Y122.556 E2.87383
G1 X136.088 Y122.738 E2.88190
G1 X136.088 Y123.463 E2.90434
G1 X136.275 Y123.644 E2.91241
G1 X136.275 Y124.588 E2.94161
G1 X136.459 Y124.765 E2.94950
G1 X136.453 Y125.819 E2.98212
G1 X136.619 Y125.992 E2.98954
G1 X136.619 Y127.589 E3.03897
G1 X136.806 Y127.802 E3.04773
G1 X136.806 Y131.011 E3.14702
G1 X136.619 Y131.223 E3.15579
G1 X136.619 Y132.821 E3.20521
G1 X136.451 Y132.995 E3.21271
G1 X136.457 Y133.664 E3.23339
G1 X136.275 Y133.833 E3.24107
G1 X136.275 Y134.606 E3.26497
G1 X136.088 Y134.787 E3.27304
G1 X136.088 Y135.356 E3.29066
G1 X135.900 Y135.537 E3.29873
G1 X135.900 Y135.948 E3.31144
G1 X135.713 Y136.161 E3.32021
G1 X135.713 Y136.510 E3.33103
G1 X135.525 Y136.723 E3.33979
G1 X135.525 Y137.073 E3.35064
G1 X135.338 Y137.286 E3.35941
G1 X135.338 Y137.782 E3.37475
G1 X134.268 Y139.915 E3.44859
G1 X133.626 Y140.892 E3.48475
G1 X133.132 Y141.556 E3.51036
G1 X132.563 Y142.199 E3.53694
G1 X131.888 Y142.791 E3.56470
G1 X131.131 Y143.401 E3.59479
G1 X130.831 Y143.544 E3.60508
G1 X129.708 Y144.286 E3.64671
G1 X129.016 Y144.634 E3.67069
G1 X128.545 Y144.634 E3.68526
G1 X128.333 Y144.822 E3.69404
G1 X127.808 Y144.822 E3.71027
G1 X127.615 Y144.987 E3.71814
G1 X127.223 Y144.973 E3.73028
G1 X127.023 Y145.166 E3.73887
G1 X126.271 Y145.166 E3.76213
G1 X126.090 Y145.353 E3.77020
G1 X123.909 Y145.353 E3.83767
G1 X123.728 Y145.166 E3.84574
G1 X123.164 Y145.166 E3.86321
G1 X122.987 Y144.996 E3.87078
G1 X122.465 Y145.002 E3.88694
G1 X122.291 Y144.822 E3.89468
G1 X121.910 Y144.822 E3.90648
G1 X121.728 Y144.634 E3.91455
G1 X121.172 Y144.634 E3.93178
G1 X119.710 Y143.907 E3.98230
G1 X119.191 Y143.567 E4.00151
G1 X118.824 Y143.380 E4.01424
G1 X118.357 Y143.072 E4.03155
G1 X116.439 Y141.697 E4.10456
G1 X115.068 Y141.697 E4.14700
G1 X114.476 Y142.065 E4.16855
G1 X114.132 Y142.228 E4.18035
G1 X113.584 Y142.228 E4.19729
G1 X113.403 Y142.416 E4.20537
G1 X113.021 Y142.416 E4.21718
G1 X112.840 Y142.603 E4.22525
G1 X112.176 Y142.603 E4.24577
G1 X111.964 Y142.791 E4.25454
G1 X111.801 Y142.791 E4.25957
G1 X111.626 Y142.603 E4.26751
G1 X111.047 Y142.603 E4.28544
G1 X110.454 Y142.309 E4.30591
G1 X109.850 Y141.751 E4.33134
G1 X109.506 Y141.063 E4.35517
G1 X109.506 Y140.405 E4.37554
G1 X109.319 Y140.192 E4.38430
G1 X109.319 Y139.831 E4.39546
G1 X109.506 Y139.650 E4.40353
G1 X109.506 Y139.081 E4.42113
G1 X109.693 Y138.900 E4.42920
G1 X109.693 Y138.344 E4.44640
G1 X110.208 Y137.292 E4.48263
G1 X111.982 Y134.656 E4.58095
G1 X110.068 Y132.645 E4.66683
G1 X110.068 Y132.359 E4.67567
G1 X108.120 Y130.673 E4.75539
G1 X106.473 Y131.572 E4.81344
G1 X105.926 Y131.572 E4.83036
G1 X105.649 Y131.817 E4.84182
G1 X104.212 Y131.956 E4.88646
G1 X104.119 Y133.725 E4.94127
G1 X103.889 Y133.986 E4.95206
G1 X103.973 Y138.345 E5.08696
G1 X105.503 Y138.828 E5.13660
G1 X104.650 Y139.207 E5.16546
G1 X104.650 Y141.108 E5.22429
G1 X105.773 Y142.811 E5.28742
G1 X106.306 Y143.848 E5.32350
G1 X106.306 Y144.208 E5.33461
G1 X106.681 Y144.795 E5.35618
G1 X106.681 Y145.384 E5.37441
G1 X106.858 Y145.550 E5.38192
G1 X106.848 Y146.002 E5.39592
G1 X107.025 Y146.194 E5.40399
G1 X107.025 Y147.641 E5.44877
G1 X106.830 Y147.814 E5.45684
G1 X106.847 Y148.286 E5.47147
G1 X106.681 Y148.480 E5.47935
G1 X106.681 Y148.817 E5.48977
G1 X106.494 Y149.029 E5.49854
G1 X106.494 Y150.793 E5.55312
G1 X106.306 Y150.974 E5.56119
G1 X106.306 Y151.887 E5.58943
G1 X106.119 Y152.068 E5.59750
G1 X106.119 Y152.637 E5.61509
G1 X105.931 Y152.818 E5.62315
G1 X105.931 Y153.254 E5.63666
G1 X105.744 Y153.467 E5.64543
G1 X105.744 Y153.920 E5.65946
G1 X105.369 Y154.476 E5.68021
G1 X105.369 Y154.888 E5.69294
G1 X105.098 Y155.445 E5.71210
G1 X104.705 Y155.882 E5.73028
G1 X104.517 Y155.944 E5.73642
G1 X104.422 Y155.853 E5.74048
G1 X103.894 Y155.853 E5.75683
G1 X102.182 Y154.141 E5.83175
G1 X100.664 Y155.478 E5.89433
G1 X99.745 Y155.478 E5.92279
G1 X99.617 Y155.373 E5.92790
G1 X99.450 Y154.511 E5.95507
G1 X97.063 Y154.333 E6.02912
G1 X96.682 Y154.728 E6.04610
G1 X95.676 Y154.728 E6.07725
G1 X95.480 Y154.571 E6.08502
G1 X94.581 Y152.855 E6.14497
G1 X92.935 Y153.487 E6.19952
G1 X92.657 Y153.627 E6.20916
G1 X92.533 Y153.566 E6.21341
G1 X92.037 Y152.955 E6.23777
G1 X92.037 Y152.529 E6.25093
G1 X91.850 Y152.317 E6.25970
G1 X91.850 Y151.779 E6.27633
G1 X91.658 Y151.562 E6.28528
G1 X91.850 Y151.345 E6.29424
G1 X91.850 Y150.620 E6.31667
G1 X92.037 Y150.408 E6.32545
G1 X92.037 Y149.943 E6.33982
G1 X93.033 Y147.951 E6.40873
G1 X92.600 Y147.300 E6.43293
G1 X92.600 Y144.973 E6.50494
G1 X92.787 Y144.798 E6.51287
G1 X92.787 Y143.989 E6.53790
G1 X92.975 Y143.777 E6.54666
G1 X92.975 Y143.300 E6.56140
G1 X93.187 Y143.096 E6.57052
G1 X93.167 Y142.556 E6.58722
G1 X93.506 Y142.057 E6.60588
G1 X93.506 Y141.662 E6.61812
G1 X94.536 Y139.624 E6.68877
G1 X93.454 Y138.205 E6.74399
G1 X93.375 Y138.049 E6.74939
G1 X93.500 Y137.842 E6.75689
G1 X93.797 Y137.693 E6.76715
G1 X95.350 Y137.217 E6.81741
G1 X95.350 Y135.425 E6.87283
G1 X95.537 Y135.244 E6.88090
G1 X95.537 Y132.052 E6.97969
G1 X95.725 Y131.839 E6.98845
G1 X95.725 Y129.707 E7.05444
G1 X95.912 Y129.525 E7.06251
G1 X95.912 Y127.863 E7.11394
G1 X96.100 Y127.682 E7.12201
G1 X96.100 Y126.019 E7.17345
G1 X96.291 Y125.835 E7.18167
G1 X96.284 Y124.526 E7.22217
G1 X96.444 Y124.360 E7.22927
G1 X96.444 Y122.870 E7.27538
G1 X96.631 Y122.658 E7.28415
G1 X96.631 Y121.269 E7.32712
G1 X96.819 Y121.088 E7.33519
G1 X96.819 Y119.370 E7.38833
G1 X97.006 Y119.158 E7.39710
G1 X97.006 Y117.581 E7.44588
G1 X97.194 Y117.400 E7.45395
G1 X97.194 Y116.051 E7.49567
G1 X97.381 Y115.839 E7.50444
G1 X97.381 Y112.912 E7.59500
G1 X97.194 Y112.731 E7.60307
G1 X97.194 Y112.406 E7.61312
G1 X97.006 Y112.212 E7.62146
G1 X97.006 Y112.050 E7.62647
G1 X96.504 Y111.247 E7.65577
G1 X95.294 Y109.884 E7.71217
G1 X95.053 Y109.884 E7.71964
G1 X94.478 Y109.322 E7.74453
G1 X92.803 Y109.322 E7.79634
G1 X92.622 Y109.509 E7.80441
G1 X92.297 Y109.509 E7.81445
G1 X91.600 Y109.167 E7.83847
G1 X91.344 Y108.999 E7.84794
G1 X90.944 Y108.491 E7.86796
G1 X90.944 Y106.860 E7.91843
G1 X90.616 Y106.536 E7.93269
G1 X90.954 Y105.995 E7.95242
G1 X89.499 Y104.326 E8.02093
G1 X89.287 Y104.117 E8.03013
G1 X89.287 Y103.923 E8.03615
G1 X88.532 Y103.176 E8.06902
G1 X88.384 Y102.705 E8.08427
G1 X88.006 Y102.241 E8.10279
G1 X88.006 Y101.915 E8.11288
G1 X87.597 Y101.287 E8.13609
G1 X87.444 Y101.001 E8.14611
G1 X87.444 Y100.224 E8.17015
G1 X87.149 Y99.940 E8.18283
G1 X86.940 Y98.666 E8.22278
G1 X85.501 Y98.666 E8.26728
G1 X84.945 Y98.291 E8.28803
G1 X84.564 Y98.291 E8.29982
G1 X84.309 Y98.157 E8.30874
G1 X83.420 Y97.499 E8.34295
G1 X82.283 Y96.366 E8.39261
G1 X82.134 Y95.893 E8.40797
G1 X81.695 Y95.354 E8.42947
G1 X80.518 Y93.004 E8.51080
G1 X80.288 Y92.396 E8.53091
G1 X79.327 Y89.544 E8.62404
G1 X78.928 Y88.728 E8.65214
G1 X77.863 Y87.447 E8.70368
G1 X77.222 Y87.447 E8.72351
G1 X77.041 Y87.260 E8.73158
G1 X75.442 Y87.260 E8.78106
G1 X74.467 Y88.079 E8.82046
G1 X73.566 Y88.537 E8.85173
G1 X73.174 Y88.524 E8.86388
G1 X72.592 Y88.916 E8.88558
G1 X71.739 Y88.916 E8.91199
G1 X71.526 Y89.103 E8.92075
G1 X69.879 Y89.103 E8.97174
G1 X69.697 Y88.916 E8.97981
G1 X68.783 Y88.916 E9.00811
G1 X68.226 Y88.541 E9.02887
G1 X67.815 Y88.541 E9.04159
G1 X67.166 Y88.222 E9.06397
G1 X66.266 Y87.615 E9.09757
G1 X64.847 Y86.222 E9.15908
G1 X64.475 Y85.661 E9.17992
G1 X64.475 Y85.162 E9.19535
G1 X64.287 Y84.981 E9.20342
G1 X64.287 Y84.599 E9.21523
G1 X64.100 Y84.418 E9.22329
G1 X64.100 Y83.909 E9.23905
G1 X63.319 Y82.711 E9.28331
G1 X63.381 Y82.650 E9.28599
G1 X63.381 Y82.242 E9.29861
G1 X63.574 Y82.043 E9.30720
G1 X63.554 Y81.504 E9.32386
G1 X64.266 Y80.112 E9.37225
G1 X64.304 Y79.993 E9.37612
G1 X64.544 Y79.698 E9.38789
G1 X64.920 Y79.124 E9.40910
G1 X65.386 Y78.494 E9.43337
G1 X66.390 Y77.428 E9.47868
G1 X66.455 Y77.428 E9.48068
G1 X67.308 Y76.746 E9.51447
G1 X68.254 Y76.114 E9.54968
G1 X68.621 Y75.944 E9.56218
G1 X69.205 Y75.550 E9.58397
G1 X69.864 Y75.209 E9.60694
G1 X70.224 Y75.209 E9.61806
G1 X70.811 Y74.834 E9.63962
G1 X71.385 Y74.834 E9.65738
G1 X71.543 Y74.670 E9.66443
G1 X72.012 Y74.686 E9.67894
G1 X72.164 Y74.490 E9.68662
G1 X72.447 Y74.490 E9.69537
G1 X72.628 Y74.303 E9.70344
G1 X73.105 Y74.303 E9.71818
G1 X73.317 Y74.115 E9.72695
G1 X73.897 Y74.115 E9.74490
G1 X74.180 Y73.842 E9.75705
G1 X75.153 Y73.709 E9.78746
G1 X75.645 Y71.686 E9.85188
G1 X75.478 Y71.475 E9.86021
G1 X76.533 Y70.778 E9.89931
G1 X76.912 Y70.589 E9.91242
G1 X78.024 Y69.845 E9.95383
G1 X79.095 Y69.310 E9.99086
G1 X79.663 Y68.935 E10.01193
G1 X82.178 Y67.678 E10.09892
G1 X82.779 Y67.678 E10.11753
G1 X83.440 Y68.673 E10.15450
G1 X83.762 Y68.584 E10.16484
G1 X84.540 Y68.584 E10.18892
G1 X84.756 Y68.690 E10.19634
G1 X85.728 Y69.600 E10.23755
G1 X86.113 Y70.369 E10.26418
G1 X86.275 Y70.850 E10.27986
G1 X86.275 Y71.505 E10.30014
G1 X87.413 Y73.022 E10.35880
G1 X87.744 Y73.022 E10.36905
G1 X87.744 Y74.588 E10.41751
G1 X87.932 Y74.769 E10.42558
G1 X87.932 Y75.207 E10.43914
G1 X88.097 Y75.400 E10.44700
G1 X88.082 Y75.792 E10.45914
G1 X88.275 Y75.992 E10.46773
G1 X88.275 Y76.211 E10.47449
G1 X88.650 Y76.767 E10.49525
G1 X88.650 Y77.114 E10.50599
G1 X89.025 Y77.683 E10.52707
G1 X89.025 Y78.020 E10.53750
G1 X89.416 Y78.633 E10.55999
G1 X89.667 Y79.142 E10.57755
G1 X91.120 Y80.719 E10.64391
G1 X93.509 Y78.839 E10.73798
G1 X93.858 Y78.662 E10.75007
G1 X94.732 Y78.014 E10.78375
G1 X95.137 Y76.806 E10.82316
G1 X95.509 Y76.062 E10.84892
G1 X95.696 Y75.521 E10.86659
G1 X95.895 Y75.127 E10.88026
G1 X96.305 Y74.472 E10.90418
G1 X96.291 Y74.117 E10.91516
G1 X96.415 Y73.875 E10.92357
G1 X96.819 Y73.269 E10.94610
G1 X96.819 Y72.905 E10.95735
G1 X97.381 Y71.902 E10.99294
G1 X97.381 Y71.601 E11.00225
G1 X97.756 Y71.014 E11.02381
G1 X97.756 Y70.864 E11.02845
G1 X97.982 Y70.646 E11.03816
G1 X97.942 Y70.103 E11.05501
G1 X98.074 Y69.839 E11.06415
G1 X98.475 Y69.237 E11.08651
G1 X98.475 Y68.849 E11.09852
G1 X98.824 Y68.151 E11.12266
G1 X99.225 Y67.550 E11.14503
G1 X99.225 Y67.273 E11.15361
G1 X99.342 Y67.122 E11.15953
G1 X99.732 Y66.337 E11.18665
G1 X100.027 Y65.894 E11.20312
G1 X100.593 Y65.133 E11.23245
G1 X101.380 Y63.936 E11.27678
G1 X101.564 Y63.585 E11.28906
G1 X102.963 Y61.490 E11.36697
G1 X103.529 Y60.735 E11.39619
G1 X103.887 Y60.189 E11.41637
G1 X104.430 Y59.460 E11.44451
G1 X105.253 Y58.239 E11.49006
G1 X105.446 Y57.866 E11.50306
G1 X105.830 Y57.255 E11.52540
G1 X105.826 Y56.856 E11.53776
G1 X106.006 Y56.645 E11.54634
G1 X106.006 Y55.455 E11.58318
G1 X106.381 Y54.898 E11.60394
G1 X106.381 Y53.162 E11.65767
G1 X106.194 Y52.981 E11.66573
G1 X106.194 Y52.600 E11.67752
G1 X106.006 Y52.418 E11.68559
G1 X106.006 Y52.020 E11.69790
G1 X105.845 Y51.870 E11.70474
G1 X105.855 Y51.583 E11.71363
G1 X105.662 Y51.383 E11.72222
G1 X105.662 Y50.599 E11.74646
G1 X105.475 Y50.418 E11.75453
G1 X105.475 Y48.800 E11.80458
G1 X105.662 Y48.619 E11.81265
G1 X105.662 Y48.055 E11.83011
G1 X105.855 Y47.855 E11.83871
G1 X105.835 Y47.316 E11.85538
G1 X105.981 Y47.025 E11.86547
G1 X106.625 Y46.054 E11.90151
G1 X106.970 Y45.647 E11.91801
G1 X107.423 Y45.267 E11.93632
G1 X108.003 Y44.828 E11.95882
G1 X108.388 Y44.645 E11.97200
G1 X108.544 Y44.522 E11.97817
G1 X109.041 Y44.522 E11.99355
G1 X109.222 Y44.334 E12.00162
G1 X109.603 Y44.334 E12.01341
G1 X109.785 Y44.147 E12.02148
G1 X110.236 Y44.147 E12.03544
G1 X110.448 Y43.959 E12.04421
G1 X111.184 Y43.959 E12.06697
G1 X111.365 Y44.147 E12.07503
G1 X112.292 Y44.147 E12.10372
G1 X114.223 Y45.038 E12.16951
G1 X114.613 Y44.635 E12.18685
G1 X115.306 Y45.321 E12.21704
G1 X115.306 Y45.408 E12.21974
G1 X115.926 Y46.183 E12.25043
G1 X116.588 Y47.506 E12.29620
G1 X116.588 Y48.088 E12.31422
G1 X116.775 Y48.269 E12.32228
G1 X116.775 Y48.651 E12.33409
