;FLAVOR:UltiGCode
;TIME:6666
;MATERIAL:6666
;MATERIAL2:0
;NOZZLE_DIAMETER:0.4

;Generated with Cura_SteamEngine master
G28 ;Home
G1 Z15.0 F6000 ;Move the platform down 15mm
;Prime the extruder
G92 E0
G1 F200 E3
G92 E0
;LAYER_COUNT:18
;LAYER:0
M107
G0 F3600 X18.977 Y14.178 Z0.3
;TYPE:SKIRT
G1 F1800 X22.383 Y9.72 E0.67323
G1 X23.31 Y8.175 E0.88944
G1 X23.75 Y7.519 E0.98423
G1 X24.254 Y6.911 E1.07899
G1 X24.817 Y6.357 E1.17378
G1 X25.433 Y5.863 E1.26853
G1 X26.096 Y5.434 E1.36329
G1 X26.798 Y5.074 E1.45797
G1 X27.534 Y4.787 E1.55276
G1 X28.295 Y4.575 E1.64756
G1 X29.073 Y4.442 E1.74227
G1 X29.861 Y4.388 E1.83706
G1 X30.65 Y4.414 E1.93179
G1 X31.433 Y4.52 E2.0266
G1 X32.201 Y4.704 E2.12137
G1 X32.946 Y4.965 E2.2161
G1 X33.661 Y5.3 E2.31085
G1 X34.339 Y5.706 E2.40568
G1 X34.972 Y6.178 E2.50044
G1 X35.554 Y6.711 E2.59514
G1 X36.079 Y7.301 E2.68991
G1 X36.542 Y7.941 E2.7847
G1 X36.938 Y8.624 E2.87944
G1 X37.262 Y9.344 E2.97418
G1 X37.513 Y10.093 E3.06898
G1 X37.686 Y10.864 E3.1638
G1 X37.78 Y11.648 E3.25855
G1 X37.795 Y12.437 E3.35325
G1 X37.691 Y13.479 E3.47891
G1 X37.61 Y13.961 E3.53756
G1 X38.11 Y14.132 E3.60097
G1 X38.941 Y14.521 E3.71108
G1 X40.035 Y15.115 E3.86046
G1 X40.992 Y15.729 E3.9969
G1 X41.735 Y16.286 E4.10834
G1 X42.791 Y12.403 E4.59122
G1 X43.037 Y11.652 E4.68605
G1 X43.357 Y10.93 E4.78082
G1 X43.748 Y10.245 E4.87547
G1 X44.207 Y9.602 E4.97027
G1 X44.728 Y9.009 E5.06499
G1 X45.307 Y8.471 E5.15984
G1 X45.937 Y7.995 E5.25459
G1 X46.612 Y7.586 E5.3493
G1 X47.325 Y7.246 E5.44409
G1 X48.069 Y6.98 E5.5389
G1 X48.835 Y6.791 E5.63358
G1 X49.617 Y6.681 E5.72834
G1 X50.406 Y6.65 E5.8231
G1 X51.195 Y6.698 E5.91795
G1 X51.974 Y6.827 E6.01271
G1 X52.736 Y7.033 E6.10743
G1 X53.473 Y7.316 E6.20216
G1 X54.179 Y7.671 E6.29699
G1 X54.844 Y8.096 E6.3917
G1 X55.38 Y8.514 E6.47326
G1 X55.55 Y8.659 E6.50008
G1 X56.124 Y9.202 E6.59489
G1 X56.64 Y9.799 E6.68958
G1 X57.094 Y10.446 E6.78443
G1 X57.479 Y11.135 E6.87914
G1 X57.793 Y11.86 E6.97395
G1 X58.032 Y12.613 E7.06876
G1 X58.952 Y16.116 E7.50337
G1 X60.88 Y14.852 E7.78002
G1 X61.561 Y14.453 E7.87473
G1 X62.28 Y14.125 E7.96957
G1 X62.841 Y13.934 E8.04068
G1 X62.742 Y13.156 E8.13479
G1 X62.723 Y12.367 E8.2295
G1 X62.783 Y11.579 E8.32434
G1 X62.996 Y10.509 E8.45525
G1 X63.057 Y10.286 E8.483
G1 X63.304 Y9.536 E8.57775
G1 X63.625 Y8.814 E8.67257
G1 X64.018 Y8.129 E8.76734
G1 X64.478 Y7.487 E8.86211
G1 X65 Y6.895 E8.95682
G1 X65.58 Y6.359 E9.05159
G1 X66.21 Y5.884 E9.14627
G1 X66.886 Y5.475 E9.24109
G1 X67.6 Y5.136 E9.33593
G1 X68.344 Y4.872 E9.43067
G1 X69.111 Y4.684 E9.52543
G1 X69.893 Y4.574 E9.6202
G1 X70.682 Y4.545 E9.71494
G1 X71.47 Y4.595 E9.80969
G1 X72.249 Y4.724 E9.90444
G1 X73.011 Y4.932 E9.99923
G1 X73.748 Y5.216 E10.09401
G1 X74.452 Y5.572 E10.18867
G1 X75.117 Y5.999 E10.28351
G1 X75.735 Y6.49 E10.37823
G1 X76.301 Y7.041 E10.47301
G1 X76.808 Y7.646 E10.56774
G1 X77.134 Y8.114 E10.63618
G1 X78.961 Y10.944 E11.0404
G1 X82.203 Y15.211 E11.68347
G1 X82.827 Y16.17 E11.82076
G1 X84.053 Y18.398 E12.12593
G1 X84.398 Y19.108 E12.22066
G1 X84.589 Y19.604 E12.28444
G1 X85.244 Y21.494 E12.52447
G1 X85.464 Y22.252 E12.61918
G1 X85.555 Y22.693 E12.67322
G1 X85.806 Y24.116 E12.84661
G1 X85.904 Y24.9 E12.94143
G1 X85.918 Y25.796 E13.04896
G1 X85.849 Y27.451 E13.24773
G1 X85.776 Y28.237 E13.34246
G1 X85.625 Y29.012 E13.43721
G1 X85.395 Y29.768 E13.53203
G1 X85.179 Y30.305 E13.60149
G1 X84.842 Y31.06 E13.70071
G1 X84.484 Y31.764 E13.79548
G1 X84.056 Y32.428 E13.89028
G1 X83.517 Y33.098 E13.99347
G1 X83.023 Y33.647 E14.08209
G1 X82.466 Y34.207 E14.17687
G1 X82.026 Y34.567 E14.24509
G1 X82.348 Y35.043 E14.31406
G1 X82.723 Y35.739 E14.40893
G1 X82.758 Y35.825 E14.42007
G1 X83.417 Y35.694 E14.5007
G1 X84.198 Y35.579 E14.59543
G1 X84.987 Y35.544 E14.6902
G1 X85.776 Y35.589 E14.78503
G1 X86.556 Y35.714 E14.87983
G1 X87.593 Y36.01 E15.00924
G1 X88.455 Y36.322 E15.11925
G1 X89.183 Y36.628 E15.21401
G1 X90.16 Y37.188 E15.34914
G1 X100.367 Y44.069 E16.82632
G1 X100.999 Y44.543 E16.92112
G1 X101.579 Y45.079 E17.01589
G1 X102.102 Y45.67 E17.11059
G1 X102.563 Y46.311 E17.20534
G1 X102.957 Y46.996 E17.30016
G1 X103.279 Y47.717 E17.39492
G1 X103.527 Y48.467 E17.48971
G1 X103.613 Y48.856 E17.53752
G1 X104.169 Y49.04 E17.6078
G1 X104.89 Y49.362 E17.70255
G1 X105.575 Y49.756 E17.79738
G1 X106.216 Y50.216 E17.89206
G1 X106.808 Y50.74 E17.98693
G1 X107.447 Y51.447 E18.10129
G1 X108.882 Y53.245 E18.37734
G1 X109.305 Y53.827 E18.46368
G1 X113.832 Y60.716 E19.45287
G1 X114.045 Y61.06 E19.50143
G1 X116.357 Y65.01 E20.05065
G1 X116.721 Y65.711 E20.14544
G1 X117.012 Y66.445 E20.24019
G1 X117.227 Y67.204 E20.33485
G1 X117.365 Y67.982 E20.42967
G1 X117.423 Y68.77 E20.52448
G1 X117.387 Y69.72 E20.63857
G1 X117.374 Y69.851 E20.65436
G1 X117.256 Y70.632 E20.74915
G1 X117.226 Y70.75 E20.76376
G1 X117.702 Y71.184 E20.84106
G1 X118.433 Y72.037 E20.97586
G1 X118.521 Y72.156 E20.99362
G1 X118.958 Y72.814 E21.08841
G1 X119.326 Y73.513 E21.1832
G1 X119.622 Y74.245 E21.27795
G1 X119.842 Y75.004 E21.37278
G1 X119.984 Y75.78 E21.46745
G1 X120.048 Y76.621 E21.56866
G1 X120.298 Y87.921 E22.92499
G1 X120.276 Y88.711 E23.01983
G1 X120.173 Y89.494 E23.1146
G1 X119.992 Y90.263 E23.2094
G1 X119.735 Y91.009 E23.30408
G1 X119.403 Y91.726 E23.3989
G1 X119 Y92.405 E23.49365
G1 X118.531 Y93.04 E23.58838
G1 X118 Y93.625 E23.68319
G1 X117.413 Y94.152 E23.77785
G1 X116.775 Y94.618 E23.87266
G1 X116.093 Y95.017 E23.96747
G1 X115.375 Y95.345 E24.0622
G1 X114.627 Y95.598 E24.15695
G1 X113.858 Y95.775 E24.25165
G1 X113.074 Y95.873 E24.34646
G1 X112.284 Y95.891 E24.44128
G1 X111.769 Y95.86 E24.5032
G1 X111.1 Y95.797 E24.58383
G1 X110.254 Y95.67 E24.68649
G1 X82.998 Y90.045 E28.02613
G1 X82.956 Y90.036 E28.03129
G1 X71.056 Y87.511 E29.49108
G1 X69.645 Y88.813 E29.72147
G1 X69.038 Y89.319 E29.8163
G1 X68.136 Y89.903 E29.94525
G1 X67.831 Y90.072 E29.98709
G1 X67.122 Y90.419 E30.08181
G1 X66.381 Y90.693 E30.17662
G1 X65.617 Y90.89 E30.2713
G1 X64.836 Y91.009 E30.3661
G1 X64.048 Y91.049 E30.46078
G1 X63.259 Y91.009 E30.55558
G1 X62.478 Y90.889 E30.6504
G1 X61.714 Y90.691 E30.74511
G1 X60.974 Y90.416 E30.83984
G1 X60.265 Y90.068 E30.93462
G1 X59.594 Y89.651 E31.02942
G1 X58.97 Y89.167 E31.12419
G1 X58.398 Y88.623 E31.21891
G1 X58.152 Y88.336 E31.26427
G1 X57.096 Y90.135 E31.5146
G1 X56.662 Y90.795 E31.60939
G1 X56.164 Y91.408 E31.70416
G1 X55.607 Y91.967 E31.79886
G1 X54.996 Y92.467 E31.8936
G1 X54.337 Y92.902 E31.98835
G1 X53.638 Y93.269 E32.08309
G1 X52.905 Y93.563 E32.17786
G1 X52.146 Y93.782 E32.27266
G1 X51.369 Y93.923 E32.36742
G1 X50.582 Y93.984 E32.46214
G1 X49.792 Y93.966 E32.55697
G1 X49.009 Y93.867 E32.65168
G1 X48.239 Y93.691 E32.74646
G1 X47.491 Y93.437 E32.84125
G1 X46.773 Y93.109 E32.93598
G1 X46.421 Y92.914 E32.98427
G1 X46.145 Y92.752 E33.02267
G1 X45.485 Y92.318 E33.11746
G1 X44.872 Y91.82 E33.21223
G1 X44.313 Y91.262 E33.30702
G1 X43.813 Y90.651 E33.40176
G1 X43.345 Y89.936 E33.5043
G1 X42.029 Y87.666 E33.81917
G1 X41.839 Y87.93 E33.8582
G1 X41.316 Y88.521 E33.9529
G1 X40.735 Y89.057 E34.04776
G1 X40.104 Y89.531 E34.14246
G1 X39.427 Y89.939 E34.23732
G1 X38.713 Y90.276 E34.33206
G1 X37.969 Y90.539 E34.42675
G1 X37.201 Y90.726 E34.52161
G1 X36.419 Y90.834 E34.61634
G1 X35.63 Y90.862 E34.71108
G1 X34.842 Y90.811 E34.80583
G1 X34.063 Y90.68 E34.90063
G1 X33.302 Y90.471 E34.99533
G1 X32.565 Y90.186 E35.09015
G1 X31.861 Y89.828 E35.18493
G1 X31.009 Y89.261 E35.30774
G1 X29.691 Y88.254 E35.50678
G1 X29.07 Y87.727 E35.60451
G1 X28.804 Y87.475 E35.64848
G1 X24.275 Y88.487 E36.20537
G1 X24.167 Y88.511 E36.21864
G1 X-1.159 Y93.79 E39.32308
G1 X-8.223 Y95.363 E40.19152
G1 X-8.721 Y95.457 E40.25234
G1 X-11.172 Y95.838 E40.54999
G1 X-11.957 Y95.92 E40.6447
G1 X-12.747 Y95.922 E40.7395
G1 X-13.533 Y95.844 E40.83429
G1 X-14.307 Y95.687 E40.92906
G1 X-15.061 Y95.452 E41.02383
G1 X-15.787 Y95.143 E41.11851
G1 X-16.479 Y94.761 E41.21337
G1 X-17.128 Y94.312 E41.30807
G1 X-17.729 Y93.799 E41.40289
G1 X-18.274 Y93.228 E41.49761
G1 X-18.759 Y92.605 E41.59235
G1 X-19.179 Y91.936 E41.68714
G1 X-19.529 Y91.228 E41.78192
G1 X-19.805 Y90.488 E41.87669
G1 X-20.006 Y89.724 E41.97149
G1 X-20.127 Y88.944 E42.06621
G1 X-20.169 Y88.019 E42.17733
G1 X-20.005 Y76.633 E43.54379
G1 X-19.954 Y75.845 E43.63855
G1 X-19.823 Y75.066 E43.73334
G1 X-19.614 Y74.304 E43.82816
G1 X-19.33 Y73.568 E43.92282
G1 X-18.972 Y72.864 E44.0176
G1 X-18.545 Y72.2 E44.11233
G1 X-18.053 Y71.582 E44.20712
G1 X-17.501 Y71.017 E44.30191
G1 X-17.201 Y70.767 E44.34877
G1 X-17.328 Y70.069 E44.43391
G1 X-17.391 Y69.282 E44.52865
G1 X-17.374 Y68.493 E44.62335
G1 X-17.277 Y67.709 E44.71815
G1 X-17.101 Y66.939 E44.81293
G1 X-16.849 Y66.191 E44.90765
G1 X-16.522 Y65.472 E45.00243
G1 X-16.255 Y64.998 E45.06772
G1 X-11.023 Y56.411 E46.27436
G1 X-10.819 Y56.094 E46.3196
G1 X-8.846 Y53.182 E46.74169
G1 X-8.144 Y52.292 E46.87771
G1 X-7.005 Y51.047 E47.0802
G1 X-6.443 Y50.492 E47.17499
G1 X-5.828 Y49.997 E47.26972
G1 X-5.166 Y49.566 E47.36451
G1 X-4.464 Y49.205 E47.45924
G1 X-3.729 Y48.916 E47.55401
G1 X-3.555 Y48.868 E47.57567
G1 X-3.474 Y48.485 E47.62265
G1 X-3.232 Y47.733 E47.71745
G1 X-2.916 Y47.009 E47.81224
G1 X-2.528 Y46.322 E47.90692
G1 X-2.072 Y45.677 E48.00171
G1 X-1.554 Y45.081 E48.09647
G1 X-.978 Y44.541 E48.19121
G1 X-.258 Y43.999 E48.29936
G1 X10.344 Y36.944 E49.82754
G1 X11.023 Y36.541 E49.92229
G1 X11.739 Y36.208 E50.01704
G1 X12.539 Y35.933 E50.11856
G1 X13.118 Y35.769 E50.19077
G1 X13.888 Y35.593 E50.28555
G1 X14.672 Y35.495 E50.38037
G1 X15.461 Y35.477 E50.47507
G1 X16.248 Y35.539 E50.5698
G1 X17.276 Y35.743 E50.69557
G1 X17.374 Y35.769 E50.70774
G1 X17.606 Y35.301 E50.77042
G1 X17.718 Y35.109 E50.79709
G1 X18.149 Y34.448 E50.89178
G1 X18.245 Y34.329 E50.91013
G1 X17.671 Y33.844 E51.00031
G1 X17.094 Y33.304 E51.09514
G1 X16.575 Y32.709 E51.18988
G1 X16.119 Y32.064 E51.28467
G1 X15.635 Y31.179 E51.40572
G1 X15.304 Y30.468 E51.49983
G1 X15.007 Y29.736 E51.59463
G1 X14.786 Y28.978 E51.68937
G1 X14.625 Y28.054 E51.80192
G1 X14.531 Y27.224 E51.90216
G1 X14.482 Y26.436 E51.9969
G1 X14.535 Y25.429 E52.11791
G1 X14.71 Y23.95 E52.29663
G1 X14.901 Y22.928 E52.42139
G1 X15.407 Y20.956 E52.6657
G1 X15.641 Y20.202 E52.76043
G1 X15.809 Y19.783 E52.81461
G1 X16.502 Y18.19 E53.02307
G1 X16.854 Y17.483 E53.11784
G1 X17.075 Y17.114 E53.16946
G1 X18.595 Y14.726 E53.50914
G1 X18.977 Y14.178 E53.58931
G0 F3600 X19.295 Y14.421
G1 F1800 X22.714 Y9.946 E54.2651
G1 X23.653 Y8.381 E54.48411
G1 X24.082 Y7.743 E54.57637
G1 X24.576 Y7.152 E54.6688
G1 X25.128 Y6.617 E54.76105
G1 X25.732 Y6.141 E54.85333
G1 X26.383 Y5.731 E54.94565
G1 X27.072 Y5.39 E55.0379
G1 X27.794 Y5.123 E55.13028
G1 X28.539 Y4.933 E55.22254
G1 X29.3 Y4.82 E55.31486
G1 X30.068 Y4.787 E55.40711
G1 X30.836 Y4.834 E55.49944
G1 X31.594 Y4.961 E55.59167
G1 X32.336 Y5.166 E55.68404
G1 X33.052 Y5.446 E55.7763
G1 X33.735 Y5.8 E55.86861
G1 X34.378 Y6.222 E55.96091
G1 X34.974 Y6.709 E56.05327
G1 X35.515 Y7.255 E56.1455
G1 X35.998 Y7.854 E56.23784
G1 X36.415 Y8.5 E56.33011
G1 X36.763 Y9.186 E56.42241
G1 X37.038 Y9.904 E56.51468
G1 X37.237 Y10.647 E56.60698
G1 X37.358 Y11.407 E56.69933
G1 X37.399 Y12.175 E56.79162
G1 X37.36 Y12.943 E56.8839
G1 X37.297 Y13.412 E56.94068
G1 X37.157 Y14.244 E57.04193
G1 X37.653 Y14.388 E57.10391
G1 X38.366 Y14.678 E57.19627
G1 X38.75 Y14.873 E57.24795
G1 X39.844 Y15.467 E57.39734
G1 X40.752 Y16.049 E57.52676
G1 X41.967 Y16.96 E57.70899
G1 X43.177 Y12.508 E58.26261
G1 X43.417 Y11.777 E58.35494
G1 X43.732 Y11.075 E58.44727
G1 X44.118 Y10.41 E58.53954
G1 X44.57 Y9.788 E58.6318
G1 X45.085 Y9.217 E58.72408
G1 X45.657 Y8.702 E58.81644
G1 X46.278 Y8.249 E58.90868
G1 X46.944 Y7.863 E59.00105
G1 X47.646 Y7.548 E59.09338
G1 X48.376 Y7.308 E59.1856
G1 X49.128 Y7.145 E59.27793
G1 X49.893 Y7.061 E59.37028
G1 X50.662 Y7.057 E59.46256
G1 X51.427 Y7.133 E59.55482
G1 X52.181 Y7.287 E59.64716
G1 X52.914 Y7.519 E59.73943
G1 X53.619 Y7.826 E59.8317
G1 X54.289 Y8.205 E59.92407
G1 X55.12 Y8.819 E60.04806
G1 X55.29 Y8.964 E60.07487
G1 X55.849 Y9.493 E60.16723
G1 X56.349 Y10.077 E60.25948
G1 X56.786 Y10.709 E60.35169
G1 X57.156 Y11.384 E60.44406
G1 X57.453 Y12.094 E60.53641
G1 X57.645 Y12.715 E60.61441
G1 X58.708 Y16.764 E61.11676
G1 X58.81 Y16.688 E61.13202
G1 X61.099 Y15.187 E61.46049
G1 X61.763 Y14.799 E61.55278
G1 X62.464 Y14.482 E61.6451
G1 X63.194 Y14.24 E61.73739
G1 X63.297 Y14.217 E61.75005
G1 X63.235 Y13.869 E61.79247
G1 X63.14 Y13.106 E61.88473
G1 X63.124 Y12.337 E61.97703
G1 X63.187 Y11.571 E62.06926
G1 X63.382 Y10.615 E62.18635
G1 X63.443 Y10.392 E62.21409
G1 X63.684 Y9.661 E62.30645
G1 X64 Y8.96 E62.39873
G1 X64.387 Y8.295 E62.49106
G1 X64.841 Y7.674 E62.58337
G1 X65.357 Y7.103 E62.67572
G1 X65.929 Y6.589 E62.768
G1 X66.551 Y6.138 E62.8602
G1 X67.217 Y5.753 E62.95251
G1 X67.92 Y5.439 E63.0449
G1 X68.651 Y5.2 E63.13719
G1 X69.403 Y5.038 E63.2295
G1 X70.167 Y4.956 E63.32171
G1 X70.936 Y4.953 E63.41399
G1 X71.702 Y5.029 E63.50636
G1 X72.455 Y5.185 E63.59864
G1 X73.188 Y5.418 E63.69094
G1 X73.893 Y5.726 E63.78326
G1 X74.562 Y6.106 E63.87558
G1 X75.188 Y6.553 E63.96789
G1 X75.764 Y7.062 E64.06013
G1 X76.284 Y7.629 E64.15245
G1 X76.798 Y8.331 E64.25686
G1 X78.63 Y11.17 E64.66231
G1 X81.885 Y15.453 E65.30785
G1 X82.476 Y16.362 E65.43796
G1 X83.702 Y18.59 E65.74313
G1 X84.038 Y19.283 E65.83554
G1 X84.211 Y19.735 E65.89362
G1 X84.866 Y21.625 E66.13366
G1 X85.08 Y22.364 E66.22598
G1 X85.162 Y22.763 E66.27486
G1 X85.413 Y24.186 E66.44826
G1 X85.507 Y24.949 E66.54051
G1 X85.519 Y25.779 E66.64012
G1 X85.45 Y27.434 E66.83889
G1 X85.378 Y28.2 E66.93122
G1 X85.227 Y28.954 E67.02349
G1 X84.998 Y29.689 E67.11587
G1 X84.813 Y30.142 E67.17459
G1 X84.476 Y30.897 E67.27381
G1 X84.127 Y31.582 E67.36606
G1 X83.708 Y32.227 E67.45836
G1 X83.22 Y32.831 E67.55154
G1 X82.726 Y33.38 E67.64017
G1 X82.182 Y33.924 E67.73248
G1 X81.585 Y34.409 E67.82479
G1 X81.464 Y34.488 E67.84213
G1 X81.658 Y34.726 E67.87897
G1 X82.078 Y35.371 E67.97134
G1 X82.428 Y36.055 E68.06354
G1 X82.52 Y36.293 E68.09416
G1 X82.831 Y36.218 E68.13255
G1 X83.495 Y36.086 E68.21379
G1 X84.256 Y35.975 E68.30607
G1 X85.025 Y35.945 E68.39842
G1 X85.792 Y35.993 E68.49064
G1 X86.551 Y36.122 E68.58303
G1 X87.457 Y36.386 E68.69627
G1 X88.319 Y36.698 E68.80628
G1 X89.027 Y36.997 E68.8985
G1 X89.936 Y37.52 E69.02435
G1 X100.143 Y44.401 E70.50152
G1 X100.758 Y44.864 E70.5939
G1 X101.321 Y45.387 E70.68611
G1 X101.827 Y45.967 E70.77848
G1 X102.27 Y46.596 E70.8708
G1 X102.645 Y47.267 E70.96304
G1 X102.949 Y47.974 E71.05539
G1 X103.177 Y48.708 E71.14762
G1 X103.271 Y49.172 E71.20443
G1 X103.391 Y49.2 E71.21922
G1 X104.118 Y49.45 E71.31147
G1 X104.815 Y49.774 E71.40371
G1 X105.475 Y50.169 E71.49601
G1 X106.091 Y50.63 E71.58834
G1 X106.655 Y51.153 E71.68064
G1 X107.135 Y51.697 E71.7677
G1 X108.57 Y53.495 E72.04375
G1 X108.97 Y54.047 E72.12555
G1 X113.497 Y60.936 E73.11475
G1 X113.699 Y61.262 E73.16077
G1 X116.011 Y65.212 E73.71
G1 X116.365 Y65.895 E73.80231
G1 X116.646 Y66.611 E73.89461
G1 X116.851 Y67.352 E73.98687
G1 X116.977 Y68.111 E74.0792
G1 X117.025 Y68.879 E74.17154
G1 X116.989 Y69.681 E74.26787
G1 X116.976 Y69.812 E74.28367
G1 X116.86 Y70.572 E74.37593
G1 X116.775 Y70.899 E74.41647
G1 X116.956 Y71.038 E74.44386
G1 X117.515 Y71.566 E74.53613
G1 X118.112 Y72.275 E74.64735
G1 X118.2 Y72.394 E74.66512
G1 X118.624 Y73.035 E74.75734
G1 X118.98 Y73.717 E74.84966
G1 X119.263 Y74.433 E74.94205
G1 X119.47 Y75.173 E75.03426
G1 X119.6 Y75.932 E75.12666
G1 X119.648 Y76.63 E75.21062
G1 X119.898 Y87.93 E76.56695
G1 X119.875 Y88.699 E76.65927
G1 X119.773 Y89.461 E76.75153
G1 X119.591 Y90.209 E76.84391
G1 X119.334 Y90.934 E76.93621
G1 X119.002 Y91.628 E77.02853
G1 X118.6 Y92.283 E77.12075
G1 X118.132 Y92.894 E77.21311
G1 X117.604 Y93.453 E77.30538
G1 X117.02 Y93.953 E77.39764
G1 X116.387 Y94.391 E77.49001
G1 X115.712 Y94.76 E77.58232
G1 X115.003 Y95.058 E77.67461
G1 X114.267 Y95.28 E77.76686
G1 X113.511 Y95.425 E77.85924
G1 X112.745 Y95.49 E77.95149
G1 X111.806 Y95.461 E78.06422
G1 X111.137 Y95.398 E78.14486
G1 X110.335 Y95.278 E78.24217
G1 X83.079 Y89.653 E81.58181
G1 X83.039 Y89.645 E81.58671
