; generated by Slic3r 1.2.9 on 2018-04-05 at 20:21:25

; external perimeters extrusion width = 0.50mm
; perimeters extrusion width = 0.72mm
; infill extrusion width = 0.72mm
; solid infill extrusion width = 0.72mm
; top infill extrusion width = 0.72mm

M107
M104 S200 ; set temperature
G28 ; home all axes
G1 Z5 F5000 ; lift nozzle

M109 S200 ; wait for temperature to be reached
G21 ; set units to millimeters
G90 ; use absolute coordinates
M82 ; use absolute distances for extrusion
G92 E0
G1 Z0.350 F7800.000
G1 E-2.00000 F2400.00000
G92 E0
G1 X90.929 Y89.151 F7800.000
G1 E2.00000 F2400.00000
G1 X92.568 Y87.547 E2.07096 F1800.000
G1 X94.656 Y86.598 E2.14192
G1 X96.337 Y86.388 E2.19434
G1 X103.804 Y86.417 E2.42538 F1800.000
G1 X106.061 Y86.823 E2.49634
G1 X108.045 Y87.974 E2.56731
G1 X109.172 Y89.195 E2.61871
G1 X110.168 Y90.591 E2.67177
G1 X115.127 Y97.658 E2.93891
G1 X116.254 Y99.384 E3.00268
G1 X116.680 Y100.110 E3.02874
G1 X117.245 Y101.355 E3.07104
G1 X117.728 Y102.798 E3.11813
G1 X118.069 Y104.751 E3.17946
G1 X118.115 Y106.846 E3.24429
G1 X117.764 Y109.112 E3.31525
G1 X116.661 Y111.123 E3.38621
G1 X114.939 Y112.637 E3.45718
G1 X112.803 Y113.474 E3.52814
G1 X111.493 Y113.605 E3.56887
G1 X88.518 Y113.612 E4.27977
G1 X86.259 Y113.215 E4.35073
G1 X84.270 Y112.073 E4.42169
G1 X82.790 Y110.320 E4.49265
G1 X82.098 Y108.632 E4.54912
G1 X81.885 Y106.843 E4.60488
G1 X81.922 Y104.774 E4.66890
G1 X82.273 Y102.760 E4.73215
G1 X82.754 Y101.345 E4.77838
G1 X83.368 Y100.031 E4.82328
G1 X84.331 Y98.450 E4.88053
G1 X84.959 Y97.514 E4.91541
G1 X90.885 Y89.212 E5.23102
G1 E3.23102 F2400.00000
G92 E0
G1 X96.267 Y104.998 F7800.000
G1 E2.00000 F2400.00000
G1 X94.871 Y105.310 E2.04424 F1800.000
G1 X90.209 Y106.281 E2.19159
G1 X88.871 Y106.579 E2.23400
G1 X88.891 Y105.214 E2.27623
G1 X96.116 Y104.625 E2.50052
G1 X96.238 Y104.928 E2.51063
G1 X95.782 Y104.875 F7800.000
G1 X96.111 Y104.275 F7800.000
G1 X95.917 Y103.337 E2.54027 F1800.000
G1 X95.823 Y103.058 E2.54937
G1 X95.842 Y102.814 E2.55694
G1 X95.941 Y102.534 E2.56614
G1 X96.060 Y101.954 E2.58446
G1 X96.134 Y101.918 E2.58700
G1 X96.413 Y101.657 E2.59882
G1 X96.623 Y101.207 E2.61417
G1 X96.890 Y100.723 E2.63128
G1 X96.941 Y100.436 E2.64030
G1 X97.393 Y100.013 E2.65945
G1 X97.649 Y99.712 E2.67169
G1 X98.003 Y99.633 E2.68290
G1 X98.392 Y99.457 E2.69611
G1 X96.970 Y99.046 F7800.000
G1 X96.555 Y98.717 E2.71252 F1800.000
G1 X95.882 Y98.121 E2.74033
G1 X96.668 Y97.850 E2.76604
G1 X96.842 Y98.206 E2.77830
G1 X97.205 Y98.845 E2.80105
G1 X97.027 Y98.997 E2.80828
G1 X96.816 Y98.571 F7800.000
G1 E0.80828 F2400.00000
G92 E0
G1 X96.052 Y101.152 F7800.000
G1 E2.00000 F2400.00000
G1 X92.315 Y99.965 E2.12131 F1800.000
G1 X93.590 Y99.116 E2.16870
G1 X95.815 Y100.621 E2.25179
G1 X96.190 Y100.849 E2.26537
G1 X96.083 Y101.083 E2.27334
G1 X95.730 Y100.769 F7800.000
G1 X95.045 Y102.748 F7800.000
G1 X95.011 Y103.080 E2.28366 F1800.000
G1 X90.106 Y103.151 E2.43543
G1 X89.641 Y103.141 E2.44983
G1 X90.283 Y102.086 E2.48804
G1 X90.672 Y101.512 E2.50950
G1 X90.837 Y101.546 E2.51469
G1 X94.603 Y102.650 E2.63612
G1 X94.971 Y102.732 E2.64780
G1 X94.839 Y103.011 F7800.000
G1 X93.827 Y102.767 F7800.000
G1 X92.760 Y102.621 E2.68111 F1800.000
G1 X92.760 Y102.621 F7800.000
G1 X90.510 Y102.315 E2.83010 F1800.000
G1 E0.83010 F2400.00000
G92 E0
G1 X91.334 Y105.526 F7800.000
G1 E2.00000 F2400.00000
G1 X89.194 Y105.842 E2.14189 F1800.000
G1 X91.334 Y105.526 F7800.000
G1 X94.163 Y105.118 E2.23031 F1800.000
G1 E0.23031 F2400.00000
G92 E0
G1 X95.007 Y100.473 F7800.000
G1 E2.00000 F2400.00000
G1 X93.333 Y99.663 E2.05753 F1800.000
G1 E0.05753 F2400.00000
G92 E0
G1 X97.495 Y94.940 F7800.000
G1 E2.00000 F2400.00000
G1 X97.840 Y95.509 E2.02059 F1800.000
G1 X97.749 Y95.813 E2.03043
G1 X97.676 Y95.931 E2.03471
G1 X97.770 Y96.168 E2.04262
G1 X97.896 Y96.721 E2.06015
G1 X98.143 Y97.476 E2.08473
G1 X98.246 Y97.909 E2.09848
G1 X98.058 Y95.939 F7800.000
G1 X97.559 Y95.929 E2.11392 F1800.000
G1 X95.939 Y95.765 E2.16429
G1 X95.580 Y95.702 E2.17556
G1 X95.387 Y95.600 E2.18233
G1 X95.347 Y95.426 E2.18785
G1 X95.365 Y95.191 E2.19512
G1 X95.417 Y95.000 E2.20126
G1 X95.663 Y94.418 E2.22081
G1 X96.016 Y93.710 E2.24529
G1 E0.24529 F2400.00000
G92 E0
G1 X100.052 Y100.190 F7800.000
G1 E2.00000 F2400.00000
G1 X99.109 Y98.614 E2.05682 F1800.000
G1 X99.385 Y98.441 E2.06689
G1 X99.614 Y98.223 E2.07666
G1 X99.888 Y97.815 E2.09189
G1 X100.048 Y97.358 E2.10686
G1 X100.308 Y97.949 E2.12683
G1 X100.582 Y98.319 E2.14110
G1 X100.989 Y98.654 E2.15740
G1 X100.091 Y100.126 E2.21073
G1 X99.964 Y99.698 F7800.000
G1 X100.040 Y96.837 F7800.000
G1 X99.745 Y96.403 E2.22698 F1800.000
G1 X99.640 Y96.332 E2.23090
G1 X99.911 Y95.279 E2.26454
G1 X100.198 Y95.280 E2.27344
G1 X100.473 Y96.328 E2.30696
G1 X100.379 Y96.390 E2.31043
G1 X100.086 Y96.777 E2.32547
G1 X99.950 Y96.345 F7800.000
G1 X100.290 Y98.737 F7800.000
G1 X99.929 Y98.377 E2.34125 F1800.000
G1 X100.453 Y98.901 E2.36417
G1 X101.795 Y97.915 F7800.000
G1 X102.210 Y96.577 E2.40752 F1800.000
G1 X102.324 Y96.117 E2.42218
G1 X102.557 Y95.572 E2.44053
G1 X102.738 Y94.731 F7800.000
G1 X102.224 Y95.514 E2.46948 F1800.000
G1 X102.311 Y95.792 E2.47851
G1 X102.402 Y95.936 E2.48378
G1 X102.851 Y95.880 E2.49780
G1 X104.151 Y95.767 E2.53819
G1 X104.415 Y95.714 E2.54649
G1 X104.657 Y95.613 E2.55462
G1 X104.703 Y95.488 E2.55875
G1 X104.718 Y95.300 E2.56456
G1 X104.653 Y95.002 E2.57402
G1 X104.496 Y94.618 E2.58684
G1 X104.048 Y93.711 E2.61816
G1 E0.61816 F2400.00000
G92 E0
G1 X103.869 Y104.617 F7800.000
G1 E2.00000 F2400.00000
G1 X111.102 Y105.203 E2.22453 F1800.000
G1 X111.132 Y106.562 E2.26659
G1 X103.729 Y105.019 E2.50057
G1 X103.844 Y104.688 E2.51140
G1 X104.255 Y104.935 F7800.000
G1 X104.968 Y103.070 F7800.000
G1 X104.924 Y102.742 E2.52165 F1800.000
G1 X106.431 Y102.345 E2.56987
G1 X109.293 Y101.509 E2.66212
G1 X109.421 Y101.669 E2.66846
G1 X110.381 Y103.130 E2.72255
G1 X107.567 Y103.124 E2.80960
G1 X105.454 Y103.065 E2.87500
G1 X105.043 Y103.069 E2.88772
G1 X105.106 Y102.769 F7800.000
G1 E0.88772 F2400.00000
G92 E0
G1 X103.830 Y101.224 F7800.000
G1 E2.00000 F2400.00000
G1 X103.672 Y100.914 E2.01077 F1800.000
G1 X104.393 Y100.475 E2.03689
G1 X106.413 Y99.114 E2.11227
G1 X107.681 Y99.969 E2.15956
G1 X104.380 Y100.992 E2.26649
G1 X103.899 Y101.195 E2.28264
G1 X103.856 Y100.877 F7800.000
G1 E0.28264 F2400.00000
G92 E0
G1 X103.031 Y99.041 F7800.000
G1 E2.00000 F2400.00000
G1 X102.789 Y98.848 E2.00956 F1800.000
G1 X103.309 Y97.878 E2.04361
G1 X104.100 Y98.132 E2.06932
G1 X103.088 Y98.992 E2.11043
G1 X102.936 Y98.747 F7800.000
G1 X103.335 Y100.709 F7800.000
G1 X102.561 Y99.976 E2.14342 F1800.000
G1 X102.341 Y99.721 E2.15384
G1 X101.977 Y99.635 E2.16541
G1 X101.589 Y99.451 E2.17870
G1 X103.843 Y101.598 F7800.000
G1 X103.997 Y102.214 E2.19835 F1800.000
G1 X104.043 Y102.509 E2.20757
G1 X104.133 Y102.798 E2.21695
G1 X104.170 Y103.082 E2.22582
G1 X104.074 Y103.352 E2.23468
G1 X104.006 Y103.766 E2.24765
G1 X103.882 Y104.267 E2.26364
G1 X105.711 Y105.100 F7800.000
G1 X108.541 Y105.507 E2.35209 F1800.000
G1 X108.541 Y105.507 F7800.000
G1 X110.803 Y105.831 E2.50202 F1800.000
G1 E0.50202 F2400.00000
G92 E0
G1 X109.468 Y102.310 F7800.000
G1 E2.00000 F2400.00000
G1 X107.222 Y102.624 E2.14878 F1800.000
G1 X107.222 Y102.624 F7800.000
G1 X106.173 Y102.754 E2.18148 F1800.000
G1 E0.18148 F2400.00000
G92 E0
G1 X105.017 Y100.453 F7800.000
G1 E2.00000 F2400.00000
G1 X106.671 Y99.665 E2.05669 F1800.000
G1 E0.05669 F2400.00000
G92 E0
G1 X102.344 Y101.984 F7800.000
G1 E2.00000 F2400.00000
G1 X101.483 Y103.470 E2.05316 F1800.000
G1 X100.906 Y102.414 E2.09042
G1 X100.693 Y101.984 E2.10527
G1 X102.269 Y101.984 E2.15405
G1 X101.961 Y102.305 F7800.000
G1 E0.15405 F2400.00000
G92 E0
G1 X100.813 Y104.653 F7800.000
G1 E2.00000 F2400.00000
G1 X100.044 Y105.963 E2.04701 F1800.000
G1 X99.286 Y104.655 E2.09378
G1 X100.738 Y104.653 E2.13870
G1 X100.429 Y104.972 F7800.000
G1 E0.13870 F2400.00000
G92 E0
G1 X98.585 Y103.438 F7800.000
G1 E2.00000 F2400.00000
G1 X97.726 Y101.979 E2.05239 F1800.000
G1 X99.361 Y101.985 E2.10298
G1 X98.621 Y103.372 E2.15162
G1 X98.490 Y102.947 F7800.000
G1 Z0.650 F7800.000
G1 E0.15162 F2400.00000
G92 E0
G1 X96.181 Y104.520 F7800.000
G1 E2.00000 F2400.00000
G1 X96.404 Y105.070 E2.01096 F900.000
G1 X94.892 Y105.407 E2.03959
G1 X90.230 Y106.379 E2.12764
G1 X88.770 Y106.704 E2.15531
G1 X88.792 Y105.122 E2.18456
G1 X96.106 Y104.526 E2.32024
G1 X96.062 Y105.005 F7800.000
G1 X96.059 Y101.259 F7800.000
G1 X92.086 Y99.997 E2.39730 F900.000
G1 X93.591 Y98.996 E2.43071
G1 X95.869 Y100.536 E2.48155
G1 X96.314 Y100.808 E2.49120
G1 X96.868 Y100.285 E2.50529
G1 X97.093 Y100.509 E2.51115
G1 X96.903 Y100.711 E2.51629
G1 X96.581 Y101.166 E2.52660
G1 X96.408 Y101.496 E2.53349
G1 X96.165 Y102.134 E2.54611
G1 X95.872 Y102.044 E2.55177
G1 X96.042 Y101.332 E2.56531
G1 X96.199 Y100.779 F7800.000
G1 X97.510 Y99.419 F7800.000
G1 X97.406 Y99.519 E2.56798 F900.000
G1 X96.490 Y98.793 E2.58959
G1 X95.687 Y98.082 E2.60943
G1 X96.717 Y97.727 E2.62956
G1 X96.931 Y98.159 E2.63847
G1 X97.512 Y99.184 E2.66025
G1 X97.778 Y99.549 E2.66859
G1 X97.995 Y99.473 E2.67284
G1 X98.118 Y99.745 E2.67836
G1 X97.670 Y100.001 E2.68791
G1 X97.391 Y100.221 E2.69446
G1 X97.187 Y99.984 E2.70025
G1 X97.318 Y99.860 E2.70360
G1 X97.480 Y99.488 E2.71109
G1 X97.458 Y99.285 F7800.000
G1 E0.71109 F2400.00000
G92 E0
G1 X91.980 Y102.345 F7800.000
G1 E2.00000 F2400.00000
G1 X91.934 Y102.679 E2.00938 F900.000
G1 X90.430 Y102.701 E2.05118
G1 X90.867 Y102.018 E2.07371
G1 X91.908 Y102.324 E2.10384
G1 X90.861 Y101.449 F7800.000
G1 X94.628 Y102.553 E2.17641 F900.000
G1 X95.385 Y102.721 E2.19075
G1 X96.047 Y102.721 E2.20299
G1 X96.019 Y103.236 E2.21252
G1 X95.341 Y103.175 E2.22511
G1 X90.106 Y103.251 E2.32191
G1 X89.465 Y103.237 E2.33375
G1 X90.199 Y102.032 E2.35983
G1 X90.549 Y101.516 E2.37135
G1 X90.650 Y101.405 E2.37413
G1 X90.788 Y101.434 E2.37672
G1 X90.993 Y101.931 F7800.000
G1 X92.227 Y102.549 F7800.000
G1 X93.656 Y102.744 E2.46080 F1200.000
G1 X94.806 Y102.891 E2.49299 F1200.000
G1 E0.49299 F2400.00000
G92 E0
G1 X95.920 Y100.909 F7800.000
G1 E2.00000 F2400.00000
G1 X94.838 Y100.391 E2.03332 F1200.000
G1 X94.838 Y100.391 F7800.000
G1 X93.187 Y99.592 E2.14020 F1200.000
G1 E0.14020 F2400.00000
G92 E0
G1 X93.482 Y105.216 F7800.000
G1 E2.00000 F2400.00000
G1 X89.054 Y105.863 E2.26081 F1200.000
G1 X93.482 Y105.216 F7800.000
G1 X96.017 Y104.841 E2.33201 F1200.000
G1 E0.33201 F2400.00000
G92 E0
G1 X98.000 Y97.650 F7800.000
G1 E2.00000 F2400.00000
G1 X97.943 Y97.319 E2.00621 F900.000
G1 X98.211 Y97.231 E2.01142
G1 X98.302 Y97.413 E2.01519
G1 X98.378 Y97.663 E2.02002
G1 X98.075 Y97.653 E2.02561
G1 X98.137 Y97.344 F7800.000
G1 X97.973 Y97.046 F7800.000
G1 X97.770 Y96.168 E2.05063 F1800.000
G1 X97.676 Y95.931 E2.05773
G1 X97.749 Y95.813 E2.06158
G1 X97.840 Y95.509 E2.07041
G1 X97.439 Y94.849 E2.09186
G1 X96.871 Y95.850 F7800.000
G1 X97.559 Y95.929 E2.11109 F1800.000
G1 X98.058 Y95.939 E2.12495
G1 X96.608 Y95.977 F7800.000
G1 X95.923 Y95.973 E2.13762 F900.000
G1 X95.524 Y95.912 E2.14509
G1 X95.233 Y95.797 E2.15087
G1 X95.156 Y95.732 E2.15274
G1 X95.143 Y95.619 E2.15485
G1 X95.167 Y95.417 E2.15861
G1 X96.636 Y95.678 E2.18619
G1 X96.615 Y95.902 E2.19036
G1 X96.184 Y95.712 F7800.000
G1 X95.320 Y95.190 F7800.000
G1 X95.662 Y94.417 E2.21384 F1800.000
G1 X96.100 Y93.531 E2.24129
G1 E0.24129 F2400.00000
G92 E0
G1 X99.708 Y98.748 F7800.000
G1 E2.00000 F2400.00000
G1 X100.083 Y98.393 E2.01434 F900.000
G1 X100.257 Y98.628 E2.02248
G1 X100.408 Y98.752 E2.02790
G1 X100.056 Y99.329 E2.04667
G1 X99.746 Y98.812 E2.06341
G1 X98.973 Y98.582 F7800.000
G1 X99.323 Y98.361 E2.07105 F900.000
G1 X99.537 Y98.158 E2.07650
G1 X99.798 Y97.770 E2.08516
G1 X99.954 Y97.324 E2.09389
G1 X100.203 Y97.342 E2.09852
G1 X100.246 Y97.559 E2.10261
G1 X100.395 Y97.898 E2.10945
G1 X100.655 Y98.250 E2.11755
G1 X101.112 Y98.626 E2.12848
G1 X100.247 Y100.062 E2.15948
G1 X100.040 Y100.364 E2.16625
G1 X99.012 Y98.646 E2.20327
G1 X99.387 Y98.569 F7800.000
G1 X99.927 Y97.008 F7800.000
G1 X99.848 Y96.732 E2.20858 F900.000
G1 X99.673 Y96.475 E2.21433
G1 X99.526 Y96.376 E2.21760
G1 X99.664 Y95.801 E2.22853
G1 X99.933 Y94.828 E2.24718
G1 X100.183 Y94.830 E2.25182
G1 X100.588 Y96.372 E2.28130
G1 X100.448 Y96.464 E2.28439
G1 X100.292 Y96.671 E2.28919
G1 X100.164 Y97.016 E2.29600
G1 X100.002 Y97.010 E2.29899
G1 X100.026 Y96.738 F7800.000
G1 X101.656 Y97.682 F7800.000
G1 X101.844 Y97.273 E2.30730 F900.000
G1 X102.118 Y97.358 E2.31261
G1 X102.070 Y97.638 E2.31786 F900.000
G1 X101.730 Y97.674 E2.32417
G1 X101.971 Y97.361 F7800.000
G1 X102.055 Y97.077 F7800.000
G1 X102.210 Y96.577 E2.33871 F1800.000
G1 X102.324 Y96.117 E2.35187
G1 X102.557 Y95.572 E2.36834
G1 X102.738 Y94.731 F7800.000
G1 X102.224 Y95.514 E2.39433 F1800.000
G1 X102.311 Y95.792 E2.40244
G1 X102.402 Y95.936 E2.40717
G1 X103.377 Y95.841 E2.43439
G1 X104.628 Y94.886 F7800.000
G1 X103.945 Y93.494 E2.47747 F1800.000
G1 E0.47747 F2400.00000
G92 E0
G1 X103.637 Y95.975 F7800.000
G1 E2.00000 F2400.00000
G1 X103.615 Y95.671 E2.00564 F900.000
G1 X103.776 Y95.647 E2.00864
G1 X104.511 Y95.465 E2.02266
G1 X104.585 Y95.139 E2.02882
G1 X104.831 Y95.126 E2.03338
G1 X104.878 Y95.259 E2.03600
G1 X104.915 Y95.474 E2.04003
G1 X104.906 Y95.703 E2.04428
G1 X104.868 Y95.789 E2.04601
G1 X104.689 Y95.879 E2.04971
G1 X104.321 Y95.957 E2.05667
G1 X103.712 Y95.974 E2.06793
G1 X103.774 Y95.702 F7800.000
G1 E0.06793 F2400.00000
G92 E0
G1 X103.800 Y104.512 F7800.000
G1 E2.00000 F2400.00000
G1 X111.200 Y105.111 E2.13726 F900.000
G1 X111.235 Y106.686 E2.16638
G1 X103.546 Y105.082 E2.31158
G1 X103.701 Y104.796 E2.31759
G1 X103.775 Y104.582 E2.32178
G1 X104.186 Y104.830 F7800.000
G1 E0.32178 F2400.00000
G92 E0
G1 X108.072 Y102.680 F7800.000
G1 E2.00000 F2400.00000
G1 X108.025 Y102.343 E2.00945 F900.000
G1 X109.121 Y102.023 E2.04116
G1 X109.554 Y102.683 E2.06310
G1 X108.147 Y102.680 E2.10218
G1 X109.502 Y101.610 F7800.000
G1 X110.324 Y102.863 E2.12989 F900.000
G1 X110.540 Y103.231 E2.13777
G1 X107.566 Y103.224 E2.19276
G1 X105.454 Y103.165 E2.23182
G1 X104.469 Y103.176 E2.25003
G1 X103.979 Y103.330 E2.25952
G1 X103.980 Y103.109 E2.26360
G1 X103.924 Y102.684 E2.27153
G1 X104.521 Y102.731 E2.28258
G1 X104.754 Y102.683 E2.28699
G1 X106.404 Y102.248 E2.31853
G1 X109.329 Y101.394 E2.37487
G1 X109.455 Y101.552 E2.37860
G1 X109.291 Y102.064 F7800.000
G1 E0.37860 F2400.00000
G92 E0
G1 X103.939 Y101.286 F7800.000
G1 E2.00000 F2400.00000
G1 X104.100 Y101.959 E2.01279 F900.000
G1 X103.815 Y102.054 E2.01833
G1 X103.522 Y101.378 E2.03195
G1 X103.276 Y100.960 E2.04092
G1 X102.969 Y100.566 E2.05015
G1 X103.194 Y100.362 E2.05577
G1 X103.658 Y100.805 E2.06763
G1 X104.339 Y100.391 E2.08235
G1 X106.413 Y98.994 E2.12860
G1 X107.907 Y100.001 E2.16190
G1 X106.877 Y100.335 E2.18191
G1 X104.414 Y101.087 E2.22952
G1 X104.008 Y101.257 E2.23767
G1 X103.460 Y101.429 F7800.000
G1 X102.608 Y99.480 F7800.000
G1 X102.408 Y99.283 E2.24287 F900.000
G1 X102.514 Y99.137 E2.24619
G1 X103.264 Y97.757 E2.27524
G1 X104.302 Y98.091 E2.29541
G1 X103.115 Y99.100 E2.32421
G1 X102.668 Y99.435 E2.33453
G1 X102.547 Y99.205 F7800.000
G1 X102.383 Y99.317 F7800.000
G1 X102.798 Y100.040 E2.34996 F900.000
G1 X102.607 Y100.217 E2.35477
G1 X102.230 Y99.961 E2.36320
G1 X101.896 Y99.762 E2.37038
G1 X102.025 Y99.493 E2.37590
G1 X102.206 Y99.560 E2.37948
G1 X102.339 Y99.377 E2.38366
G1 X102.452 Y99.812 F7800.000
G1 X103.978 Y100.953 F7800.000
G1 X105.176 Y100.377 E2.42059 F1200.000
G1 X105.176 Y100.377 F7800.000
G1 X106.818 Y99.595 E2.52658 F1200.000
G1 E0.52658 F2400.00000
G92 E0
G1 X107.779 Y102.552 F7800.000
G1 E2.00000 F2400.00000
G1 X106.359 Y102.735 E2.08348 F1200.000
G1 X106.358 Y102.733 F7800.000
G1 X105.164 Y102.877 E2.11690 F1200.000
G1 E0.11690 F2400.00000
G92 E0
G1 X103.972 Y104.846 F7800.000
G1 E2.00000 F2400.00000
G1 X106.367 Y105.196 E2.06724 F1200.000
G1 X106.367 Y105.196 F7800.000
G1 X110.944 Y105.851 E2.33671 F1200.000
G1 E0.33671 F2400.00000
G92 E0
G1 X102.498 Y101.884 F7800.000
G1 E2.00000 F2400.00000
G1 X101.480 Y103.673 E2.03806 F900.000
