; generated by Slic3r 1.2.9 on 2018-04-06 at 01:58:17

; external perimeters extrusion width = 0.50mm
; perimeters extrusion width = 0.72mm
; infill extrusion width = 0.72mm
; solid infill extrusion width = 0.72mm
; top infill extrusion width = 0.72mm

M107
M104 S200 ; set temperature
G28 ; home all axes
G1 Z5 F5000 ; lift nozzle

M109 S200 ; wait for temperature to be reached
G21 ; set units to millimeters
G90 ; use absolute coordinates
M82 ; use absolute distances for extrusion
G92 E0
G1 Z0.350 F7800.000
G1 E-2.00000 F2400.00000
G92 E0
G1 X69.375 Y58.374 F7800.000
G1 E2.00000 F2400.00000
G1 X69.944 Y57.930 E2.02232 F1800.000
G1 X70.586 Y57.487 E2.04647
G1 X76.773 Y53.743 E2.27022
G1 X79.661 Y52.124 E2.37265
G1 X80.633 Y51.678 E2.40575
G1 X81.783 Y51.259 E2.44363
G1 X82.898 Y50.960 E2.47934
G1 X88.454 Y49.979 E2.65392
G1 X89.606 Y49.878 E2.68970
G1 X95.279 Y49.878 E2.86522
G1 X153.948 Y50.135 E4.68052 F1800.000
G1 X156.205 Y50.541 E4.75148
G1 X158.188 Y51.694 E4.82245
G1 X159.659 Y53.453 E4.89341
G1 X160.387 Y55.328 E4.95564
G1 X161.062 Y58.378 E5.05230
G1 X161.182 Y59.118 E5.07551
G1 X161.833 Y65.363 E5.26976
G1 X161.850 Y66.542 E5.30627
G1 X161.269 Y74.292 E5.54674
G1 X161.215 Y74.773 E5.56170
G1 X159.859 Y83.879 E5.84657
G1 X159.592 Y84.997 E5.88212
G1 X159.467 Y85.372 E5.89435
G1 X158.881 Y86.656 E5.93802
G1 X138.580 Y120.912 E7.17008
G1 X137.087 Y122.653 E7.24104
G1 X135.566 Y123.591 E7.29634
G1 X78.835 Y148.741 E9.21644
G1 X76.770 Y149.584 E9.28544
G1 X75.029 Y150.029 E9.34106
G1 X74.591 Y150.079 E9.35468
G1 X72.345 Y149.951 E9.42431
G1 X43.966 Y143.198 E10.32690
G1 X41.861 Y142.289 E10.39786
G1 X40.191 Y140.716 E10.46882
G1 X39.233 Y138.900 E10.53237
G1 X38.533 Y136.856 E10.59921
G1 X38.178 Y134.891 E10.66100
G1 X38.131 Y133.116 E10.71595
G1 X38.238 Y131.932 E10.75271
G1 X38.632 Y129.764 E10.82091
G1 X38.811 Y129.021 E10.84456
G1 X43.199 Y114.583 E11.31145
G1 X43.501 Y113.781 E11.33796
G1 X67.413 Y60.869 E13.13456
G1 X69.328 Y58.433 E13.23044
G1 E11.23044 F2400.00000
G92 E0
G1 X75.543 Y138.877 F7800.000
G1 E2.00000 F2400.00000
G1 X76.110 Y138.674 E2.01866 F1800.000
G1 X76.360 Y138.190 E2.03550
G1 X76.683 Y138.334 E2.04646
G1 X76.077 Y139.859 E2.09724
G1 X75.948 Y140.095 E2.10555
G1 X74.558 Y140.991 E2.15672
G1 X74.763 Y141.563 E2.17553
G1 X74.015 Y141.654 E2.19887
G1 X74.363 Y142.538 E2.22830
G1 X74.891 Y142.463 E2.24477
G1 X74.977 Y142.783 E2.25504
G1 X74.188 Y143.104 E2.28140
G1 X73.858 Y143.142 E2.29166
G1 X73.665 Y143.097 E2.29780
G1 X73.182 Y142.756 E2.31610
G1 X73.005 Y142.165 E2.33516
G1 X72.865 Y141.169 E2.36629
G1 X72.618 Y140.965 E2.37621
G1 X73.139 Y140.456 E2.39876
G1 X73.400 Y140.854 E2.41350
G1 X75.286 Y139.696 E2.48197
G1 X74.065 Y139.064 E2.52451
G1 X74.535 Y138.436 E2.54877
G1 X74.904 Y138.692 E2.56267
G1 X75.471 Y138.856 E2.58093
G1 X75.849 Y139.272 F7800.000
G1 X76.637 Y137.930 F7800.000
G1 X76.943 Y137.247 E2.60409 F1800.000
G1 X77.260 Y136.651 E2.62498
G1 E0.62498 F2400.00000
G92 E0
G1 X77.448 Y140.458 F7800.000
G1 E2.00000 F2400.00000
G1 X76.879 Y141.109 E2.02676 F1800.000
G1 X76.228 Y141.721 E2.05442
G1 X75.878 Y141.872 F7800.000
G1 X76.111 Y142.093 E2.06434 F1800.000
G1 X75.908 Y142.405 E2.07584
G1 X75.127 Y142.722 E2.10194
G1 X74.956 Y142.475 E2.11125
G1 X75.346 Y142.055 E2.12898
G1 X75.598 Y142.088 E2.13686
G1 X75.819 Y141.918 E2.14547
G1 X75.953 Y142.184 F7800.000
G1 X73.940 Y142.725 F7800.000
G1 X73.682 Y142.396 E2.17287 F1800.000
G1 X73.560 Y142.044 E2.19731
G1 X73.412 Y141.482 E2.23544
G1 X73.193 Y141.137 F7800.000
G1 X73.258 Y141.310 E2.24115 F1800.000
G1 X73.325 Y141.389 E2.24436
G1 X73.459 Y141.336 E2.24882
G1 X73.561 Y141.268 E2.25261
G1 X74.029 Y141.092 E2.26810
G1 X74.100 Y140.891 E2.27469
G1 X74.153 Y140.819 E2.27745
G1 X75.688 Y139.853 E2.33359
G1 X75.731 Y139.808 E2.33552
G1 E0.33552 F2400.00000
G92 E0
G1 X79.776 Y123.054 F7800.000
G1 E2.00000 F2400.00000
G1 X79.968 Y122.565 E2.01624 F1800.000
G1 X80.310 Y122.022 E2.03610
G1 X80.821 Y120.773 E2.07787
G1 X81.252 Y119.864 E2.10899
G1 X81.415 Y119.813 E2.11430
G1 X81.458 Y119.736 E2.11703
G1 X81.442 Y119.431 E2.12646
G1 X81.608 Y119.102 E2.13787
G1 E0.13787 F2400.00000
G92 E0
G1 X59.179 Y128.714 F7800.000
G1 E2.00000 F2400.00000
G1 X59.853 Y129.016 E2.02287 F1800.000
G1 X60.001 Y129.269 E2.03192
G1 X60.106 Y129.391 E2.03692
G1 X60.381 Y129.609 E2.04779
G1 E0.04779 F2400.00000
G92 E0
G1 X69.303 Y97.218 F7800.000
G1 E2.00000 F2400.00000
G1 X69.159 Y97.507 E2.00998 F1800.000
G1 X69.063 Y97.574 E2.01359
G1 X68.853 Y97.648 E2.02048
G1 X68.570 Y97.612 E2.02931
G1 X67.978 Y98.118 E2.05340
G1 X68.506 Y98.092 F7800.000
G1 X68.577 Y97.561 E2.07000 F1800.000
G1 X68.518 Y97.191 E2.08158
G1 X68.426 Y96.927 E2.09024
G1 X68.404 Y96.730 E2.09636
G1 X68.132 Y96.385 E2.10995
G1 X67.870 Y95.804 E2.12968
G1 X67.784 Y95.503 E2.13937
G1 X67.792 Y95.345 E2.14426
G1 X67.907 Y95.101 E2.15260
G1 X67.891 Y94.880 E2.15947
G1 X67.954 Y94.518 E2.17082
G1 E0.17082 F2400.00000
G92 E0
G1 X72.046 Y105.323 F7800.000
G1 E2.00000 F2400.00000
G1 X71.983 Y104.581 E2.02305 F1800.000
G1 X72.552 Y103.794 E2.05309
G1 X72.451 Y103.492 E2.06293
G1 X72.600 Y103.310 E2.07023
G1 X72.614 Y102.920 E2.08230
G1 X73.079 Y102.746 E2.09765
G1 X74.455 Y102.740 E2.14022
G1 X74.129 Y103.289 E2.15996
G1 X74.036 Y103.976 E2.18143
G1 X73.657 Y104.029 E2.19329
G1 X73.489 Y104.980 E2.22316
G1 X72.119 Y105.306 E2.26673
G1 X71.044 Y106.541 F7800.000
G1 X71.199 Y105.871 E2.28802 F1800.000
G1 X71.022 Y105.590 E2.29829
G1 X71.397 Y105.064 E2.31828
G1 X71.341 Y104.403 E2.33882
G1 X71.858 Y103.688 E2.36612
G1 X71.749 Y103.363 E2.37671
G1 X71.983 Y103.077 E2.38814
G1 X72.004 Y102.481 E2.40660
G1 X72.964 Y102.122 E2.43832
G1 X74.334 Y102.115 E2.48069
G1 X74.615 Y102.020 E2.48989
G1 X74.956 Y102.667 E2.51253
G1 X75.062 Y102.940 E2.52159
G1 X74.732 Y103.498 E2.54166
G1 X74.591 Y104.530 E2.57388
G1 X74.193 Y104.585 E2.58632
G1 X74.033 Y105.493 E2.61483
G1 X72.371 Y105.888 E2.66770
G1 X71.670 Y106.189 E2.69131
G1 X71.110 Y106.504 E2.71120
G1 X71.286 Y106.103 F7800.000
G1 E0.71120 F2400.00000
G92 E0
G1 X71.712 Y102.217 F7800.000
G1 E2.00000 F2400.00000
G1 X70.847 Y101.936 E2.02811 F1800.000
G1 X70.655 Y101.917 E2.03409
G1 X70.113 Y102.067 E2.05147
G1 E0.05147 F2400.00000
G92 E0
G1 X72.740 Y104.837 F7800.000
G1 E2.00000 F2400.00000
G1 X73.097 Y103.990 E2.06031 F1800.000
G1 X73.134 Y103.769 E2.07505
G1 X73.129 Y103.617 E2.08501
G1 X73.267 Y103.415 E2.10104
G1 X73.803 Y103.373 E2.13630
G1 E0.13630 F2400.00000
G92 E0
G1 X65.944 Y96.208 F7800.000
G1 E2.00000 F2400.00000
G1 X66.132 Y95.413 E2.02527 F1800.000
G1 X66.270 Y95.070 E2.03672
G1 X66.265 Y94.999 E2.03892
G1 X66.345 Y94.733 E2.04751
G1 X66.515 Y94.533 E2.05564
G1 X66.556 Y94.499 F7800.000
G1 X66.650 Y93.911 E2.07407 F1800.000
G1 X66.944 Y93.134 E2.09975
G1 X67.455 Y91.629 E2.14896
G1 X67.830 Y90.660 E2.18111
G1 X67.996 Y90.307 E2.19318
G1 X68.041 Y90.170 E2.19763
G1 X68.244 Y89.905 E2.20796
G1 E0.20796 F2400.00000
G92 E0
G1 X75.051 Y71.369 F7800.000
G1 E2.00000 F2400.00000
G1 X75.009 Y70.553 E2.02528 F1800.000
G1 X75.419 Y68.799 E2.08103
G1 X75.846 Y67.649 E2.11898
G1 X76.085 Y67.089 E2.13783
G1 X76.214 Y66.876 E2.14553
G1 E0.14553 F2400.00000
G92 E0
G1 X153.373 Y65.420 F7800.000
G1 E2.00000 F2400.00000
G1 X153.428 Y66.426 E2.03118 F1800.000
G1 X153.234 Y66.585 E2.03894
G1 X152.589 Y66.800 E2.06000
G1 X152.514 Y66.805 E2.06232
G1 X152.339 Y66.741 E2.06807
G1 X151.943 Y66.737 E2.08032
G1 X151.883 Y66.441 E2.08967
G1 X152.234 Y66.285 E2.10155
G1 X152.393 Y65.800 E2.11735
G1 X152.575 Y65.441 E2.12979
G1 X153.136 Y65.087 E2.15034
G1 X153.404 Y64.655 E2.16607
G1 X153.830 Y64.681 E2.17930
G1 X154.069 Y64.046 E2.20030
G1 X154.554 Y64.545 E2.22185
G1 X154.676 Y64.548 E2.22562
G1 X154.797 Y65.223 E2.24682
G1 X154.873 Y65.882 E2.26736
G1 X154.508 Y65.991 E2.27912
G1 X154.500 Y66.225 E2.28636
G1 X153.434 Y65.464 E2.32689
G1 X152.880 Y65.335 F7800.000
G1 E0.32689 F2400.00000
G92 E0
G1 X153.895 Y62.528 F7800.000
G1 E2.00000 F2400.00000
G1 X153.793 Y62.914 E2.01235 F1800.000
G1 X153.112 Y63.856 E2.04832
G1 X152.378 Y63.679 E2.07167
G1 X152.539 Y63.316 E2.08397
G1 X153.616 Y61.682 E2.14452
G1 X153.887 Y61.411 E2.15637
G1 X153.862 Y61.104 E2.16590
G1 X154.318 Y60.617 E2.18655
G1 X154.521 Y62.542 E2.24646
G1 X153.970 Y62.530 E2.26349
G1 X153.503 Y62.457 F7800.000
G1 E0.26349 F2400.00000
G92 E0
G1 X154.274 Y64.705 F7800.000
G1 E2.00000 F2400.00000
G1 X154.239 Y65.082 E2.01170 F1800.000
G1 X154.189 Y65.259 E2.01742
G1 X154.028 Y65.230 E2.02251
G1 X153.526 Y65.052 E2.03899
G1 X152.742 Y65.902 F7800.000
G1 X153.029 Y66.189 E2.05151 F1800.000
G1 E0.05151 F2400.00000
G92 E0
G1 X66.277 Y131.830 F7800.000
G1 E2.00000 F2400.00000
G1 X65.164 Y130.644 E2.05030 F1800.000
G1 E0.05030 F2400.00000
G92 E0
G1 X154.306 Y73.019 F7800.000
G1 E2.00000 F2400.00000
G1 X154.321 Y73.785 E2.02371 F1800.000
G1 X154.191 Y74.823 E2.05605
G1 X154.117 Y74.968 E2.06111
G1 X153.894 Y75.288 E2.07318
G1 X153.359 Y75.666 E2.09343
G1 Z0.650 F7800.000
G1 E0.09343 F2400.00000
G92 E0
G1 X75.083 Y139.703 F7800.000
G1 E2.00000 F2400.00000
G1 X74.054 Y139.170 E2.02142 F900.000
G1 X73.969 Y139.026 E2.02453
G1 X74.513 Y138.299 E2.04132
G1 X74.947 Y138.600 E2.05110
G1 X75.539 Y138.772 E2.06250
G1 X76.040 Y138.593 E2.07232
G1 X76.372 Y137.947 E2.08574
G1 X76.280 Y137.834 E2.08845
G1 X76.407 Y137.749 E2.09128
G1 X76.626 Y137.304 E2.10044
G1 X76.987 Y136.702 E2.11343
G1 X77.279 Y137.100 E2.12256
G1 X76.168 Y139.902 E2.17829
G1 X76.024 Y140.165 E2.18384
G1 X74.679 Y141.032 E2.21341
G1 X74.900 Y141.648 E2.22551
G1 X74.155 Y141.737 E2.23937
G1 X74.427 Y142.428 E2.25310
G1 X74.929 Y142.357 E2.26248
G1 X75.308 Y141.949 E2.27277
G1 X75.570 Y141.983 E2.27766
G1 X76.464 Y141.296 E2.29849
G1 X76.666 Y141.512 E2.30396
G1 X76.509 Y141.693 E2.30841
G1 X75.977 Y142.485 E2.32603
G1 X74.213 Y143.202 E2.36125
G1 X73.852 Y143.244 E2.36796
G1 X73.623 Y143.190 E2.37231
G1 X73.096 Y142.817 E2.38424
G1 X72.907 Y142.187 E2.39641
G1 X72.772 Y141.222 E2.41443
G1 X72.468 Y140.972 E2.42170
G1 X73.156 Y140.299 E2.43948
G1 X73.430 Y140.718 E2.44873
G1 X75.019 Y139.743 E2.48320
G1 X75.389 Y139.308 F7800.000
G1 E0.48320 F2400.00000
G92 E0
G1 X77.483 Y140.054 F7800.000
G1 E2.00000 F2400.00000
G1 X77.286 Y140.347 E2.00979 F1800.000
G1 X77.112 Y140.846 E2.02448
G1 X76.762 Y141.249 E2.03930
G1 E0.03930 F2400.00000
G92 E0
G1 X74.373 Y140.985 F7800.000
G1 E2.00000 F2400.00000
G1 X73.736 Y141.207 E2.03934 F1200.000
G1 X73.430 Y141.446 E2.06198
G1 X73.452 Y141.635 E2.07305
G1 X73.560 Y142.044 E2.09771
G1 X73.682 Y142.396 E2.11942
G1 X74.109 Y142.940 E2.15972
G1 X74.286 Y140.735 F7800.000
G1 X75.720 Y139.819 E2.20699 F1200.000
G1 X75.784 Y139.720 E2.21027
G1 X75.764 Y139.438 E2.21811
G1 X75.615 Y139.034 E2.23006
G1 X76.408 Y138.517 F7800.000
G1 X76.248 Y138.856 E2.24049 F1200.000
G1 X75.732 Y139.352 E2.26036
G1 X75.476 Y139.308 E2.26757
G1 X74.777 Y139.029 E2.28848
G1 X74.450 Y138.837 E2.29900
G1 E0.29900 F2400.00000
G92 E0
G1 X75.846 Y136.517 F7800.000
G1 E2.00000 F2400.00000
G1 X75.647 Y136.878 E2.01147 F1800.000
G1 X75.041 Y137.400 E2.03368
G1 E0.03368 F2400.00000
G92 E0
G1 X79.721 Y123.202 F7800.000
G1 E2.00000 F2400.00000
G1 X79.968 Y122.565 E2.01898 F1800.000
G1 X80.310 Y122.022 E2.03680
G1 X80.821 Y120.773 E2.07430
G1 X81.266 Y119.834 E2.10315
G1 X81.335 Y119.776 E2.10568
G1 X81.433 Y119.628 E2.11061
G1 X81.442 Y119.431 E2.11608
G1 X81.608 Y119.102 E2.12632
G1 E0.12632 F2400.00000
G92 E0
G1 X68.443 Y97.079 F7800.000
G1 E2.00000 F2400.00000
G1 X68.066 Y96.555 E2.01193 F900.000
G1 X68.312 Y96.361 E2.01772
G1 X68.603 Y96.699 E2.02596
G1 X68.472 Y97.010 E2.03220
G1 X68.304 Y96.599 F7800.000
G1 X68.067 Y96.236 F7800.000
G1 X67.870 Y95.804 E2.04539 F1800.000
G1 X67.784 Y95.503 E2.05409
G1 X67.792 Y95.345 E2.05848
G1 X67.907 Y95.101 E2.06596
G1 X67.891 Y94.880 E2.07213
G1 X67.954 Y94.518 E2.08233
G1 E0.08233 F2400.00000
G92 E0
G1 X69.303 Y97.218 F7800.000
G1 E2.00000 F2400.00000
G1 X69.159 Y97.507 E2.00896 F1800.000
G1 X69.063 Y97.574 E2.01220
G1 X68.750 Y97.643 E2.02112
G1 X68.523 Y97.813 E2.02899
G1 X67.848 Y98.015 E2.04856
G1 E0.04856 F2400.00000
G92 E0
G1 X65.865 Y96.545 F7800.000
G1 E2.00000 F2400.00000
G1 X66.132 Y95.413 E2.03232 F1800.000
G1 X66.270 Y95.070 E2.04260
G1 X66.265 Y94.999 E2.04457
G1 X66.345 Y94.733 E2.05228
G1 X66.375 Y94.698 E2.05356
G1 X66.449 Y94.677 E2.05569
G1 X66.551 Y94.522 E2.06086
G1 X66.650 Y93.911 E2.07805
G1 X66.944 Y93.134 E2.10111
G1 X67.455 Y91.629 E2.14529
G1 X67.830 Y90.660 E2.17415
G1 X67.996 Y90.307 E2.18498
G1 X68.041 Y90.170 E2.18898
G1 X68.328 Y89.796 E2.20208
G1 E0.20208 F2400.00000
G92 E0
G1 X75.051 Y71.369 F7800.000
G1 E2.00000 F2400.00000
G1 X75.009 Y70.553 E2.02270 F1800.000
G1 X75.419 Y68.799 E2.07275
G1 X75.846 Y67.649 E2.10682
G1 X76.085 Y67.089 E2.12373
G1 X76.287 Y66.756 E2.13456
G1 E0.13456 F2400.00000
G92 E0
G1 X72.438 Y102.794 F7800.000
G1 E2.00000 F2400.00000
G1 X73.046 Y102.566 E2.01801 F900.000
G1 X74.397 Y102.560 E2.05554
G1 X74.572 Y102.894 E2.06601
G1 X74.303 Y103.349 E2.08071
G1 X74.196 Y104.136 E2.10276
G1 X73.811 Y104.189 E2.11355
G1 X73.646 Y105.128 E2.14002
G1 X72.231 Y105.464 E2.18042
G1 X71.914 Y105.600 E2.19000
G1 X71.727 Y105.368 E2.19827
G1 X71.855 Y105.190 E2.20435
G1 X71.798 Y104.530 E2.22276
G1 X72.352 Y103.763 E2.24902
G1 X72.249 Y103.455 E2.25805
G1 X72.423 Y103.243 E2.26566
G1 X72.436 Y102.869 E2.27606
G1 X71.906 Y102.411 F7800.000
G1 X72.946 Y102.022 E2.29658 F900.000
G1 X74.317 Y102.015 E2.32193
G1 X74.664 Y101.898 E2.32871
G1 X75.047 Y102.626 E2.34392
G1 X75.173 Y102.949 E2.35034
G1 X74.828 Y103.532 E2.36286
G1 X74.680 Y104.618 E2.38313
G1 X74.279 Y104.674 E2.39062
G1 X74.099 Y105.700 E2.40987
G1 X73.925 Y105.621 E2.41339
G1 X72.403 Y105.984 E2.44232
G1 X71.714 Y106.279 E2.45617
G1 X71.035 Y106.661 E2.47058
G1 X70.860 Y106.489 E2.47513
G1 X71.024 Y106.186 E2.48149
G1 X71.092 Y105.889 E2.48713
G1 X70.901 Y105.587 E2.49374
G1 X71.294 Y105.036 E2.50625
G1 X71.238 Y104.374 E2.51853
G1 X71.747 Y103.671 E2.53458
G1 X71.637 Y103.342 E2.54098
G1 X71.884 Y103.040 E2.54820
G1 X71.904 Y102.486 E2.55846
G1 X72.385 Y102.557 F7800.000
G1 X71.123 Y102.145 F7800.000
G1 X70.432 Y102.157 E2.57122 F900.000
G1 X70.344 Y101.969 E2.57505
G1 X70.432 Y101.773 E2.57902
G1 X70.616 Y101.668 E2.58294
G1 X70.935 Y101.737 E2.58897
G1 X71.192 Y101.919 E2.59480
G1 X71.145 Y102.074 E2.59780
G1 X70.713 Y101.858 F7800.000
G1 X73.562 Y102.891 F7800.000
G1 X72.660 Y105.026 E2.73288 F1200.000
G1 E0.73288 F2400.00000
G92 E0
G1 X153.484 Y65.622 F7800.000
G1 E2.00000 F2400.00000
G1 X153.531 Y66.471 E2.01572 F900.000
G1 X153.283 Y66.674 E2.02164
G1 X152.608 Y66.899 E2.03480
G1 X152.499 Y66.906 E2.03682
G1 X152.321 Y66.841 E2.04033
G1 X151.347 Y66.830 E2.05833
G1 X151.140 Y66.609 E2.06392
G1 X151.453 Y66.354 E2.07138
G1 X151.567 Y66.471 E2.07440
G1 X152.153 Y66.212 E2.08625
G1 X152.300 Y65.762 E2.09501
G1 X152.498 Y65.372 E2.10309
G1 X153.063 Y65.015 E2.11545
G1 X153.350 Y64.551 E2.12553
G1 X153.763 Y64.577 E2.13318
G1 X153.891 Y64.234 E2.13994
G1 X153.842 Y64.009 E2.14420
G1 X154.059 Y63.892 E2.14877
G1 X154.351 Y64.192 E2.15651
G1 X154.407 Y63.956 E2.16099
G1 X154.672 Y63.963 E2.16591
G1 X154.896 Y65.208 E2.18930
G1 X154.981 Y65.954 E2.20318
G1 X154.606 Y66.066 E2.21043
G1 X154.593 Y66.427 E2.21711
G1 X154.461 Y66.369 E2.21978
G1 X154.196 Y66.585 E2.22611
G1 X154.248 Y66.168 E2.23389
G1 X153.545 Y65.666 E2.24985
G1 X152.992 Y65.538 F7800.000
G1 X153.153 Y63.969 F7800.000
G1 X152.520 Y63.816 E2.26189 F900.000
G1 X152.477 Y63.857 E2.26299
G1 X152.258 Y63.702 E2.26795
G1 X152.451 Y63.267 E2.27674
G1 X153.538 Y61.618 E2.31326
G1 X153.784 Y61.373 E2.31967
G1 X153.758 Y61.068 E2.32533
G1 X154.398 Y60.385 E2.34263
G1 X154.632 Y62.645 E2.38464
G1 X153.972 Y62.630 E2.39684
G1 X153.885 Y62.958 E2.40311
G1 X153.197 Y63.908 E2.42480
G1 X152.839 Y63.580 F7800.000
G1 X152.813 Y63.606 F7800.000
G1 X153.415 Y62.735 E2.48653 F1200.000
G1 X153.562 Y62.406 E2.50753
G1 X154.217 Y62.185 F7800.000
G1 X154.113 Y61.088 E2.53814 F1200.000
G1 E0.53814 F2400.00000
G92 E0
G1 X154.290 Y64.521 F7800.000
