; generated by Slic3r 1.2.9 on 2018-04-06 at 01:19:10

; external perimeters extrusion width = 0.50mm
; perimeters extrusion width = 0.72mm
; infill extrusion width = 0.72mm
; solid infill extrusion width = 0.72mm
; top infill extrusion width = 0.72mm

M107
M104 S200 ; set temperature
G28 ; home all axes
G1 Z5 F5000 ; lift nozzle

M109 S200 ; wait for temperature to be reached
G21 ; set units to millimeters
G90 ; use absolute coordinates
M82 ; use absolute distances for extrusion
G92 E0
G1 Z0.350 F7800.000
G1 E-2.00000 F2400.00000
G92 E0
G1 X29.263 Y2.250 F7800.000
G1 E2.00000 F2400.00000
G1 X29.309 Y1.662 E2.01826 F1800.000
G1 X29.439 Y1.012 E2.03877
G1 X30.557 Y-1.559 E2.12551
G1 X31.147 Y-2.379 E2.15678
G1 X33.424 Y-4.364 E2.25025
G1 X34.594 Y-4.984 E2.29122
G1 X36.126 Y-5.566 E2.34193
G1 X36.907 Y-5.756 E2.36679
G1 X38.376 Y-5.944 E2.41261
G1 X42.449 Y-6.005 E2.53864
G1 X62.466 Y-6.145 E3.15803
G1 X122.856 Y-6.404 E5.02657
G1 X142.586 Y-6.074 E5.63713 F1800.000
G1 X144.838 Y-5.639 E5.70809
G1 X146.806 Y-4.463 E5.77905
G1 X147.914 Y-3.233 E5.83026
G1 X153.530 Y4.853 E6.13487
G1 X153.790 Y5.262 E6.14988
G1 X154.503 Y6.785 E6.20190
G1 X170.503 Y56.625 E7.82153
G1 X170.815 Y58.897 E7.89249
G1 X170.091 Y61.670 E7.98117
G1 X97.801 Y202.800 E12.88745
G1 X96.418 Y204.630 E12.95841
G1 X94.494 Y205.878 E13.02937
G1 X92.260 Y206.395 E13.10033
G1 X89.983 Y206.120 E13.17129
G1 X87.937 Y205.085 E13.24226
G1 X86.366 Y203.414 E13.31322
G1 X85.658 Y201.985 E13.36255
G1 X32.358 Y50.985 E18.31721
G1 X32.148 Y50.260 E18.34058
G1 X31.407 Y47.030 E18.44311
G1 X31.282 Y46.289 E18.46635
G1 X30.962 Y43.439 E18.55509
G1 X30.926 Y42.990 E18.56904
G1 X29.187 Y3.250 E19.79982
G1 X29.258 Y2.325 E19.82852
G1 E17.82852 F2400.00000
G92 E0
G1 X92.048 Y57.936 F7800.000
G1 E2.00000 F2400.00000
G1 X112.005 Y88.525 E3.13009 F1800.000
G1 X108.984 Y96.264 E3.38715
G1 X105.427 Y106.413 E3.71990
G1 X104.033 Y110.809 E3.86259
G1 X101.958 Y118.092 E4.09692
G1 X100.886 Y122.519 E4.23785
G1 X100.449 Y124.502 E4.30067
G1 X98.682 Y133.419 E4.58193
G1 X97.775 Y138.688 E4.74736
G1 X96.210 Y149.332 E5.08023
G1 X94.967 Y159.015 E5.38230
G1 X94.105 Y166.370 E5.61145
G1 X92.188 Y183.907 E6.15729
G1 X91.851 Y183.906 E6.16772
G1 X91.085 Y176.705 E6.39177
G1 X90.184 Y168.735 E6.63994
G1 X89.323 Y161.546 E6.86397
G1 X88.432 Y154.386 E7.08722
G1 X87.570 Y147.893 E7.28987
G1 X86.619 Y141.114 E7.50169
G1 X85.717 Y134.900 E7.69598
G1 X83.623 Y121.686 E8.10992
G1 X81.804 Y111.335 E8.43511
G1 X80.996 Y107.755 E8.54868
G1 X80.250 Y105.135 E8.63295
G1 X78.436 Y99.977 E8.80215
G1 X75.697 Y93.634 E9.01590
G1 X72.373 Y87.422 E9.23390
G1 X72.200 Y87.143 E9.24406
G1 X92.006 Y57.998 E10.33435
G1 X92.058 Y56.809 F7800.000
G1 X112.704 Y88.453 E11.50341 F1800.000
G1 X109.570 Y96.481 E11.77009
G1 X106.020 Y106.611 E12.10221
G1 X104.631 Y110.989 E12.24432
G1 X102.562 Y118.252 E12.47798
G1 X101.495 Y122.660 E12.61832
G1 X101.061 Y124.630 E12.68074
G1 X99.296 Y133.532 E12.96154
G1 X98.392 Y138.786 E13.12649
G1 X96.829 Y149.417 E13.45896
G1 X95.587 Y159.091 E13.76074
G1 X94.726 Y166.440 E13.98970
G1 X93.226 Y180.243 E14.41929
G1 X92.161 Y189.780 E14.71620
G1 X91.824 Y189.778 E14.72663
G1 X91.115 Y182.848 E14.94217
G1 X90.464 Y176.773 E15.13122
G1 X89.563 Y168.807 E15.37926
G1 X88.703 Y161.622 E15.60318
G1 X87.812 Y154.465 E15.82631
G1 X86.951 Y147.978 E16.02881
G1 X86.000 Y141.202 E16.24051
G1 X85.099 Y134.994 E16.43463
G1 X83.007 Y121.789 E16.84828
G1 X81.191 Y111.458 E17.17284
G1 X80.390 Y107.909 E17.28542
G1 X79.655 Y105.324 E17.36856
G1 X77.854 Y100.204 E17.53650
G1 X75.134 Y93.906 E17.74877
G1 X71.831 Y87.734 E17.96537
G1 X71.456 Y87.126 E17.98746
G1 X92.016 Y56.871 E19.11930
G1 X92.069 Y55.681 F7800.000
G1 X113.403 Y88.380 E20.32734 F1800.000
G1 X110.157 Y96.698 E20.60363
G1 X106.613 Y106.809 E20.93512
G1 X105.230 Y111.169 E21.07665
G1 X103.166 Y118.411 E21.30964
G1 X102.104 Y122.801 E21.44940
G1 X101.672 Y124.758 E21.51141
G1 X99.911 Y133.646 E21.79177
G1 X99.009 Y138.885 E21.95623
G1 X97.448 Y149.502 E22.28828
G1 X96.208 Y159.167 E22.58978
G1 X95.347 Y166.511 E22.81856
G1 X93.847 Y180.312 E23.24809
G1 X92.747 Y190.159 E23.55468
G1 X92.106 Y195.398 E23.71800
G1 X91.771 Y195.395 E23.72837
G1 X90.493 Y182.913 E24.11659
G1 X89.843 Y176.842 E24.30553
G1 X88.943 Y168.879 E24.55346
G1 X88.082 Y161.697 E24.77727
G1 X87.192 Y154.545 E25.00028
G1 X86.332 Y148.062 E25.20262
G1 X85.382 Y141.290 E25.41421
G1 X84.481 Y135.087 E25.60815
G1 X82.390 Y121.892 E26.02152
G1 X80.578 Y111.581 E26.34545
G1 X79.784 Y108.063 E26.45703
G1 X79.059 Y105.514 E26.53905
G1 X77.271 Y100.432 E26.70572
G1 X74.570 Y94.178 E26.91652
G1 X71.289 Y88.046 E27.13172
G1 X70.712 Y87.109 E27.16574
G1 X92.027 Y55.744 E28.33912
G1 X92.162 Y56.173 F7800.000
G1 X91.935 Y195.747 F7800.000
G1 X91.903 Y198.599 E28.42738 F1800.000
G1 X91.953 Y193.923 F7800.000
G1 X91.968 Y192.420 E28.47390 F1800.000
G1 X91.968 Y192.420 F7800.000
G1 X91.991 Y190.091 E28.62666 F1800.000
G1 X92.000 Y188.241 F7800.000
G1 X92.007 Y186.653 E28.67577 F1800.000
G1 X92.007 Y186.653 F7800.000
G1 X92.018 Y184.219 E28.83549 F1800.000
G1 X92.026 Y182.377 F7800.000
G1 X92.029 Y180.827 E28.88342 F1800.000
G1 X92.029 Y180.827 F7800.000
G1 X92.032 Y178.422 E29.04124 F1800.000
G1 X91.586 Y177.735 F7800.000
G1 X91.894 Y178.043 E29.05480 F1800.000
G1 X92.500 Y177.759 E29.07567
G1 X91.474 Y176.733 E29.12090
G1 X91.362 Y175.731 E29.15233
G1 X92.588 Y176.956 E29.20634
G1 X92.675 Y176.153 E29.23152
G1 X91.250 Y174.729 E29.29431
G1 X91.138 Y173.726 E29.32574
G1 X92.762 Y175.350 E29.39732
G1 X92.849 Y174.547 E29.42250
G1 X91.026 Y172.724 E29.50286
G1 X90.914 Y171.722 E29.53429
G1 X92.937 Y173.744 E29.62344
G1 X93.024 Y172.941 E29.64861
G1 X90.802 Y170.720 E29.74654
G1 X90.690 Y169.717 E29.77798
G1 X93.111 Y172.138 E29.88469
G1 X93.199 Y171.335 E29.90987
G1 X90.578 Y168.715 E30.02536
G1 X90.459 Y167.705 E30.05706
G1 X93.286 Y170.532 E30.18168
G1 X93.373 Y169.729 E30.20685
G1 X90.338 Y166.694 E30.34066
G1 X90.217 Y165.683 E30.37241
G1 X93.460 Y168.926 E30.51540
G1 X93.548 Y168.123 E30.54057
G1 X90.095 Y164.671 E30.69275
G1 X89.974 Y163.660 E30.72450
G1 X93.635 Y167.320 E30.88587
G1 X93.722 Y166.517 E30.91104
G1 X89.853 Y162.648 E31.08160
G1 X89.732 Y161.637 E31.11335
G1 X93.815 Y165.720 E31.29334
G1 X93.908 Y164.923 E31.31834
G1 X89.607 Y160.622 E31.50796
G1 X89.480 Y159.605 E31.53989
G1 X94.002 Y164.126 E31.73920
G1 X94.095 Y163.329 E31.76421
G1 X89.354 Y158.588 E31.97321
G1 X89.227 Y157.571 E32.00515
G1 X94.189 Y162.533 E32.22385
G1 X94.282 Y161.736 E32.24885
G1 X89.101 Y156.554 E32.47724
G1 X88.974 Y155.538 E32.50918
G1 X94.375 Y160.939 E32.74727
G1 X94.469 Y160.142 E32.77227
G1 X88.848 Y154.521 E33.02005
G1 X88.715 Y153.498 E33.05222
G1 X94.562 Y159.345 E33.30998
G1 X94.661 Y158.553 E33.33484
G1 X88.578 Y152.471 E33.60296
G1 X88.442 Y151.445 E33.63524
G1 X94.762 Y157.764 E33.91382
G1 X94.863 Y156.976 E33.93862
G1 X88.306 Y150.418 E34.22767
G1 X88.170 Y149.392 E34.25995
G1 X94.965 Y156.187 E34.55948
G1 X95.066 Y155.398 E34.58427
G1 X88.033 Y148.365 E34.89427
G1 X87.894 Y147.335 E34.92665
G1 X95.167 Y154.609 E35.24726
G1 X95.268 Y153.820 E35.27205
G1 X87.749 Y146.300 E35.60352
G1 X87.603 Y145.264 E35.63612
G1 X95.370 Y153.031 E35.97846
G1 X95.471 Y152.242 E36.00325
G1 X87.458 Y144.229 E36.35646
G1 X87.313 Y143.193 E36.38905
G1 X95.572 Y151.453 E36.75313
G1 X95.673 Y150.664 E36.77792
G1 X87.168 Y142.158 E37.15287
G1 X87.022 Y141.122 E37.18546
G1 X95.775 Y149.875 E37.57128
G1 X95.881 Y149.091 E37.59594
G1 X86.872 Y140.082 E37.99305
G1 X86.721 Y139.041 E38.02585
G1 X95.995 Y148.315 E38.43466
G1 X96.109 Y147.539 E38.45911
G1 X86.570 Y137.999 E38.87961
G1 X86.419 Y136.958 E38.91241
G1 X96.223 Y146.762 E39.34461
G1 X96.337 Y145.986 E39.36906
G1 X86.267 Y135.916 E39.81295
G1 X86.116 Y134.875 E39.84575
G1 X96.452 Y145.210 E40.30134
G1 X96.566 Y144.434 E40.32579
G1 X85.952 Y133.820 E40.79367
G1 X85.784 Y132.762 E40.82705
G1 X96.680 Y143.658 E41.30735
G1 X96.794 Y142.882 E41.33180
G1 X85.616 Y131.704 E41.82452
G1 X85.449 Y130.646 E41.85790
G1 X96.908 Y142.106 E42.36304
G1 X97.022 Y141.329 E42.38749
G1 X85.281 Y129.588 E42.90505
G1 X85.113 Y128.530 E42.93844
G1 X97.136 Y140.553 E43.46841
G1 X97.250 Y139.777 E43.49286
G1 X84.946 Y127.473 E44.03526
G1 X84.778 Y126.415 E44.06865
G1 X97.365 Y139.001 E44.62346
G1 X97.490 Y138.236 E44.64763
G1 X84.611 Y125.357 E45.21535
G1 X84.443 Y124.299 E45.24873
G1 X97.620 Y137.476 E45.82960
G1 X97.751 Y136.717 E45.85363
G1 X84.275 Y123.241 E46.44765
G1 X84.108 Y122.183 E46.48103
G1 X97.882 Y135.957 E47.08820
G1 X98.012 Y135.198 E47.11222
G1 X83.933 Y121.118 E47.73286
G1 X83.743 Y120.038 E47.76704
G1 X98.143 Y134.438 E48.40180
G1 X98.274 Y133.678 E48.42582
G1 X83.553 Y118.958 E49.07471
G1 X83.363 Y117.878 E49.10889
G1 X98.416 Y132.931 E49.77242
G1 X98.563 Y132.188 E49.79603
G1 X83.174 Y116.798 E50.47442
G1 X82.984 Y115.718 E50.50860
G1 X98.711 Y131.445 E51.20184
G1 X98.858 Y130.702 E51.22545
G1 X82.794 Y114.638 E51.93355
G1 X82.604 Y113.558 E51.96773
G1 X99.005 Y129.959 E52.69069
G1 X99.152 Y129.216 E52.71430
G1 X82.415 Y112.478 E53.45212
G1 X82.225 Y111.398 E53.48630
G1 X99.300 Y128.473 E54.23897
G1 X99.447 Y127.730 E54.26258
G1 X81.984 Y110.267 E55.03235
G1 X81.725 Y109.117 E55.06909
G1 X99.594 Y126.987 E55.85678
G1 X99.742 Y126.244 E55.88039
G1 X81.465 Y107.968 E56.68602
G1 X81.150 Y106.762 E56.72486
G1 X99.889 Y125.501 E57.55087
G1 X100.036 Y124.758 E57.57448
G1 X80.796 Y105.518 E58.42260
G1 X80.382 Y104.214 E58.46524
G1 X100.193 Y124.024 E59.33849
G1 X100.354 Y123.295 E59.36178
G1 X79.899 Y102.840 E60.26342
G1 X79.416 Y101.467 F7800.000
G1 X100.514 Y122.565 E61.19344 F1800.000
G1 X100.687 Y121.848 E61.21644
G1 X78.933 Y100.094 E62.17538
G1 X78.318 Y98.588 F7800.000
G1 X100.861 Y121.131 E63.16908 F1800.000
G1 X101.034 Y120.415 E63.19207
G1 X77.641 Y97.022 E64.22325
G1 X76.965 Y95.455 F7800.000
G1 X101.208 Y119.698 E65.29190 F1800.000
G1 X101.381 Y118.981 E65.31489
G1 X76.288 Y93.888 E66.42101
G1 X75.398 Y92.108 F7800.000
G1 X101.555 Y118.264 E67.57401 F1800.000
G1 X101.746 Y117.566 E67.59658
G1 X74.373 Y90.193 E68.80321
G1 X73.348 Y88.277 F7800.000
G1 X101.944 Y116.873 E70.06372 F1800.000
G1 X102.141 Y116.180 E70.08618
G1 X72.801 Y86.840 E71.37950
G1 X73.162 Y86.310 E71.39947
G1 X102.339 Y115.487 E72.68562
G1 X102.536 Y114.794 E72.70808
G1 X73.522 Y85.780 E73.98705
G1 X73.882 Y85.250 E74.00702
G1 X102.734 Y114.102 E75.27882
G1 X102.931 Y113.409 E75.30127
G1 X74.242 Y84.720 E76.56589
G1 X74.602 Y84.190 E76.58586
G1 X103.128 Y112.716 E77.84331
G1 X103.326 Y112.023 E77.86576
G1 X74.963 Y83.660 E79.11603
G1 X75.323 Y83.130 E79.13600
G1 X103.523 Y111.330 E80.37909
G1 X103.724 Y110.641 E80.40147
G1 X75.683 Y82.600 E81.63755
G1 X76.043 Y82.070 E81.65752
G1 X103.939 Y109.965 E82.88718
G1 X104.153 Y109.289 E82.90928
G1 X76.403 Y81.540 E84.13251
G1 X76.764 Y81.010 E84.15248
G1 X104.368 Y108.614 E85.36929
G1 X104.582 Y107.938 E85.39139
G1 X77.124 Y80.480 E86.60176
G1 X77.484 Y79.949 E86.62174
G1 X104.796 Y107.262 E87.82568
G1 X105.011 Y106.586 E87.84778
G1 X77.844 Y79.419 E89.04531
G1 X78.204 Y78.889 E89.06528
G1 X105.237 Y105.922 E90.25689
G1 X105.468 Y105.263 E90.27866
G1 X78.565 Y78.359 E91.46458
G1 X78.925 Y77.829 E91.48455
G1 X105.699 Y104.603 E92.66477
G1 X105.930 Y103.944 E92.68655
G1 X79.285 Y77.299 E93.86108
G1 X79.645 Y76.769 E93.88105
G1 X106.161 Y103.285 E95.04989
G1 X106.392 Y102.626 E95.07166
G1 X80.005 Y76.239 E96.23480
G1 X80.366 Y75.709 E96.25478
G1 X106.623 Y101.967 E97.41223
G1 X106.854 Y101.307 E97.43400
G1 X80.726 Y75.179 E98.58576
G1 X81.086 Y74.649 E98.60574
G1 X107.085 Y100.648 E99.75180
G1 X107.316 Y99.989 E99.77357
G1 X81.446 Y74.119 E100.91395
G1 X81.806 Y73.589 E100.93392
G1 X107.547 Y99.330 E102.06860
G1 X107.778 Y98.671 E102.09037
G1 X82.167 Y73.059 E103.21936
G1 X82.527 Y72.529 E103.23933
G1 X108.009 Y98.011 E104.36263
G1 X108.240 Y97.352 E104.38440
G1 X82.887 Y71.999 E105.50200
G1 X83.247 Y71.469 E105.52198
G1 X108.472 Y96.693 E106.63388
G1 X108.708 Y96.039 E106.65556
G1 X83.607 Y70.939 E107.76200
G1 X83.968 Y70.409 E107.78198
G1 X108.958 Y95.399 E108.88357
G1 X109.208 Y94.759 E108.90499
G1 X84.328 Y69.879 E110.00172
G1 X84.688 Y69.348 E110.02170
G1 X109.458 Y94.118 E111.11356
G1 X109.708 Y93.478 E111.13499
G1 X85.048 Y68.818 E112.22199
G1 X85.408 Y68.288 E112.24197
G1 X109.958 Y92.838 E113.32411
G1 X110.207 Y92.197 E113.34554
G1 X85.769 Y67.758 E114.42282
G1 X86.129 Y67.228 E114.44280
G1 X110.457 Y91.557 E115.51522
G1 X110.707 Y90.917 E115.53665
G1 X86.489 Y66.698 E116.60421
G1 X86.849 Y66.168 E116.62419
G1 X110.957 Y90.276 E117.68689
G1 X111.207 Y89.636 E117.70832
G1 X87.209 Y65.638 E118.76616
G1 X87.570 Y65.108 E118.78613
G1 X111.457 Y88.996 E119.83911
G1 X110.624 Y87.272 F7800.000
G1 X87.930 Y64.578 E120.83948 F1800.000
G1 X88.290 Y64.048 E120.85945
G1 X108.952 Y84.710 E121.77027
G1 X107.281 Y82.149 F7800.000
G1 X88.650 Y63.518 E122.59154 F1800.000
G1 X89.010 Y62.988 E122.61151
G1 X105.610 Y79.588 E123.34324
G1 X103.939 Y77.026 F7800.000
G1 X89.371 Y62.458 E123.98541 F1800.000
G1 X89.731 Y61.928 E124.00539
G1 X102.268 Y74.465 E124.55802
G1 X100.596 Y71.903 F7800.000
G1 X90.091 Y61.398 E125.02110 F1800.000
G1 X90.451 Y60.868 E125.04107
G1 X98.925 Y69.342 E125.41461
G1 X97.254 Y66.780 F7800.000
G1 X90.811 Y60.338 E125.69860 F1800.000
G1 X91.171 Y59.808 E125.71858
G1 X95.583 Y64.219 E125.91302
G1 X93.911 Y61.657 F7800.000
G1 X91.532 Y59.278 E126.01792 F1800.000
G1 X91.906 Y58.762 E126.03778
G1 X92.240 Y59.096 E126.05250
G1 E124.05250 F2400.00000
G92 E0
G1 X95.901 Y51.186 F7800.000
G1 E2.00000 F2400.00000
G1 X97.970 Y51.271 E2.06406 F1800.000
G1 X102.438 Y51.116 E2.20238
G1 X106.832 Y50.536 E2.33952
G1 X112.850 Y49.135 E2.53071
G1 X120.114 Y47.322 E2.76236
G1 X125.049 Y46.347 E2.91801
G1 X127.683 Y45.952 E3.00042
G1 X136.577 Y46.079 E3.27565
G1 X141.603 Y46.623 E3.43206
G1 X144.898 Y47.276 E3.53600
G1 X149.080 Y48.478 E3.67064
G1 X152.810 Y50.115 E3.79667
G1 X155.542 Y51.748 E3.89517
G1 X158.018 Y53.717 E3.99304
G1 X160.035 Y55.800 E4.08276
G1 X160.755 Y56.727 E4.11907
G1 X158.419 Y56.512 E4.19165
G1 X152.541 Y56.359 E4.37360
G1 X148.488 Y56.587 E4.49919
G1 X144.506 Y57.200 E4.62385
G1 X142.050 Y57.822 E4.70224
G1 X139.274 Y58.727 E4.79259
G1 X135.740 Y60.336 E4.91273
G1 X131.926 Y62.694 E5.05147
G1 X129.049 Y65.033 E5.16618
G1 X125.046 Y69.068 E5.34206
G1 X120.971 Y74.228 E5.54550
G1 X117.847 Y78.888 E5.71910
G1 X115.899 Y82.085 E5.83492
G1 X111.026 Y75.043 E6.09991
G1 X103.346 Y63.074 E6.53993
G1 X95.941 Y51.249 E6.97162
G1 X94.742 Y50.512 F7800.000
G1 X97.972 Y50.646 E7.07162 F1800.000
G1 X102.386 Y50.493 E7.20828
G1 X106.720 Y49.920 E7.34354
G1 X112.703 Y48.528 E7.53364
G1 X119.978 Y46.712 E7.76562
G1 X124.942 Y45.731 E7.92219
G1 X127.641 Y45.326 E8.00663
G1 X136.615 Y45.454 E8.28434
G1 X141.697 Y46.005 E8.44251
G1 X145.045 Y46.668 E8.54811
G1 X149.293 Y47.889 E8.68486
G1 X153.097 Y49.558 E8.81339
G1 X155.899 Y51.233 E8.91440
G1 X158.438 Y53.254 E9.01481
G1 X160.508 Y55.390 E9.10683
G1 X162.132 Y57.481 E9.18877
G1 X158.382 Y57.136 E9.30530
G1 X152.550 Y56.985 E9.48581
G1 X148.553 Y57.209 E9.60968
G1 X144.630 Y57.813 E9.73249
G1 X142.224 Y58.423 E9.80930
G1 X139.501 Y59.310 E9.89792
G1 X136.035 Y60.888 E10.01575
G1 X132.289 Y63.204 E10.15202
G1 X129.469 Y65.496 E10.26445
G1 X125.514 Y69.483 E10.43820
G1 X121.476 Y74.596 E10.63979
G1 X118.373 Y79.225 E10.81222
G1 X115.933 Y83.232 E10.95738
G1 X110.506 Y75.389 E11.25246
G1 X102.818 Y63.408 E11.69293
G1 X94.782 Y50.576 E12.16140
G1 X93.583 Y49.839 F7800.000
G1 X97.974 Y50.020 E12.29737 F1800.000
G1 X102.334 Y49.869 E12.43235
G1 X106.608 Y49.305 E12.56574
G1 X112.557 Y47.920 E12.75473
G1 X119.841 Y46.102 E12.98704
G1 X124.835 Y45.115 E13.14454
G1 X127.599 Y44.700 E13.23101
G1 X136.653 Y44.830 E13.51120
G1 X141.792 Y45.386 E13.67113
G1 X145.192 Y46.061 E13.77839
G1 X149.506 Y47.300 E13.91725
G1 X153.384 Y49.002 E14.04829
G1 X156.255 Y50.718 E14.15180
G1 X158.859 Y52.790 E14.25475
G1 X160.980 Y54.980 E14.34908
G1 X163.510 Y58.235 E14.47665
