; generated by Slic3r 1.2.9 on 2018-04-11 at 10:15:07

; external perimeters extrusion width = 0.50mm
; perimeters extrusion width = 0.72mm
; infill extrusion width = 0.72mm
; solid infill extrusion width = 0.72mm
; top infill extrusion width = 0.72mm

M107
M104 S200 ; set temperature
G28 ; home all axes
G1 Z5 F5000 ; lift nozzle

M109 S200 ; wait for temperature to be reached
G21 ; set units to millimeters
G90 ; use absolute coordinates
M82 ; use absolute distances for extrusion
G92 E0
G1 Z0.350 F7800.000
G1 E-2.00000 F2400.00000
G92 E0
G1 X61.743 Y74.300 F7800.000
G1 E2.00000 F2400.00000
G1 X102.649 Y42.277 E3.60737 F1800.000
G1 X103.580 Y41.627 E3.64252
G1 X104.205 Y41.240 E3.66526
G1 X105.055 Y40.778 E3.69521
G1 X105.958 Y40.371 E3.72584
G1 X106.989 Y39.996 E3.75979
G1 X108.317 Y39.664 E3.80214
G1 X108.798 Y39.595 E3.81718
G1 X109.306 Y39.542 E3.83298
G1 X110.369 Y39.473 E3.86593
G1 X111.314 Y39.479 E3.89518
G1 X112.295 Y39.542 E3.92559 F1800.000
G1 X112.851 Y39.601 E3.94290
G1 X115.820 Y40.045 E4.03578
G1 X117.785 Y40.663 E4.09953
G1 X118.617 Y41.075 E4.12824
G1 X120.570 Y42.549 E4.20396
G1 X121.208 Y43.249 E4.23326
G1 X122.061 Y44.422 E4.27814
G1 X122.811 Y45.735 E4.32492
G1 X123.394 Y47.083 E4.37036
G1 X143.588 Y113.051 E6.50501
G1 X144.133 Y114.858 E6.56340
G1 X144.348 Y115.827 E6.59410
G1 X144.541 Y117.171 E6.63610
G1 X144.608 Y118.018 E6.66240
G1 X144.797 Y130.803 E7.05804
G1 X144.797 Y134.991 E7.18761
G1 X144.763 Y135.661 E7.20837
G1 X144.575 Y137.505 E7.26571
G1 X144.443 Y138.308 E7.29089
G1 X143.855 Y140.835 E7.37117
G1 X143.108 Y143.236 E7.44900
G1 X142.848 Y143.923 E7.47172
G1 X142.267 Y145.236 E7.51614
G1 X142.012 Y145.749 E7.53386
G1 X140.756 Y148.030 E7.61444
G1 X140.460 Y148.516 E7.63205
G1 X139.729 Y149.610 E7.67276
G1 X138.730 Y150.783 E7.72042
G1 X137.242 Y152.164 E7.78323
G1 X136.864 Y152.489 E7.79867
G1 X135.970 Y153.202 E7.83403
G1 X135.203 Y153.730 E7.86287
G1 X133.271 Y154.868 E7.93222
G1 X132.571 Y155.226 E7.95658
G1 X131.858 Y155.539 E7.98065
G1 X131.017 Y155.842 E8.00832
G1 X130.246 Y156.061 E8.03311
G1 X128.253 Y156.592 E8.09695
G1 X127.393 Y156.761 E8.12405
G1 X98.468 Y160.486 E9.02642
G1 X96.177 Y160.381 E9.09738
G1 X95.003 Y160.001 E9.13556
G1 X91.503 Y158.495 E9.25346
G1 X89.585 Y157.237 E9.32442
G1 X88.178 Y155.335 E9.39764
G1 X57.265 Y92.522 E11.56375
G1 X56.518 Y90.799 E11.62188
G1 X55.661 Y88.618 E11.69438
G1 X55.224 Y85.676 E11.78641
G1 X55.261 Y85.200 E11.80116
G1 X55.591 Y83.596 E11.85185
G1 X56.104 Y82.083 E11.90126
G1 X56.513 Y81.129 E11.93338
G1 X57.357 Y79.523 E11.98953
G1 X57.738 Y78.887 E12.01247
G1 X58.894 Y77.180 E12.07624
G1 X59.809 Y76.100 E12.12004
G1 X61.259 Y74.719 E12.18200
G1 X61.687 Y74.349 E12.19950
G1 E10.19950 F2400.00000
G92 E0
G1 X98.214 Y152.371 F7800.000
G1 E2.00000 F2400.00000
G1 X98.322 Y152.228 E2.00555 F1800.000
G1 X98.402 Y152.042 E2.01181
G1 X98.465 Y151.758 E2.02082
G1 X99.029 Y151.715 E2.03831
G1 X99.288 Y151.645 E2.04662
G1 X99.446 Y151.707 E2.05186
G1 X99.539 Y151.662 E2.05506
G1 X99.649 Y151.558 E2.05975
G1 X99.804 Y151.548 E2.06455
G1 X100.421 Y151.654 E2.08394
G1 X98.804 Y152.063 F7800.000
G1 X98.164 Y151.486 E2.11057 F1800.000
G1 X97.575 Y151.082 E2.13267
G1 E0.13267 F2400.00000
G92 E0
G1 X103.637 Y143.870 F7800.000
G1 E2.00000 F2400.00000
G1 X103.399 Y144.330 E2.01603 F1800.000
G1 X103.502 Y144.638 E2.02607
G1 X103.187 Y144.673 E2.03587
G1 X102.621 Y144.531 E2.05395
G1 X102.137 Y144.261 E2.07109
G1 X102.797 Y144.069 E2.09238
G1 X103.427 Y143.676 E2.11535
G1 X103.582 Y143.819 E2.12188
G1 X103.194 Y144.101 F7800.000
G1 E0.12188 F2400.00000
G92 E0
G1 X111.472 Y134.477 F7800.000
G1 E2.00000 F2400.00000
G1 X111.343 Y134.696 E2.00787 F1800.000
G1 X111.211 Y134.756 E2.01235
G1 X111.080 Y134.792 E2.01657
G1 X110.775 Y134.757 E2.02606
G1 X110.664 Y134.678 E2.03028
G1 X110.379 Y134.418 E2.04220
G1 X110.430 Y134.157 E2.05043
G1 X110.562 Y133.895 E2.05950
G1 E0.05950 F2400.00000
G92 E0
G1 X114.305 Y126.451 F7800.000
G1 E2.00000 F2400.00000
G1 X114.346 Y126.180 E2.00849 F1800.000
G1 X114.403 Y125.973 E2.01512
G1 X114.772 Y125.351 E2.03751
G1 X115.252 Y124.971 E2.05645
G1 E0.05645 F2400.00000
G92 E0
G1 X116.443 Y127.564 F7800.000
G1 E2.00000 F2400.00000
G1 X116.107 Y126.905 E2.02288 F1800.000
G1 X115.967 Y126.293 E2.04232
G1 X116.288 Y126.061 E2.05459
G1 X116.782 Y126.233 E2.07080
G1 X117.620 Y126.934 E2.10458
G1 X116.509 Y127.529 E2.14354
G1 X117.606 Y127.650 F7800.000
G1 X117.125 Y127.908 E2.16044 F1800.000
G1 X116.749 Y128.768 E2.18947
G1 X115.970 Y128.011 E2.22310
G1 X115.516 Y127.120 E2.25404
G1 X115.357 Y126.428 E2.27600
G1 X115.384 Y126.113 E2.28580
G1 X115.501 Y125.858 E2.29449
G1 X115.998 Y125.499 E2.31346
G1 X116.355 Y125.422 E2.32476
G1 X117.096 Y125.681 E2.34904
G1 X118.093 Y126.515 E2.38925
G1 X118.552 Y127.115 E2.41261
G1 X118.754 Y127.626 E2.42964
G1 X118.728 Y127.998 E2.44118
G1 X118.443 Y128.051 E2.45014
G1 X118.311 Y127.770 E2.45975
G1 X117.680 Y127.663 E2.47955
G1 X117.249 Y127.300 F7800.000
G1 X118.733 Y128.353 F7800.000
G1 X118.442 Y128.978 E2.50087 F1800.000
G1 X118.206 Y129.156 E2.51001
G1 X117.985 Y129.253 E2.51749
G1 X117.658 Y129.275 E2.52764
G1 X117.020 Y129.023 E2.54886
G1 X116.808 Y126.970 F7800.000
G1 X116.532 Y126.693 E2.56095 F1800.000
G1 E0.56095 F2400.00000
G92 E0
G1 X124.159 Y147.099 F7800.000
G1 E2.00000 F2400.00000
G1 X123.894 Y147.095 E2.00817 F1800.000
G1 X123.743 Y145.908 E2.04518
G1 X124.389 Y146.038 E2.06555
G1 X124.232 Y147.018 E2.09628
G1 X124.304 Y148.106 E2.12999
G1 X123.509 Y147.807 E2.15625
G1 X124.108 Y147.154 E2.18365
G1 X124.226 Y146.844 F7800.000
G1 X123.155 Y147.675 F7800.000
G1 X122.588 Y147.415 E2.20296 F1800.000
G1 X121.804 Y146.979 E2.23071
G1 X120.375 Y146.080 E2.28295
G1 X119.684 Y145.598 E2.30901
G1 E0.30901 F2400.00000
G92 E0
G1 X125.975 Y146.406 F7800.000
G1 E2.00000 F2400.00000
G1 X126.310 Y145.584 E2.02747 F1800.000
G1 X126.224 Y145.621 E2.03037
G1 X124.556 Y142.421 E2.14202
G1 X125.530 Y142.447 E2.17217
G1 X126.428 Y145.154 E2.26044
G1 X126.926 Y146.518 E2.30535
G1 X126.050 Y146.415 E2.33265
G1 X126.341 Y146.065 F7800.000
G1 E0.33265 F2400.00000
G92 E0
G1 X114.061 Y92.709 F7800.000
G1 E2.00000 F2400.00000
G1 X114.357 Y92.667 E2.00926 F1800.000
G1 X114.996 Y92.702 E2.02905
G1 X115.581 Y92.794 E2.04736
G1 X116.758 Y93.202 E2.08592
G1 X116.913 Y93.292 E2.09148
G1 E0.09148 F2400.00000
G92 E0
G1 X116.644 Y95.980 F7800.000
G1 E2.00000 F2400.00000
G1 X116.532 Y96.023 E2.00372 F1800.000
G1 X114.960 Y96.166 E2.05254
G1 X114.165 Y96.163 E2.07715
G1 X114.121 Y95.839 E2.08726
G1 X114.505 Y95.733 E2.09958
G1 X115.943 Y95.245 E2.14657
G1 X116.305 Y95.267 E2.15778
G1 X116.616 Y95.468 E2.16924
G1 X116.749 Y95.832 E2.18122
G1 X116.687 Y95.919 E2.18452
G1 X117.448 Y95.925 F7800.000
G1 X117.103 Y96.412 E2.20298 F1800.000
G1 X116.919 Y96.544 E2.20999
G1 X116.674 Y96.638 E2.21810
G1 X114.987 Y96.791 E2.27053
G1 X113.320 Y96.785 E2.32210
G1 X111.612 Y96.488 E2.37573
G1 X112.364 Y95.823 E2.40680
G1 X113.297 Y95.418 E2.43827
G1 X114.321 Y95.135 E2.47114
G1 X115.859 Y94.613 E2.52139
G1 X116.507 Y94.654 E2.54147
G1 X117.131 Y95.057 E2.56446
G1 X117.422 Y95.855 E2.59074
G1 X110.896 Y96.793 F7800.000
G1 X111.061 Y96.270 E2.60772 F1800.000
G1 X111.241 Y95.982 E2.61823
G1 X112.025 Y95.290 E2.65057
G1 X113.089 Y94.828 E2.68647
G1 X114.137 Y94.538 E2.72013
G1 X115.775 Y93.982 E2.77364
G1 X116.709 Y94.040 E2.80259
G1 X117.646 Y94.646 E2.83711
G1 X118.058 Y95.774 E2.87427
G1 X118.049 Y96.157 E2.88613
G1 X117.696 Y96.656 E2.90505
G1 X117.684 Y96.766 E2.90845
G1 X117.217 Y97.099 E2.92620
G1 X116.817 Y97.253 E2.93947
G1 X115.013 Y97.416 E2.99551
G1 X113.265 Y97.410 E3.04960
G1 X111.252 Y97.060 E3.11281
G1 X110.956 Y96.838 E3.12426
G1 X111.300 Y96.499 F7800.000
G1 E1.12426 F2400.00000
G92 E0
G1 X120.658 Y90.376 F7800.000
G1 E2.00000 F2400.00000
G1 X121.067 Y90.230 E2.01341 F1800.000
G1 X121.913 Y90.020 E2.04040
G1 X123.606 Y89.949 E2.09282
G1 X123.908 Y89.957 E2.10218
G1 X124.929 Y90.333 E2.13584
G1 X125.265 Y90.523 E2.14780
G1 X125.598 Y90.859 E2.16244
G1 X126.013 Y91.554 E2.18748
G1 X126.180 Y91.957 E2.20098
G1 X126.447 Y92.801 E2.22835
G1 X126.447 Y94.887 E2.29291
G1 X125.850 Y96.679 E2.35136
G1 X125.577 Y96.677 E2.35979
G1 X125.320 Y95.864 E2.38616
G1 X124.055 Y93.520 E2.46858
G1 X122.627 Y91.900 E2.53540
G1 X120.718 Y90.422 E2.61012
G1 X119.115 Y90.307 F7800.000
G1 X119.921 Y89.976 E2.63706 F1800.000
G1 X120.886 Y89.631 E2.66875
G1 X121.824 Y89.398 E2.69866
G1 X123.601 Y89.324 E2.75369
G1 X124.048 Y89.335 E2.76753
G1 X124.286 Y89.441 E2.77559
G1 X125.190 Y89.762 E2.80528
G1 X125.649 Y90.022 E2.82159
G1 X126.096 Y90.474 E2.84125
G1 X126.573 Y91.273 E2.87006
G1 X126.768 Y91.743 E2.88581
G1 X127.072 Y92.704 E2.91699
G1 X127.072 Y94.989 E2.98768
G1 X126.290 Y97.335 E3.06422
G1 X125.721 Y98.553 E3.10580
G1 X125.438 Y98.503 E3.11472
G1 X125.416 Y98.238 E3.12293
G1 X124.742 Y96.109 E3.19203
G1 X123.539 Y93.880 E3.27041
G1 X122.198 Y92.358 E3.33317
G1 X120.483 Y91.031 E3.40026
G1 X119.182 Y90.342 E3.44583
G1 X117.602 Y90.345 F7800.000
G1 X118.261 Y89.982 E3.46912 F1800.000
G1 X119.697 Y89.393 E3.51716
G1 X120.704 Y89.032 E3.55026
G1 X121.734 Y88.776 E3.58309
G1 X123.595 Y88.699 E3.64073
G1 X124.187 Y88.714 E3.65905
G1 X124.517 Y88.860 E3.67021
G1 X125.451 Y89.191 E3.70087
G1 X126.032 Y89.521 E3.72154
G1 X126.593 Y90.088 E3.74622
G1 X127.133 Y90.992 E3.77880
G1 X127.355 Y91.529 E3.79679
G1 X127.697 Y92.607 E3.83178
G1 X127.697 Y95.090 E3.90860
G1 X126.871 Y97.567 E3.98939
G1 X126.269 Y98.857 E4.03343
G1 X125.723 Y99.944 E4.07106
G1 X125.177 Y100.812 E4.10278
G1 X124.888 Y100.697 E4.11243
G1 X124.962 Y100.316 E4.12443
G1 X124.799 Y98.360 E4.18517
G1 X124.164 Y96.354 E4.25028
G1 X123.023 Y94.239 E4.32462
G1 X121.769 Y92.816 E4.38333
G1 X120.143 Y91.558 E4.44691
G1 X118.504 Y90.690 E4.50431
G1 X117.672 Y90.372 E4.53188
G1 X118.090 Y90.239 F7800.000
G1 E2.53188 F2400.00000
G92 E0
G1 X124.904 Y101.080 F7800.000
G1 E2.00000 F2400.00000
G1 X124.668 Y101.657 E2.01928 F1800.000
G1 X124.070 Y102.724 E2.05712
G1 X123.670 Y103.226 E2.07700
G1 X123.498 Y103.410 E2.08478
G1 X122.781 Y104.009 E2.11372
G1 X122.215 Y105.168 E2.15363
G1 E0.15363 F2400.00000
G92 E0
G1 X125.284 Y100.055 F7800.000
G1 E2.00000 F2400.00000
G1 X125.520 Y98.835 E2.03846 F1800.000
G1 X125.833 Y95.582 F7800.000
G1 X125.518 Y95.267 E2.05302 F1800.000
G1 X126.069 Y94.883 E2.07500
G1 X124.422 Y93.236 E2.15122
G1 X125.362 Y91.372 F7800.000
G1 X124.754 Y90.763 E2.17939 F1800.000
G1 X123.387 Y90.332 F7800.000
G1 X126.069 Y93.013 E2.30351 F1800.000
G1 X126.069 Y93.948 E2.33412
G1 X122.490 Y90.369 E2.49978
G1 X121.928 Y90.743 E2.52186
G1 X121.661 Y90.475 E2.53425
G1 E0.53425 F2400.00000
G92 E0
G1 X125.317 Y117.135 F7800.000
G1 E2.00000 F2400.00000
G1 X125.422 Y116.735 E2.01278 F1800.000
G1 X126.713 Y118.541 E2.08146
G1 X127.890 Y119.357 E2.12577
G1 X129.603 Y119.746 E2.18014
G1 X131.270 Y119.578 E2.23195
G1 X133.043 Y118.704 E2.29313
G1 X134.137 Y117.694 E2.33918
G1 X134.838 Y116.446 E2.38350
G1 X135.139 Y115.341 E2.41892
G1 X135.133 Y115.087 E2.42680
G1 X135.413 Y115.008 E2.43581
G1 X135.776 Y115.632 E2.45814
G1 X136.214 Y117.085 E2.50511
G1 X136.347 Y118.417 E2.54653
G1 X136.385 Y118.493 E2.54916
G1 X136.385 Y119.732 E2.58749
G1 X136.217 Y120.061 E2.59892
G1 X136.196 Y121.150 E2.63263
G1 X136.084 Y121.481 E2.64341
G1 X135.596 Y123.467 E2.70671
G1 X135.441 Y124.698 E2.74509
G1 X135.701 Y125.199 E2.76256
G1 X135.775 Y125.786 E2.78086
G1 X136.029 Y126.679 E2.80959
G1 X136.170 Y127.892 E2.84737
G1 X136.209 Y127.952 E2.84961
G1 X136.239 Y129.111 E2.88548
G1 X136.388 Y129.380 E2.89499
G1 X136.400 Y130.849 E2.94046
G1 X136.572 Y131.187 E2.95217
G1 X136.572 Y134.607 E3.05799
G1 X136.400 Y134.944 E3.06971
G1 X136.388 Y136.457 E3.11650
G1 X136.266 Y136.704 E3.12501
G1 X136.132 Y137.671 E3.15524
G1 X135.895 Y138.765 E3.18986
G1 X135.292 Y140.674 E3.25181
G1 X134.775 Y141.842 E3.29134
G1 X133.585 Y144.002 E3.36765
G1 X132.996 Y144.883 E3.40043
G1 X131.690 Y146.096 E3.45558
G1 X130.932 Y146.701 E3.48559
G1 X130.370 Y147.031 E3.50576
G1 X130.721 Y145.770 E3.54627
G1 X130.568 Y143.880 E3.60493
G1 X129.768 Y142.204 E3.66241
G1 X128.816 Y141.133 E3.70675
G1 X127.129 Y139.839 E3.77255
G1 X125.335 Y139.115 E3.83240
G1 X123.700 Y138.989 E3.88313
G1 X123.222 Y139.395 E3.90256
G1 X123.222 Y137.907 E3.94860
G1 X125.253 Y135.695 E4.04154
G1 X124.841 Y135.542 E4.05513
G1 X125.160 Y134.958 E4.07573
G1 X123.095 Y134.010 E4.14605
G1 X123.591 Y133.567 E4.16666
G1 X125.877 Y134.408 E4.24201
G1 X128.279 Y129.533 E4.41017
G1 X129.484 Y126.146 E4.52142
G1 X128.759 Y124.840 E4.56763
G1 X128.716 Y124.722 E4.57151
G1 X128.710 Y124.408 E4.58123
G1 X128.789 Y123.028 E4.62399
G1 X127.871 Y122.723 E4.65391
G1 X126.864 Y121.766 E4.69688
G1 X125.618 Y121.090 E4.74076
G1 X124.194 Y120.750 E4.78604
G1 X124.015 Y120.663 E4.79219
G1 X123.897 Y120.527 E4.79779
G1 X123.750 Y120.114 E4.81133
G1 X123.743 Y119.257 E4.83787
G1 X124.097 Y118.248 E4.87095
G1 X123.447 Y116.689 E4.92321
G1 X124.862 Y116.643 E4.96700
G1 X125.266 Y117.080 E4.98542
G1 E2.98542 F2400.00000
G92 E0
G1 X120.581 Y140.514 F7800.000
G1 E2.00000 F2400.00000
G1 X122.017 Y139.208 E2.06005 F1800.000
G1 X123.029 Y139.560 E2.09319
G1 X120.673 Y141.563 E2.18888
G1 X117.411 Y143.756 E2.31050
G1 X116.740 Y145.160 E2.35863
G1 X115.734 Y144.634 E2.39375
G1 X112.832 Y145.828 E2.49085
G1 X112.171 Y145.988 E2.51188
G1 X111.384 Y145.953 E2.53626
G1 X110.584 Y145.666 E2.56256
G1 X110.404 Y145.561 E2.56902
G1 X109.974 Y145.113 E2.58823
G1 X109.619 Y144.407 E2.61267
G1 X109.579 Y144.178 E2.61988
G1 X109.541 Y143.154 E2.65159
G1 X109.568 Y143.114 E2.65307
G1 X109.730 Y142.309 E2.67847
G1 X110.207 Y141.232 E2.71493
G1 X110.602 Y140.513 E2.74032
G1 X111.143 Y140.761 E2.75874
G1 X112.875 Y140.813 E2.81235
G1 X113.633 Y140.239 E2.84177
G1 X114.533 Y140.798 E2.87453
G1 X117.366 Y139.953 E2.96603
G1 X119.350 Y139.163 E3.03209
G1 X120.530 Y140.458 E3.08632
G1 X120.622 Y139.631 F7800.000
G1 X121.871 Y138.496 E3.13853 F1800.000
G1 X122.597 Y138.748 E3.16231
G1 X122.597 Y137.664 E3.19585
G1 X124.164 Y135.957 E3.26756
G1 X123.947 Y135.876 E3.27473
G1 X124.291 Y135.247 E3.29694
G1 X122.614 Y134.477 E3.35402
G1 X122.193 Y134.850 E3.37143
G1 X121.310 Y134.981 E3.39903
G1 X121.050 Y134.965 E3.40710
G1 X120.988 Y134.690 E3.41582
G1 X122.045 Y134.110 E3.45310
G1 X123.125 Y133.145 E3.49791
G1 X123.797 Y131.986 E3.53938
G1 X124.189 Y133.121 E3.57652
G1 X125.565 Y133.627 E3.62188
G1 X127.703 Y129.289 E3.77152
G1 X128.800 Y126.202 E3.87290
G1 X128.188 Y125.099 E3.91195
G1 X128.093 Y124.837 E3.92057
G1 X128.085 Y124.396 E3.93420
G1 X128.138 Y123.470 E3.96291
G1 X127.542 Y123.272 E3.98233
G1 X126.494 Y122.276 E4.02706
G1 X125.392 Y121.679 E4.06583
G1 X123.983 Y121.342 E4.11067
G1 X123.627 Y121.169 E4.12290
G1 X123.348 Y120.847 E4.13611
G1 X123.126 Y120.225 E4.15654
G1 X123.117 Y119.153 E4.18971
G1 X123.428 Y118.267 E4.21876
G1 X122.834 Y116.842 E4.26654
G1 X122.821 Y116.472 E4.27799
G1 X122.918 Y116.158 E4.28815
G1 X123.065 Y116.076 E4.29337
G1 X124.346 Y116.035 E4.33300
G1 X124.239 Y115.449 E4.35141
G1 X124.491 Y115.324 E4.36011
G1 X125.002 Y115.875 E4.38338
G1 X125.583 Y113.659 E4.45426
G1 X125.877 Y113.375 E4.46691
G1 X126.185 Y113.492 E4.47710
G1 X127.723 Y114.708 E4.53775
G1 X128.140 Y114.781 E4.55086
G1 X127.924 Y115.424 E4.57183
G1 X126.567 Y115.234 E4.61421
G1 X126.091 Y116.597 E4.65887
G1 X127.158 Y118.089 E4.71565
G1 X128.146 Y118.774 E4.75286
G1 X129.642 Y119.114 E4.80032
G1 X131.095 Y118.968 E4.84548
G1 X132.686 Y118.184 E4.90037
G1 X133.640 Y117.302 E4.94057
G1 X134.256 Y116.207 E4.97944
G1 X134.512 Y115.265 E5.00964
G1 X134.462 Y113.260 E5.07170
G1 X135.115 Y113.622 E5.09478
G1 X135.718 Y114.287 E5.12256
G1 X136.353 Y115.381 E5.16170
G1 X136.830 Y116.963 E5.21281
G1 X136.957 Y118.241 E5.25254
G1 X137.009 Y118.346 E5.25617
G1 X137.009 Y119.882 E5.30370
G1 X136.839 Y120.217 E5.31533
G1 X136.819 Y121.259 E5.34758
G1 X136.685 Y121.655 E5.36053
G1 X136.212 Y123.581 E5.42190
G1 X136.085 Y124.583 E5.45313
G1 X136.307 Y125.010 E5.46803
G1 X136.389 Y125.661 E5.48832
