; generated by Slic3r 1.2.9 on 2018-04-05 at 18:44:01

; external perimeters extrusion width = 0.50mm
; perimeters extrusion width = 0.72mm
; infill extrusion width = 0.72mm
; solid infill extrusion width = 0.72mm
; top infill extrusion width = 0.72mm

M107
M104 S200 ; set temperature
G28 ; home all axes
G1 Z5 F5000 ; lift nozzle

M109 S200 ; wait for temperature to be reached
G21 ; set units to millimeters
G90 ; use absolute coordinates
M82 ; use absolute distances for extrusion
G92 E0
G1 Z0.350 F7800.000
G1 E-2.00000 F2400.00000
G92 E0
G1 X74.570 Y58.166 F7800.000
G1 E2.00000 F2400.00000
G1 X76.210 Y56.562 E2.07096 F1800.000
G1 X78.298 Y55.613 E2.14192
G1 X79.979 Y55.403 E2.19434
G1 X120.560 Y55.560 E3.44999
G1 X122.817 Y55.965 E3.52095 F1800.000
G1 X124.801 Y57.116 E3.59191
G1 X125.928 Y58.337 E3.64332
G1 X131.370 Y65.967 E3.93328
G1 X158.163 Y104.148 E5.37652
G1 X162.802 Y111.203 E5.63778
G1 X165.295 Y115.444 E5.78999
G1 X165.860 Y116.688 E5.83228
G1 X168.485 Y124.532 E6.08820
G1 X168.826 Y126.484 E6.14953
G1 X169.026 Y135.322 E6.42305
G1 X169.077 Y137.800 E6.49972
G1 X168.726 Y140.066 E6.57069
G1 X167.623 Y142.077 E6.64165
G1 X165.901 Y143.591 E6.71261
G1 X163.765 Y144.428 E6.78357
G1 X162.455 Y144.559 E6.82431
G1 X37.586 Y144.597 E10.68791
G1 X35.328 Y144.200 E10.75888
G1 X33.339 Y143.058 E10.82984
G1 X31.859 Y141.305 E10.90080
G1 X31.175 Y139.649 E10.95625
G1 X31.138 Y139.505 E10.96084
G1 X30.923 Y137.710 E11.01678
G1 X31.123 Y126.467 E11.36473
G1 X31.474 Y124.453 E11.42798
G1 X34.087 Y116.765 E11.67920
G1 X34.702 Y115.450 E11.72412
G1 X39.933 Y106.863 E12.03525
G1 X42.172 Y103.550 E12.15897
G1 X69.735 Y64.906 E13.62763
G1 X74.527 Y58.227 E13.88198
G1 E11.88198 F2400.00000
G92 E0
G1 X80.172 Y127.497 F7800.000
G1 E2.00000 F2400.00000
G1 X79.519 Y127.514 E2.02021 F1800.000
G1 X72.191 Y129.152 E2.25256
G1 X46.854 Y134.433 E3.05336
G1 X39.737 Y136.018 E3.27894
G1 X39.178 Y136.105 E3.29647
G1 X39.321 Y128.061 E3.54540
G1 X78.175 Y124.894 E4.75158
G1 X78.925 Y124.144 E4.78441
G1 X79.088 Y124.818 E4.80589
G1 X80.144 Y127.428 E4.89299
G1 X77.202 Y117.240 F7800.000
G1 X74.689 Y117.015 E4.97106 F1800.000
G1 X55.604 Y117.272 E5.56163
G1 X46.227 Y117.428 E5.85182
G1 X43.169 Y117.360 E5.94645
G1 X46.937 Y111.175 E6.17052
G1 X48.824 Y108.391 E6.27460
G1 X49.271 Y107.902 E6.29509
G1 X50.274 Y108.107 E6.32674
G1 X70.742 Y114.110 E6.98674
G1 X74.891 Y115.028 E7.11821
G1 X77.184 Y115.028 E7.18916
G1 X77.823 Y111.072 E7.31313
G1 X78.586 Y107.864 E7.41517
G1 X78.144 Y106.449 E7.46104
G1 X57.543 Y99.908 E8.12982
G1 X65.166 Y94.834 E8.41314
G1 X77.419 Y103.118 E8.87080
G1 X79.937 Y104.654 E8.96204
G1 X81.586 Y103.275 E9.02855
G1 X85.630 Y99.371 E9.20246
G1 X86.363 Y97.693 E9.25914
G1 X85.353 Y96.570 E9.30585
G1 X81.075 Y93.253 E9.47336
G1 X77.031 Y89.668 E9.64056
G1 X82.043 Y87.944 E9.80454
G1 X83.107 Y90.108 E9.87915
G1 X86.275 Y95.697 E10.07793
G1 X87.833 Y97.834 E10.15978
G1 X89.519 Y97.249 E10.21498
G1 X90.065 Y98.170 E10.24812
G1 X87.200 Y99.804 E10.35019
G1 X85.075 Y101.484 E10.43400
G1 X82.980 Y103.713 E10.52863
G1 X81.210 Y106.211 E10.62337
G1 X80.260 Y108.034 E10.68696
G1 X79.033 Y111.250 E10.79347
G1 X78.269 Y114.869 E10.90792
G1 X78.068 Y118.611 E11.02387
G1 X78.088 Y118.818 E11.03032
G1 X77.761 Y118.888 E11.04064
G1 X77.226 Y117.311 E11.09217
G1 X76.741 Y117.826 F7800.000
G1 X74.665 Y117.640 E11.15666 F1800.000
G1 X55.613 Y117.897 E11.74620
G1 X46.225 Y118.053 E12.03674
G1 X42.072 Y117.960 E12.16527
G1 X46.411 Y110.837 E12.42335
G1 X48.333 Y108.003 E12.52931
G1 X49.049 Y107.219 E12.56216
G1 X50.424 Y107.500 E12.60558
G1 X70.898 Y113.504 E13.26574
G1 X74.959 Y114.403 E13.39444
G1 X76.652 Y114.403 E13.44682
G1 X77.210 Y110.950 E13.55504
G1 X77.939 Y107.887 E13.65247
G1 X77.645 Y106.946 E13.68296
G1 X56.113 Y100.109 E14.38196
G1 X65.027 Y94.175 E14.71330
G1 X65.225 Y94.120 E14.71967
G1 X77.757 Y102.592 E15.18772
G1 X79.880 Y103.887 E15.26464
G1 X81.168 Y102.810 E15.31659
G1 X85.107 Y99.008 E15.48598
G1 X85.629 Y97.812 E15.52638
G1 X84.926 Y97.030 E15.55891
G1 X80.676 Y93.734 E15.72532
G1 X76.233 Y89.795 E15.90904
G1 X75.886 Y89.401 E15.92528
G1 X82.360 Y87.174 E16.13713
G1 X83.660 Y89.815 E16.22821
G1 X86.801 Y95.357 E16.42533
G1 X88.066 Y97.092 E16.49175
G1 X89.796 Y96.492 E16.54842
G1 X90.927 Y98.398 E16.61701
G1 X87.550 Y100.324 E16.73729
G1 X85.498 Y101.945 E16.81821
G1 X83.465 Y104.110 E16.91008
G1 X81.744 Y106.537 E17.00217
G1 X80.831 Y108.290 E17.06332
G1 X79.634 Y111.427 E17.16720
G1 X78.890 Y114.951 E17.27863
G1 X78.695 Y118.598 E17.39165
G1 X78.995 Y121.771 E17.49025
G1 X79.685 Y124.627 E17.58117
G1 X80.637 Y126.981 E17.65976
G1 X81.279 Y128.094 E17.69950
G1 X79.596 Y128.137 E17.75160
G1 X72.322 Y129.763 E17.98220
G1 X46.985 Y135.044 E18.78302
G1 X39.853 Y136.632 E19.00909
G1 X38.540 Y136.837 E19.05023
G1 X38.706 Y127.484 E19.33965
G1 X77.895 Y124.289 E20.55624
G1 X78.671 Y123.514 E20.59018
G1 X76.765 Y117.897 E20.77371
G1 X76.280 Y118.412 F7800.000
G1 X74.641 Y118.265 E20.82462 F1800.000
G1 X55.623 Y118.522 E21.41313
G1 X46.223 Y118.678 E21.70402
G1 X40.974 Y118.561 E21.86647
G1 X45.885 Y110.499 E22.15855
G1 X47.841 Y107.614 E22.26638
G1 X48.827 Y106.536 E22.31160
G1 X50.575 Y106.893 E22.36679
G1 X71.054 Y112.899 E23.02711
G1 X75.027 Y113.778 E23.15304
G1 X76.120 Y113.778 E23.18685
G1 X76.597 Y110.828 E23.27931
G1 X77.291 Y107.909 E23.37214
G1 X77.145 Y107.443 E23.38724
G1 X54.683 Y100.311 E24.11647
G1 X64.763 Y93.600 E24.49117
G1 X65.199 Y93.479 E24.50516
G1 X65.518 Y93.564 E24.51539
G1 X78.095 Y102.066 E24.98512
G1 X79.823 Y103.120 E25.04773
G1 X80.750 Y102.345 E25.08512
G1 X84.584 Y98.644 E25.24999
G1 X84.895 Y97.930 E25.27409
G1 X84.499 Y97.490 E25.29244
G1 X80.277 Y94.215 E25.45776
G1 X75.789 Y90.237 E25.64332
G1 X74.800 Y89.114 E25.68962
G1 X82.678 Y86.404 E25.94739
G1 X84.212 Y89.523 E26.05495
G1 X87.327 Y95.018 E26.25039
G1 X88.298 Y96.350 E26.30139
G1 X90.073 Y95.734 E26.35952
G1 X91.578 Y98.270 E26.45076
G1 X91.715 Y98.668 E26.46379
G1 X87.901 Y100.843 E26.59966
G1 X85.922 Y102.407 E26.67769
G1 X83.950 Y104.506 E26.76680
G1 X82.279 Y106.864 E26.85623
G1 X81.402 Y108.547 E26.91494
G1 X80.235 Y111.604 E27.01618
G1 X79.511 Y115.032 E27.12460
G1 X79.321 Y118.585 E27.23469
G1 X79.613 Y121.667 E27.33048
G1 X80.282 Y124.435 E27.41859
G1 X81.200 Y126.707 E27.49441
G1 X82.803 Y129.486 E27.59368
G1 X82.549 Y129.687 E27.60371
G1 X81.845 Y129.022 E27.63367
G1 X80.995 Y128.727 E27.66151
G1 X79.673 Y128.760 E27.70245
G1 X72.454 Y130.374 E27.93131
G1 X47.117 Y135.655 E28.73213
G1 X39.969 Y137.246 E28.95870
G1 X37.902 Y137.568 E29.02345
G1 X38.091 Y126.907 E29.35336
G1 X77.616 Y123.685 E30.58036
G1 X77.955 Y123.347 E30.59518
G1 X76.304 Y118.483 E30.75409
G1 X76.255 Y117.913 F7800.000
G1 X82.912 Y129.847 F7800.000
G1 X84.549 Y131.696 E30.83051 F1800.000
G1 X85.110 Y132.266 E30.85527
G1 X78.824 Y125.333 F7800.000
G1 X78.509 Y125.018 E30.86926 F1800.000
G1 X77.882 Y125.287 E30.89063
G1 X79.432 Y126.837 E30.95934
G1 X78.974 Y127.274 E30.97920
G1 X77.055 Y125.354 E31.06431
G1 X76.227 Y125.422 E31.09036
G1 X78.243 Y127.438 E31.17973
G1 X77.511 Y127.601 E31.20325
G1 X75.399 Y125.489 E31.29688
G1 X74.571 Y125.557 E31.32293
G1 X76.779 Y127.765 E31.42082
G1 X76.047 Y127.928 E31.44433
G1 X73.743 Y125.624 E31.54649
G1 X72.915 Y125.692 E31.57253
G1 X75.315 Y128.092 E31.67895
G1 X74.583 Y128.256 E31.70246
G1 X72.087 Y125.759 E31.81313
G1 X71.259 Y125.827 E31.83917
G1 X73.851 Y128.419 E31.95411
G1 X73.119 Y128.583 E31.97762
G1 X70.431 Y125.894 E32.09681
G1 X69.603 Y125.962 E32.12285
G1 X72.388 Y128.746 E32.24631
G1 X71.649 Y128.903 E32.26998
G1 X68.775 Y126.029 E32.39739
G1 X67.947 Y126.097 E32.42343
G1 X70.908 Y129.057 E32.55469
G1 X70.167 Y129.212 E32.57842
G1 X67.119 Y126.164 E32.71353
G1 X66.291 Y126.232 E32.73957
G1 X69.426 Y129.366 E32.87854
G1 X68.685 Y129.521 E32.90227
G1 X65.464 Y126.299 E33.04509
G1 X64.636 Y126.367 E33.07114
G1 X67.944 Y129.675 E33.21781
G1 X67.203 Y129.830 E33.24154
G1 X63.808 Y126.434 E33.39208
G1 X62.980 Y126.502 E33.41812
G1 X66.462 Y129.984 E33.57251
G1 X65.721 Y130.138 E33.59624
G1 X62.152 Y126.569 E33.75448
G1 X61.324 Y126.637 E33.78052
G1 X64.980 Y130.293 E33.94262
G1 X64.239 Y130.447 E33.96635
G1 X60.496 Y126.704 E34.13231
G1 X59.668 Y126.772 E34.15835
G1 X63.498 Y130.602 E34.32816
G1 X62.757 Y130.756 E34.35189
G1 X58.840 Y126.839 E34.52555
G1 X58.012 Y126.907 E34.55159
G1 X62.016 Y130.911 E34.72911
G1 X61.275 Y131.065 E34.75284
G1 X57.184 Y126.974 E34.93422
G1 X56.356 Y127.042 E34.96026
G1 X60.534 Y131.220 E35.14549
G1 X59.793 Y131.374 E35.16922
G1 X55.528 Y127.109 E35.35830
G1 X54.700 Y127.177 E35.38435
G1 X59.052 Y131.528 E35.57729
G1 X58.311 Y131.683 E35.60102
G1 X53.872 Y127.244 E35.79781
G1 X53.045 Y127.312 E35.82385
G1 X57.570 Y131.837 E36.02450
G1 X56.829 Y131.992 E36.04823
G1 X52.217 Y127.379 E36.25274
G1 X51.389 Y127.447 E36.27878
G1 X56.088 Y132.146 E36.48714
G1 X55.347 Y132.301 E36.51087
G1 X50.561 Y127.514 E36.72309
G1 X49.733 Y127.582 E36.74913
G1 X54.606 Y132.455 E36.96520
G1 X53.865 Y132.610 E36.98893
G1 X48.905 Y127.649 E37.20885
G1 X48.077 Y127.717 E37.23490
G1 X53.124 Y132.764 E37.45868
G1 X52.383 Y132.918 E37.48241
G1 X47.249 Y127.784 E37.71004
G1 X46.421 Y127.852 E37.73608
G1 X51.642 Y133.073 E37.96757
G1 X50.901 Y133.227 E37.99130
G1 X45.593 Y127.919 E38.22665
G1 X44.765 Y127.987 E38.25269
G1 X50.160 Y133.382 E38.49189
G1 X49.419 Y133.536 E38.51562
G1 X43.937 Y128.054 E38.75868
G1 X43.109 Y128.122 E38.78472
G1 X48.678 Y133.691 E39.03163
G1 X47.937 Y133.845 E39.05536
G1 X42.281 Y128.189 E39.30613
G1 X41.453 Y128.257 E39.33217
G1 X47.196 Y134.000 E39.58679
G1 X46.460 Y134.159 E39.61040
G1 X40.626 Y128.324 E39.86910
G1 X39.798 Y128.392 E39.89514
G1 X45.728 Y134.322 E40.15808
G1 X44.996 Y134.485 E40.18160
G1 X39.677 Y129.167 E40.41740
G1 X39.662 Y130.047 E40.44498
G1 X44.263 Y134.648 E40.64900
G1 X43.531 Y134.811 E40.67253
G1 X39.646 Y130.926 E40.84477
G1 X39.630 Y131.806 E40.87236
G1 X42.799 Y134.974 E41.01283
G1 X42.066 Y135.138 E41.03635
G1 X39.615 Y132.686 E41.14505
G1 X39.599 Y133.566 E41.17263
G1 X41.334 Y135.301 E41.24955
G1 X40.602 Y135.464 E41.27308
G1 X39.583 Y134.446 E41.31822
G1 X39.568 Y135.325 E41.34581
G1 X39.869 Y135.627 E41.35917
G1 E39.35917 F2400.00000
G92 E0
G1 X44.255 Y117.002 F7800.000
G1 E2.00000 F2400.00000
G1 X43.955 Y116.702 E2.01317 F1800.000
G1 X44.290 Y116.151 E2.03317
G1 X45.161 Y117.023 E2.07139
G1 X46.068 Y117.043 E2.09951
G1 X44.626 Y115.601 E2.16278
G1 X44.961 Y115.050 E2.18278
G1 X46.950 Y117.040 E2.27006
G1 X47.822 Y117.025 E2.29710
G1 X45.297 Y114.500 E2.40791
G1 X45.632 Y113.949 E2.42791
G1 X48.694 Y117.011 E2.56223
G1 X49.565 Y116.996 E2.58928
G1 X45.967 Y113.398 E2.74713
G1 X46.303 Y112.848 E2.76713
G1 X50.437 Y116.982 E2.94850
G1 X51.308 Y116.967 E2.97554
G1 X46.638 Y112.297 E3.18044
G1 X46.974 Y111.746 E3.20044
G1 X52.180 Y116.953 E3.42886
G1 X53.052 Y116.938 E3.45590
G1 X47.314 Y111.201 E3.70762
G1 X47.672 Y110.673 E3.72741
G1 X53.923 Y116.924 E4.00166
G1 X54.795 Y116.909 E4.02870
G1 X48.030 Y110.145 E4.32548
G1 X48.388 Y109.617 E4.34527
G1 X55.666 Y116.895 E4.66458
G1 X56.540 Y116.883 E4.69170
G1 X48.746 Y109.089 E5.03365
G1 X49.111 Y108.567 E5.05339
G1 X57.415 Y116.871 E5.41771
G1 X58.289 Y116.859 E5.44484
G1 X49.871 Y108.441 E5.81417
G1 X51.106 Y108.790 E5.85400
G1 X59.163 Y116.847 E6.20750
G1 X60.037 Y116.836 E6.23462
G1 X52.360 Y109.158 E6.57148
G1 X53.613 Y109.525 E6.61201
G1 X60.912 Y116.824 E6.93221
G1 X61.786 Y116.812 E6.95934
G1 X54.867 Y109.893 E7.26289
G1 X56.121 Y110.261 E7.30343
G1 X62.660 Y116.800 E7.59034
G1 X63.535 Y116.788 E7.61746
G1 X57.375 Y110.628 E7.88772
G1 X58.628 Y110.996 E7.92826
G1 X64.409 Y116.777 E8.18187
G1 X65.283 Y116.765 E8.20899
G1 X59.882 Y111.364 E8.44596
G1 X61.136 Y111.731 E8.48649
G1 X66.157 Y116.753 E8.70681
G1 X67.032 Y116.741 E8.73393
G1 X62.389 Y112.099 E8.93760
G1 X63.643 Y112.467 E8.97813
G1 X67.906 Y116.730 E9.16516
G1 X68.780 Y116.718 E9.19228
G1 X64.897 Y112.834 E9.36265
G1 X66.151 Y113.202 E9.40319
G1 X69.655 Y116.706 E9.55691
G1 X70.529 Y116.694 E9.58404
G1 X67.404 Y113.570 E9.72111
G1 X68.658 Y113.937 E9.76165
G1 X71.403 Y116.682 E9.88208
G1 X72.277 Y116.671 E9.90920
G1 X69.912 Y114.305 E10.01298
G1 X71.103 Y114.610 E10.05111
G1 X73.152 Y116.659 E10.14101
G1 X74.026 Y116.647 E10.16814
G1 X72.240 Y114.862 E10.24647
G1 X73.378 Y115.113 E10.28263
G1 X74.907 Y116.642 E10.34969
G1 X75.880 Y116.729 E10.38000
G1 X74.516 Y115.365 E10.43984
G1 X75.444 Y115.407 E10.46863
G1 X76.853 Y116.816 E10.53049
G1 X77.789 Y116.866 E10.55956
G1 X76.535 Y115.612 E10.61458
G1 X77.528 Y115.719 E10.64555
G1 X77.834 Y116.025 E10.65901
G1 X77.692 Y115.340 F7800.000
G1 X77.752 Y114.785 E10.69568 F1800.000
G1 X78.442 Y111.100 E10.94159
G1 X79.218 Y108.579 E11.11463
G1 X78.814 Y107.171 F7800.000
G1 X79.836 Y108.193 E11.16024 F1800.000
G1 X80.123 Y107.578 E11.18164
G1 X73.769 Y101.224 E11.46528
G1 X72.131 Y104.094 F7800.000
G1 X64.024 Y95.987 E11.82715 F1800.000
G1 X63.483 Y96.347 E11.84768
G1 X70.810 Y103.675 E12.17475
G1 X69.490 Y103.255 E12.21849
G1 X62.942 Y96.708 E12.51077
G1 X62.401 Y97.068 E12.53129
G1 X68.169 Y102.836 E12.78876
G1 X66.848 Y102.417 E12.83250
G1 X61.859 Y97.428 E13.05517
G1 X61.318 Y97.788 E13.07569
G1 X65.527 Y101.997 E13.26356
G1 X64.206 Y101.578 E13.30730
G1 X60.777 Y98.149 E13.46036
G1 X60.236 Y98.509 E13.48088
G1 X62.885 Y101.158 E13.59914
G1 X61.564 Y100.739 E13.64288
G1 X59.694 Y98.869 E13.72634
G1 X59.153 Y99.229 E13.74686
G1 X60.243 Y100.319 E13.79551
G1 X58.922 Y99.900 E13.83925
G1 X58.626 Y99.604 E13.85246
G1 X64.565 Y95.627 F7800.000
G1 X73.452 Y104.514 E14.24914 F1800.000
G1 X74.773 Y104.933 E14.29289
G1 X65.420 Y95.580 E14.71039
G1 X68.203 Y97.461 F7800.000
G1 X76.094 Y105.352 E15.06263 F1800.000
G1 X77.415 Y105.772 F7800.000
G1 X70.986 Y99.343 E15.34962 F1800.000
G1 X76.551 Y103.105 F7800.000
G1 X80.432 Y106.985 E15.52281 F1800.000
G1 X80.740 Y106.393 E15.54391
G1 X78.941 Y104.593 E15.62424
G1 X80.149 Y104.900 F7800.000
G1 X81.079 Y105.830 E15.66580 F1800.000
G1 X81.453 Y105.303 E15.68620
G1 X80.639 Y104.489 E15.72253
G1 X81.360 Y104.308 E15.74599
G1 X81.827 Y104.775 E15.76683
G1 E13.76683 F2400.00000
G92 E0
G1 X84.263 Y93.082 F7800.000
G1 E2.00000 F2400.00000
G1 X80.141 Y88.961 E2.20344 F1800.000
G1 X79.400 Y89.216 E2.23082
G1 X85.497 Y95.313 E2.53177
G1 X84.407 Y95.220 E2.56996
G1 X78.658 Y89.471 E2.85370
G1 X77.932 Y89.742 E2.88074
G1 X78.432 Y90.242 E2.90544
G1 X81.949 Y88.775 F7800.000
G1 X81.625 Y88.450 E2.92146 F1800.000
G1 X80.883 Y88.705 E2.94884
G1 X82.959 Y90.781 E3.05129
G1 X85.489 Y95.797 F7800.000
G1 X85.805 Y96.126 E3.08125 F1800.000
G1 X86.834 Y97.395 E3.18842
G1 X87.252 Y98.052 F7800.000
G1 X86.933 Y97.733 E3.20330 F1800.000
G1 X86.494 Y98.234 E3.22526
G1 X87.508 Y99.248 E3.27249
G1 X86.925 Y99.607 E3.29501
G1 X86.435 Y99.117 E3.31784
G1 X86.270 Y99.685 F7800.000
G1 X84.677 Y101.079 E3.45668 F1800.000
G1 X82.497 Y103.289 E3.66031
G1 X81.833 Y104.059 E3.72705
G1 X87.965 Y98.545 F7800.000
G1 X89.509 Y97.844 E3.83827 F1800.000
G1 E1.83827 F2400.00000
G92 E0
G1 X77.990 Y119.159 F7800.000
G1 E2.00000 F2400.00000
G1 X78.452 Y121.319 E2.14490 F1800.000
G1 X78.452 Y121.319 F7800.000
G1 X78.567 Y121.851 E2.16176 F1800.000
G1 X79.063 Y123.564 E2.21695
G1 E0.21695 F2400.00000
G92 E0
G1 X89.318 Y86.887 F7800.000
G1 E2.00000 F2400.00000
G1 X88.628 Y82.920 E2.12459 F1800.000
G1 X88.936 Y82.819 E2.13460
G1 X90.549 Y86.029 E2.24576
G1 X90.861 Y87.065 E2.27926
G1 X90.147 Y87.077 E2.30135
G1 X89.733 Y87.028 E2.31425
G1 X89.389 Y86.911 E2.32549
G1 X88.042 Y75.847 F7800.000
G1 X88.003 Y75.106 E2.34844 F1800.000
G1 X88.461 Y75.539 E2.36792
G1 X88.354 Y75.886 E2.37917
G1 X88.117 Y75.856 E2.38657
G1 E0.38657 F2400.00000
G92 E0
G1 X75.002 Y75.562 F7800.000
G1 E2.00000 F2400.00000
G1 X87.845 Y77.845 E2.40361 F1800.000
G1 X87.837 Y78.337 E2.41881
G1 X85.033 Y77.917 E2.50653
G1 X77.860 Y77.873 E2.72847
G1 X75.735 Y77.549 E2.79499
G1 X74.216 Y76.949 E2.84552
G1 X73.961 Y76.734 E2.85585
G1 X73.889 Y76.578 E2.86118
G1 X73.845 Y76.189 E2.87327
